; generated by Slic3r 0.7.2-dev on 2012-03-25 at 19:02:48

; layer_height = 0.28
; perimeters = 3
; solid_layers = 3
; fill_density = 0.50
; nozzle_diameter = 0.4
; filament_diameter = 2.819
; extrusion_multiplier = 1
; perimeter_speed = 30
; infill_speed = 60
; travel_speed = 130
; extrusion_width_ratio = 0
; scale = 1
; single wall width = 0.46mm

M104 S220 ; set temperature
;
; Thing-O-Matic w/sjfw 1.11
; start.gcode
;
G21 ; set units to mm
G90 ; absoulte distances
; Dry run?
; P0 = normal P1 = no heat
M351 P0 
; Begin heating
M104 S220 ; extruder head
M140 S110 ; HBP
;
; Coarse home axes
; Set zero at limits for convenience
;
G1 Z999 F1500 ; home Z to get nozzle out of danger zone
G92 Z0
G1 Y-999 F4000 ; retract Y to get X out of front opening
G92 Y0
G1 X-999 F4000 ; now safe to home X
G92 X0
;
; Set actual offsets!
; Back off switches.
;
G1 X2 Y2 Z-2 F5000 
G1 Z999 F50
G92 Z121.3
G1 Y-999 F50
G92 Y-58.5
G1 X-999 F50
G92 X-58.5
;
; Extrude a turd then retract.
;
G1 X-50 Y55 Z.5 F10000
M116 ; wait for heat
G91 ; relative distances
G1 F4 ; set slow rate
G1 E3 ; extrude enough to get good pressure
G1 F4000 ; set for fast retract
G1 E-1 ; retract
;
; End of start.gcode
;
M109 S220 ; wait for temperature to be reached
G90 ; use absolute coordinates
G21 ; set units to millimeters
G92 E0 ; reset extrusion distance
M82 ; use absolute distances for extrusion
G1 Z0.280 F7800.000
G1 X-24.450 Y-9.285
G1 F1800.000 E1.00000
G1 X-4.300 Y-15.155 F900.000 E1.42256
G1 X-3.010 Y-15.415 E1.44906
G1 X-2.750 Y-15.445 E1.45433
G1 X-2.240 Y-15.465 E1.46461
G1 X2.740 Y-15.445 E1.56487
G1 X3.250 Y-15.375 E1.57524
G1 X4.690 Y-15.055 E1.60494
G1 X24.690 Y-9.205 E2.02449
G1 X25.170 Y-9.025 E2.03481
G1 X25.630 Y-8.795 E2.04517
G1 X26.280 Y-8.385 E2.06064
G1 X26.690 Y-8.065 E2.07111
G1 X26.880 Y-7.895 E2.07624
G1 X27.060 Y-7.715 E2.08137
G1 X27.560 Y-7.125 E2.09694
G1 X27.710 Y-6.915 E2.10214
G1 X28.100 Y-6.255 E2.11757
G1 X28.220 Y-6.015 E2.12297
G1 X28.410 Y-5.545 E2.13318
G1 X28.560 Y-5.055 E2.14350
G1 X28.670 Y-4.545 E2.15400
G1 X28.740 Y-4.035 E2.16437
G1 X28.740 Y4.025 E2.32665
G1 X28.670 Y4.535 E2.33701
G1 X28.560 Y5.045 E2.34752
G1 X28.410 Y5.535 E2.35783
G1 X28.220 Y6.005 E2.36804
G1 X27.980 Y6.465 E2.37849
G1 X27.710 Y6.905 E2.38888
G1 X27.560 Y7.115 E2.39408
G1 X27.060 Y7.705 E2.40965
G1 X26.880 Y7.885 E2.41477
G1 X26.690 Y8.055 E2.41991
G1 X26.280 Y8.375 E2.43038
G1 X25.630 Y8.785 E2.44585
G1 X25.170 Y9.015 E2.45621
G1 X24.440 Y9.275 E2.47181
G1 X4.290 Y15.145 E2.89437
G1 X3.000 Y15.405 E2.92087
G1 X2.740 Y15.435 E2.92614
G1 X2.230 Y15.455 E2.93641
G1 X-2.750 Y15.435 E3.03668
G1 X-3.260 Y15.365 E3.04705
G1 X-4.700 Y15.045 E3.07675
G1 X-24.700 Y9.195 E3.49630
G1 X-25.180 Y9.015 E3.50662
G1 X-25.640 Y8.785 E3.51698
G1 X-26.290 Y8.375 E3.53245
G1 X-26.700 Y8.055 E3.54292
G1 X-26.890 Y7.885 E3.54805
G1 X-27.070 Y7.705 E3.55318
G1 X-27.570 Y7.115 E3.56875
G1 X-27.720 Y6.905 E3.57395
G1 X-28.110 Y6.245 E3.58938
G1 X-28.230 Y6.005 E3.59478
G1 X-28.420 Y5.535 E3.60499
G1 X-28.570 Y5.045 E3.61531
G1 X-28.680 Y4.535 E3.62581
G1 X-28.750 Y4.025 E3.63618
G1 X-28.750 Y-4.035 E3.79846
G1 X-28.680 Y-4.545 E3.80882
G1 X-28.570 Y-5.055 E3.81933
G1 X-28.420 Y-5.545 E3.82964
G1 X-28.230 Y-6.015 E3.83985
G1 X-27.990 Y-6.475 E3.85030
G1 X-27.720 Y-6.915 E3.86069
G1 X-27.570 Y-7.125 E3.86589
G1 X-27.070 Y-7.715 E3.88146
G1 X-26.890 Y-7.895 E3.88658
G1 X-26.700 Y-8.065 E3.89172
G1 X-26.290 Y-8.385 E3.90219
G1 X-25.640 Y-8.795 E3.91766
G1 X-25.180 Y-9.025 E3.92802
G1 X-24.516 Y-9.264 E3.94222
G1 F1800.000 E2.94222
G92 E0
G1 X3.107 Y3.960 F7800.000
G1 F1800.000 E1.00000
G1 X4.287 Y3.960 F900.000 E1.02376
G1 X6.201 Y2.569 E1.07141
G1 X21.893 Y2.569 E1.38736
G1 X21.893 Y2.648 E1.38896
G1 X8.433 Y2.648 E1.65997
G1 X8.119 Y3.615 E1.68043
G1 X7.190 Y5.224 E1.71784
G1 X5.947 Y6.605 E1.75525
G1 X4.444 Y7.697 E1.79266
G1 X3.107 Y8.292 E1.82213
G1 X3.107 Y4.029 E1.90796
G1 X2.669 Y3.522 F7800.000
G1 X4.144 Y3.522 F900.000 E1.93767
G1 X5.996 Y2.177 E1.98375
G1 X6.011 Y2.131 E1.98472
G1 X22.331 Y2.131 E2.31331
G1 X22.331 Y3.086 E2.33254
G1 X8.751 Y3.086 E2.60597
G1 X8.521 Y3.794 E2.62095
G1 X7.546 Y5.483 E2.66021
G1 X6.241 Y6.932 E2.69947
G1 X4.664 Y8.078 E2.73873
G1 X2.882 Y8.871 E2.77799
G1 X2.669 Y8.916 E2.78239
G1 X2.669 Y3.591 E2.88960
G1 X2.231 Y3.084 F7800.000
G1 X4.002 Y3.084 F900.000 E2.92526
G1 X5.624 Y1.906 E2.96562
G1 X5.693 Y1.693 E2.97012
G1 X22.769 Y1.693 E3.31393
G1 X22.769 Y3.524 E3.35079
G1 X9.069 Y3.524 E3.62663
G1 X8.923 Y3.973 E3.63613
G1 X7.902 Y5.741 E3.67724
G1 X6.536 Y7.259 E3.71836
G1 X4.884 Y8.459 E3.75947
G1 X3.018 Y9.290 E3.80058
G1 X2.231 Y9.457 E3.81679
G1 X2.231 Y3.154 E3.94370
G1 F1800.000 E2.94370
G92 E0
G1 X-3.107 Y2.569 F7800.000
G1 F1800.000 E1.00000
G1 X-3.107 Y8.292 F900.000 E1.11523
G1 X-4.444 Y7.697 E1.14470
G1 X-5.947 Y6.605 E1.18211
G1 X-7.190 Y5.224 E1.21952
G1 X-8.119 Y3.615 E1.25693
G1 X-8.433 Y2.648 E1.27739
G1 X-21.893 Y2.648 E1.54840
G1 X-21.893 Y2.569 E1.55001
G1 X-3.176 Y2.569 E1.92687
G1 X-2.669 Y2.131 F7800.000
G1 X-2.669 Y8.916 F900.000 E2.06348
G1 X-2.882 Y8.871 E2.06788
G1 X-4.664 Y8.078 E2.10714
G1 X-6.241 Y6.932 E2.14640
G1 X-7.546 Y5.483 E2.18566
G1 X-8.521 Y3.794 E2.22492
G1 X-8.751 Y3.086 E2.23990
G1 X-22.331 Y3.086 E2.51333
G1 X-22.331 Y2.131 E2.53256
G1 X-2.738 Y2.131 E2.92705
G1 X-2.231 Y1.693 F7800.000
G1 X-2.231 Y9.457 F900.000 E3.08336
G1 X-3.018 Y9.290 E3.09957
G1 X-4.884 Y8.459 E3.14068
G1 X-6.536 Y7.259 E3.18179
G1 X-7.902 Y5.741 E3.22291
G1 X-8.923 Y3.973 E3.26402
G1 X-9.069 Y3.524 E3.27352
G1 X-22.769 Y3.524 E3.54936
G1 X-22.769 Y1.693 E3.58622
G1 X-2.300 Y1.693 E3.99833
G1 F1800.000 E2.99833
G92 E0
G1 X3.107 Y-3.960 F7800.000
G1 F1800.000 E1.00000
G1 X3.107 Y-8.292 F900.000 E1.08723
G1 X4.444 Y-7.697 E1.11670
G1 X5.947 Y-6.605 E1.15411
G1 X7.190 Y-5.224 E1.19151
G1 X8.119 Y-3.615 E1.22892
G1 X8.433 Y-2.648 E1.24938
G1 X21.893 Y-2.648 E1.52039
G1 X21.893 Y-2.569 E1.52200
G1 X6.201 Y-2.569 E1.83795
G1 X4.287 Y-3.960 E1.88560
G1 X3.176 Y-3.960 E1.90796
G1 X2.669 Y-3.522 F7800.000
G1 X2.669 Y-8.916 F900.000 E2.01657
G1 X2.882 Y-8.871 E2.02097
G1 X4.664 Y-8.078 E2.06023
G1 X6.241 Y-6.932 E2.09949
G1 X7.546 Y-5.483 E2.13875
G1 X8.521 Y-3.794 E2.17801
G1 X8.751 Y-3.086 E2.19299
G1 X22.331 Y-3.086 E2.46641
G1 X22.331 Y-2.131 E2.48565
G1 X6.011 Y-2.131 E2.81424
G1 X5.996 Y-2.177 E2.81521
G1 X4.144 Y-3.522 E2.86129
G1 X2.738 Y-3.522 E2.88960
G1 X2.231 Y-3.084 F7800.000
G1 X2.231 Y-9.457 F900.000 E3.01791
G1 X3.018 Y-9.290 E3.03412
G1 X4.884 Y-8.459 E3.07523
G1 X6.536 Y-7.259 E3.11634
G1 X7.902 Y-5.741 E3.15746
G1 X8.923 Y-3.973 E3.19857
G1 X9.069 Y-3.524 E3.20807
G1 X22.769 Y-3.524 E3.48391
G1 X22.769 Y-1.693 E3.52077
G1 X5.693 Y-1.693 E3.86458
G1 X5.624 Y-1.906 E3.86909
G1 X4.002 Y-3.084 E3.90944
G1 X2.300 Y-3.084 E3.94370
G1 F1800.000 E2.94370
G92 E0
G1 X-3.107 Y-2.569 F7800.000
G1 F1800.000 E1.00000
G1 X-21.893 Y-2.569 F900.000 E1.37826
G1 X-21.893 Y-2.648 E1.37986
G1 X-8.433 Y-2.648 E1.65087
G1 X-8.119 Y-3.615 E1.67133
G1 X-7.190 Y-5.224 E1.70874
G1 X-5.947 Y-6.605 E1.74615
G1 X-4.444 Y-7.697 E1.78356
G1 X-3.107 Y-8.292 E1.81303
G1 X-3.107 Y-2.638 E1.92687
G1 X-2.669 Y-2.131 F7800.000
G1 X-22.331 Y-2.131 F900.000 E2.32275
G1 X-22.331 Y-3.086 E2.34198
G1 X-8.751 Y-3.086 E2.61540
G1 X-8.521 Y-3.794 E2.63038
G1 X-7.546 Y-5.483 E2.66965
G1 X-6.241 Y-6.932 E2.70891
G1 X-4.664 Y-8.078 E2.74817
G1 X-2.882 Y-8.871 E2.78743
G1 X-2.669 Y-8.916 E2.79182
G1 X-2.669 Y-2.200 E2.92705
G1 X-2.231 Y-1.693 F7800.000
G1 X-22.769 Y-1.693 F900.000 E3.34056
G1 X-22.769 Y-3.524 E3.37741
G1 X-9.069 Y-3.524 E3.65325
G1 X-8.923 Y-3.973 E3.66275
G1 X-7.902 Y-5.741 E3.70386
G1 X-6.536 Y-7.259 E3.74498
G1 X-4.884 Y-8.459 E3.78609
G1 X-3.018 Y-9.290 E3.82721
G1 X-2.231 Y-9.457 E3.84341
G1 X-2.231 Y-1.763 E3.99833
G1 F1800.000 E2.99833
G92 E0
G1 X-3.414 Y3.411 F7800.000
G1 F1800.000 E1.00000
G1 X-3.949 Y2.876 F1800.000 E1.01730
G1 X-4.622 Y2.876 E1.03270
G1 X-3.414 Y4.084 E1.07177
G1 X-3.414 Y4.758 E1.08717
G1 X-5.296 Y2.876 E1.14802
G1 X-5.970 Y2.876 E1.16342
G1 X-3.414 Y5.432 E1.24604
G1 X-3.414 Y6.106 E1.26144
G1 X-6.643 Y2.876 E1.36584
G1 X-7.317 Y2.876 F7800.000
G1 X-3.414 Y6.779 F1800.000 E1.49202
G1 X-3.414 Y7.453 F7800.000
G1 X-7.985 Y2.881 F1800.000 E1.63981
G1 X-7.318 Y4.222 F7800.000
G1 X-4.097 Y7.444 F1800.000 E1.74395
G1 F1800.000 E0.74395
G92 E0
G1 X3.752 Y7.714 F7800.000
G1 F1800.000 E1.00000
G1 X3.414 Y7.376 F1800.000 E1.00964
G1 X3.414 Y6.757 E1.02211
G1 X4.180 Y7.524 E1.04395
G1 X4.567 Y7.291 E1.05304
G1 X3.414 Y6.138 E1.08591
G1 X3.414 Y5.519 E1.09838
G1 X4.926 Y7.031 E1.14146
G1 X5.285 Y6.770 E1.15039
G1 X3.414 Y4.899 E1.20368
G1 X3.414 Y4.280 E1.21615
G1 X5.643 Y6.510 E1.27966
G1 X5.962 Y6.209 E1.28848
G1 X4.019 Y4.267 E1.34382
G1 X4.495 Y4.123 F7800.000
G1 X6.255 Y5.884 F1800.000 E1.39396
G1 X6.549 Y5.558 E1.40279
G1 X4.854 Y3.863 E1.45106
G1 X5.213 Y3.602 E1.45999
G1 X6.842 Y5.232 E1.50641
G1 X7.097 Y4.867 E1.51537
G1 X5.571 Y3.342 E1.55882
G1 X5.930 Y3.081 E1.56775
G1 X7.323 Y4.475 E1.60744
G1 X7.550 Y4.082 E1.61657
G1 X6.343 Y2.876 E1.65094
G1 X6.963 Y2.876 E1.66341
G1 X7.777 Y3.690 E1.68659
G1 X7.952 Y3.246 E1.69620
G1 X7.582 Y2.876 E1.70674
G1 F1800.000 E0.70674
G92 E0
G1 X7.310 Y-4.236 F7800.000
G1 F1800.000 E1.00000
G1 X4.119 Y-7.427 F1800.000 E1.10173
G1 X3.414 Y-7.465 E1.11767
G1 X7.979 Y-2.899 E1.26325
G1 X7.336 Y-2.876 E1.27777
G1 X3.414 Y-6.798 E1.40283
G1 X3.414 Y-6.130 E1.41788
G1 X6.668 Y-2.876 E1.52166
G1 X4.744 Y-4.133 E1.57349
G1 X3.414 Y-5.463 E1.61590
G1 X3.414 Y-4.796 E1.63095
G1 X3.942 Y-4.267 E1.64782
G1 F1800.000 E0.64782
G92 E0
G1 X-3.752 Y-7.714 F7800.000
G1 F1800.000 E1.00000
G1 X-3.414 Y-7.376 F1800.000 E1.00964
G1 X-3.414 Y-6.757 E1.02211
G1 X-4.180 Y-7.524 E1.04395
G1 X-4.567 Y-7.291 E1.05304
G1 X-3.414 Y-6.138 E1.08591
G1 X-3.414 Y-5.519 E1.09838
G1 X-4.926 Y-7.031 E1.14146
G1 X-5.285 Y-6.770 E1.15039
G1 X-3.414 Y-4.899 E1.20368
G1 X-3.414 Y-4.280 E1.21615
G1 X-5.643 Y-6.510 E1.27966
G1 X-5.962 Y-6.209 E1.28848
G1 X-3.414 Y-3.661 E1.36107
G1 X-3.414 Y-3.042 E1.37355
G1 X-6.255 Y-5.884 E1.45449
G1 X-6.549 Y-5.558 E1.46332
G1 X-3.867 Y-2.876 E1.53972
G1 X-4.486 Y-2.876 E1.55219
G1 X-6.842 Y-5.232 E1.61931
G1 X-7.097 Y-4.867 E1.62826
G1 X-5.105 Y-2.876 E1.68499
G1 X-5.724 Y-2.876 E1.69746
G1 X-7.323 Y-4.475 E1.74301
G1 X-7.550 Y-4.082 E1.75214
G1 X-6.343 Y-2.876 E1.78651
G1 X-6.963 Y-2.876 E1.79898
G1 X-7.777 Y-3.690 E1.82216
G1 X-7.952 Y-3.246 E1.83177
G1 X-7.582 Y-2.876 E1.84231
G1 F1800.000 E0.84231
G92 E0
G1 Z0.560 F7800.000
G1 X3.107 Y3.960
G1 F1800.000 E1.00000
G1 X4.287 Y3.960 F1800.000 E1.02376
G1 X5.838 Y2.832 E1.06237
G1 X8.373 Y2.832 E1.11341
G1 X8.119 Y3.615 E1.12998
G1 X7.190 Y5.224 E1.16739
G1 X5.947 Y6.605 E1.20479
G1 X4.444 Y7.697 E1.24220
G1 X3.107 Y8.292 E1.27167
G1 X3.107 Y4.029 E1.35750
G1 X2.669 Y3.522 F7800.000
G1 X4.144 Y3.522 F1800.000 E1.38721
G1 X5.696 Y2.395 E1.42583
G1 X22.331 Y2.395 E1.76076
G1 X22.331 Y3.221 E1.77740
G1 X8.707 Y3.221 E2.05170
G1 X8.521 Y3.794 E2.06383
G1 X7.546 Y5.483 E2.10309
G1 X6.241 Y6.932 E2.14235
G1 X4.664 Y8.078 E2.18161
G1 X2.882 Y8.871 E2.22087
G1 X2.669 Y8.916 E2.22527
G1 X2.669 Y3.591 E2.33249
G1 X2.231 Y3.084 F7800.000
G1 X4.002 Y3.084 F1800.000 E2.36814
G1 X5.554 Y1.957 E2.40676
G1 X22.769 Y1.957 E2.75337
G1 X22.769 Y3.659 E2.78763
G1 X9.025 Y3.659 E3.06435
G1 X8.923 Y3.973 E3.07100
G1 X7.902 Y5.741 E3.11211
G1 X6.536 Y7.259 E3.15323
G1 X4.884 Y8.459 E3.19434
G1 X3.018 Y9.290 E3.23545
G1 X2.231 Y9.457 E3.25166
G1 X2.231 Y3.154 E3.37857
G1 F1800.000 E2.37857
G92 E0
G1 X-3.107 Y2.832 F7800.000
G1 F1800.000 E1.00000
G1 X-3.107 Y8.292 F1800.000 E1.10992
G1 X-4.444 Y7.697 E1.13939
G1 X-5.947 Y6.605 E1.17680
G1 X-7.190 Y5.224 E1.21421
G1 X-8.119 Y3.615 E1.25162
G1 X-8.373 Y2.832 E1.26818
G1 X-3.176 Y2.832 E1.37283
G1 X-2.669 Y2.395 F7800.000
G1 X-2.669 Y8.916 F1800.000 E1.50413
G1 X-2.882 Y8.871 E1.50853
G1 X-4.664 Y8.078 E1.54779
G1 X-6.241 Y6.932 E1.58705
G1 X-7.546 Y5.483 E1.62631
G1 X-8.521 Y3.794 E1.66557
G1 X-8.707 Y3.221 E1.67770
G1 X-22.331 Y3.221 E1.95201
G1 X-22.331 Y2.395 E1.96864
G1 X-2.738 Y2.395 E2.36313
G1 X-2.231 Y1.957 F7800.000
G1 X-2.231 Y9.457 F1800.000 E2.51413
G1 X-3.018 Y9.290 E2.53034
G1 X-4.884 Y8.459 E2.57145
G1 X-6.536 Y7.259 E2.61257
G1 X-7.902 Y5.741 E2.65368
G1 X-8.923 Y3.973 E2.69479
G1 X-9.025 Y3.659 E2.70144
G1 X-22.769 Y3.659 E2.97816
G1 X-22.769 Y1.957 E3.01242
G1 X-2.300 Y1.957 E3.42454
G1 F1800.000 E2.42454
G92 E0
G1 X3.107 Y-3.960 F7800.000
G1 F1800.000 E1.00000
G1 X3.107 Y-8.292 F1800.000 E1.08723
G1 X4.444 Y-7.697 E1.11670
G1 X5.947 Y-6.605 E1.15411
G1 X7.190 Y-5.224 E1.19151
G1 X8.119 Y-3.615 E1.22892
G1 X8.373 Y-2.832 E1.24549
G1 X5.838 Y-2.832 E1.29653
G1 X4.287 Y-3.960 E1.33514
G1 X3.176 Y-3.960 E1.35750
G1 X2.669 Y-3.522 F7800.000
G1 X2.669 Y-8.916 F1800.000 E1.46612
G1 X2.882 Y-8.871 E1.47051
G1 X4.664 Y-8.078 E1.50977
G1 X6.241 Y-6.932 E1.54903
G1 X7.546 Y-5.483 E1.58829
G1 X8.521 Y-3.794 E1.62756
G1 X8.707 Y-3.221 E1.63968
G1 X22.331 Y-3.221 E1.91399
G1 X22.331 Y-2.395 E1.93062
G1 X5.696 Y-2.395 E2.26556
G1 X4.144 Y-3.522 E2.30417
G1 X2.738 Y-3.522 E2.33249
G1 X2.231 Y-3.084 F7800.000
G1 X2.231 Y-9.457 F1800.000 E2.46079
G1 X3.018 Y-9.290 E2.47700
G1 X4.884 Y-8.459 E2.51811
G1 X6.536 Y-7.259 E2.55923
G1 X7.902 Y-5.741 E2.60034
G1 X8.923 Y-3.973 E2.64145
G1 X9.025 Y-3.659 E2.64810
G1 X22.769 Y-3.659 E2.92482
G1 X22.769 Y-1.957 E2.95908
G1 X5.554 Y-1.957 E3.30569
G1 X4.002 Y-3.084 E3.34431
G1 X2.300 Y-3.084 E3.37857
G1 F1800.000 E2.37857
G92 E0
G1 X-3.107 Y-2.832 F7800.000
G1 F1800.000 E1.00000
G1 X-8.373 Y-2.832 F1800.000 E1.10604
G1 X-8.119 Y-3.615 E1.12260
G1 X-7.190 Y-5.224 E1.16001
G1 X-5.947 Y-6.605 E1.19742
G1 X-4.444 Y-7.697 E1.23483
G1 X-3.107 Y-8.292 E1.26430
G1 X-3.107 Y-2.902 E1.37283
G1 X-2.669 Y-2.395 F7800.000
G1 X-22.331 Y-2.395 F1800.000 E1.76871
G1 X-22.331 Y-3.221 E1.78535
G1 X-8.707 Y-3.221 E2.05965
G1 X-8.521 Y-3.794 E2.07178
G1 X-7.546 Y-5.483 E2.11104
G1 X-6.241 Y-6.932 E2.15030
G1 X-4.664 Y-8.078 E2.18956
G1 X-2.882 Y-8.871 E2.22882
G1 X-2.669 Y-8.916 E2.23322
G1 X-2.669 Y-2.464 E2.36313
G1 X-2.231 Y-1.957 F7800.000
G1 X-22.769 Y-1.957 F1800.000 E2.77664
G1 X-22.769 Y-3.659 E2.81090
G1 X-9.025 Y-3.659 E3.08762
G1 X-8.923 Y-3.973 E3.09427
G1 X-7.902 Y-5.741 E3.13538
G1 X-6.536 Y-7.259 E3.17650
G1 X-4.884 Y-8.459 E3.21761
G1 X-3.018 Y-9.290 E3.25872
G1 X-2.231 Y-9.457 E3.27493
G1 X-2.231 Y-2.026 E3.42454
G1 F1800.000 E2.42454
G92 E0
G1 X-7.584 Y3.139 F7800.000
G1 F1800.000 E1.00000
G1 X-7.907 Y3.463 F3600.000 E1.00980
G1 X-7.671 Y3.872 E1.01991
G1 X-6.939 Y3.139 E1.04209
G1 X-6.294 Y3.139 E1.05590
G1 X-7.435 Y4.281 E1.09045
G1 X-7.199 Y4.689 E1.10056
G1 X-5.649 Y3.139 E1.14750
G1 X-5.005 Y3.139 E1.16130
G1 X-6.963 Y5.098 E1.22060
G1 X-6.658 Y5.437 E1.23038
G1 X-4.360 Y3.139 E1.29995
G1 X-3.715 Y3.139 E1.31376
G1 X-6.352 Y5.776 E1.39360
G1 X-6.047 Y6.115 E1.40338
G1 X-3.414 Y3.482 E1.48312
G1 X-3.414 Y4.127 E1.49692
G1 X-5.732 Y6.445 E1.56713
G1 X-5.358 Y6.717 E1.57701
G1 X-3.414 Y4.772 E1.63591
G1 X-3.414 Y5.416 E1.64971
G1 X-4.985 Y6.988 E1.69730
G1 X-4.612 Y7.259 E1.70719
G1 X-3.414 Y6.061 E1.74347
G1 X-3.414 Y6.706 E1.75727
G1 X-4.216 Y7.508 E1.78156
G1 X-3.770 Y7.707 E1.79202
G1 X-3.414 Y7.351 E1.80280
G1 F1800.000 E0.80280
G92 E0
G1 X3.942 Y4.267 F7800.000
G1 F1800.000 E1.00000
G1 X3.414 Y4.796 F3600.000 E1.01686
G1 X3.414 Y5.463 E1.03191
G1 X4.744 Y4.133 E1.07432
G1 X6.405 Y3.139 E1.11796
G1 X3.414 Y6.130 E1.21333
G1 X3.414 Y6.798 E1.22838
G1 X7.072 Y3.139 E1.34503
G1 X7.740 Y3.139 E1.36008
G1 X3.414 Y7.465 E1.49802
G1 X4.119 Y7.427 E1.51396
G1 X7.310 Y4.236 E1.61569
G1 F1800.000 E0.61569
G92 E0
G1 X7.907 Y-3.463 F7800.000
G1 F1800.000 E1.00000
G1 X7.584 Y-3.139 F3600.000 E1.00980
G1 X6.939 Y-3.139 E1.02361
G1 X7.671 Y-3.872 E1.04579
G1 X7.435 Y-4.281 E1.05590
G1 X6.294 Y-3.139 E1.09045
G1 X5.734 Y-3.224 E1.10259
G1 X7.199 Y-4.689 E1.14697
G1 X6.963 Y-5.098 E1.15708
G1 X5.360 Y-3.495 E1.20561
G1 X4.987 Y-3.766 E1.21550
G1 X6.658 Y-5.437 E1.26609
G1 X6.352 Y-5.776 E1.27586
G1 X4.613 Y-4.038 E1.32851
G1 X4.198 Y-4.267 F7800.000
