; generated by Slic3r 0.7.2-dev on 2012-04-01 at 09:17:08

; layer_height = .3
; perimeters = 3
; solid_layers = 3
; fill_density = 0.50
; nozzle_diameter = 0.4
; filament_diameter = 2.819
; extrusion_multiplier = 1
; perimeter_speed = 30
; infill_speed = 60
; travel_speed = 130
; extrusion_width_ratio = 0
; scale = 1
; single wall width = 0.42mm

M104 S215 ; set temperature
;
; Thing-O-Matic w/sjfw 1.11
; start.gcode
;
G21 ; set units to mm
G90 ; absoulte distances
; Dry run?
; P0 = normal P1 = no heat
M351 P0 
; Begin heating
M104 S220 ; extruder head
M140 S110 ; HBP
;
; Coarse home axes
; Set zero at limits for convenience
;
G1 Z999 F1500 ; home Z to get nozzle out of danger zone
G92 Z0
G1 Y-999 F4000 ; retract Y to get X out of front opening
G92 Y0
G1 X-999 F4000 ; now safe to home X
G92 X0
;
; Set actual offsets!
; Back off switches.
;
G1 X2 Y2 Z-2 F5000 
G1 Z999 F50
G92 Z121.3
G1 Y-999 F50
G92 Y-58.5
G1 X-999 F50
G92 X-58.5
;
; Extrude a turd then retract.
;
G1 X-50 Y55 Z.5 F10000
M116 ; wait for heat
G91 ; relative distances
G1 F4 ; set slow rate
G1 E3 ; extrude enough to get good pressure
G1 F4000 ; set for fast retract
G1 E-1 ; retract
;
; End of start.gcode
;
M109 S215 ; wait for temperature to be reached
G90 ; use absolute coordinates
G21 ; set units to millimeters
G92 E0 ; reset extrusion distance
M82 ; use absolute distances for extrusion
G1 Z0.300 F7800.000
G1 X-51.590 Y-36.930
G1 F1800.000 E1.00000
G1 X-51.430 Y-37.090 F900.000 E1.00456
G1 X-51.240 Y-37.250 E1.00956
G1 X-49.300 Y-38.540 E1.05646
G1 X-49.090 Y-38.650 E1.06124
G1 X-48.880 Y-38.740 E1.06584
G1 X-48.650 Y-38.810 E1.07068
G1 X-46.330 Y-39.270 E1.11830
G1 X-46.100 Y-39.290 E1.12295
G1 X46.090 Y-39.290 E2.97910
G1 X46.320 Y-39.270 E2.98375
G1 X48.640 Y-38.810 E3.03137
G1 X48.870 Y-38.740 E3.03621
G1 X49.080 Y-38.650 E3.04081
G1 X49.290 Y-38.540 E3.04558
G1 X51.040 Y-37.390 E3.08774
G1 X51.230 Y-37.250 E3.09249
G1 X51.420 Y-37.090 E3.09750
G1 X51.580 Y-36.930 E3.10205
G1 X51.740 Y-36.740 E3.10705
G1 X53.030 Y-34.800 E3.15396
G1 X53.140 Y-34.590 E3.15873
G1 X53.230 Y-34.380 E3.16333
G1 X53.300 Y-34.150 E3.16817
G1 X53.760 Y-31.830 E3.21579
G1 X53.780 Y-31.600 E3.22044
G1 X53.780 Y31.590 E4.49271
G1 X53.760 Y31.820 E4.49736
G1 X53.300 Y34.140 E4.54498
G1 X53.230 Y34.370 E4.54982
G1 X53.140 Y34.580 E4.55442
G1 X53.030 Y34.790 E4.55919
G1 X51.880 Y36.540 E4.60135
G1 X51.740 Y36.730 E4.60610
G1 X51.580 Y36.920 E4.61110
G1 X51.420 Y37.080 E4.61566
G1 X51.230 Y37.240 E4.62066
G1 X49.290 Y38.530 E4.66757
G1 X49.080 Y38.640 E4.67234
G1 X48.870 Y38.730 E4.67694
G1 X48.640 Y38.800 E4.68178
G1 X46.320 Y39.260 E4.72940
G1 X46.090 Y39.280 E4.73405
G1 X-46.100 Y39.280 E6.59020
G1 X-46.330 Y39.260 E6.59485
G1 X-48.650 Y38.800 E6.64247
G1 X-48.880 Y38.730 E6.64731
G1 X-49.090 Y38.640 E6.65191
G1 X-49.300 Y38.530 E6.65669
G1 X-51.050 Y37.380 E6.69885
G1 X-51.240 Y37.240 E6.70360
G1 X-51.430 Y37.080 E6.70860
G1 X-51.590 Y36.920 E6.71316
G1 X-51.750 Y36.730 E6.71816
G1 X-53.040 Y34.790 E6.76506
G1 X-53.150 Y34.580 E6.76984
G1 X-53.240 Y34.370 E6.77444
G1 X-53.310 Y34.140 E6.77928
G1 X-53.770 Y31.820 E6.82690
G1 X-53.790 Y31.590 E6.83155
G1 X-53.790 Y-31.600 E8.10381
G1 X-53.770 Y-31.830 E8.10846
G1 X-53.310 Y-34.150 E8.15608
G1 X-53.240 Y-34.380 E8.16092
G1 X-53.150 Y-34.590 E8.16552
G1 X-53.040 Y-34.800 E8.17029
G1 X-51.890 Y-36.550 E8.21246
G1 X-51.750 Y-36.740 E8.21721
G1 X-51.631 Y-36.881 E8.22093
G1 F1800.000 E7.22093
G92 E0
G1 X-48.188 Y-33.688 F7800.000
G1 F1800.000 E1.00000
G1 X-47.406 Y-34.211 F900.000 E1.01893
G1 X-47.312 Y-34.160 E1.02109
G1 X-47.312 Y-34.274 E1.02338
G1 X-46.496 Y-34.819 E1.04313
G1 X-44.288 Y-35.258 E1.08846
G1 X-44.288 Y-35.212 E1.08940
G1 X44.288 Y-35.212 E2.87278
G1 X44.288 Y-35.258 E2.87372
G1 X46.496 Y-34.819 E2.91905
G1 X47.312 Y-34.274 E2.93880
G1 X47.312 Y-34.160 E2.94109
G1 X47.406 Y-34.211 E2.94325
G1 X48.188 Y-33.688 E2.96218
G1 X49.319 Y-31.996 E3.00316
G1 X49.712 Y-30.021 E3.04371
G1 X49.712 Y30.021 E4.25259
G1 X49.319 Y31.996 E4.29314
G1 X48.188 Y33.688 E4.33411
G1 X47.406 Y34.211 E4.35305
G1 X47.312 Y34.160 E4.35521
G1 X47.312 Y34.274 E4.35749
G1 X46.496 Y34.819 E4.37725
G1 X44.288 Y35.258 E4.42258
G1 X44.288 Y35.212 E4.42351
G1 X-44.288 Y35.212 E6.20690
G1 X-44.288 Y35.258 E6.20783
G1 X-46.496 Y34.819 E6.25316
G1 X-47.312 Y34.274 E6.27292
G1 X-47.312 Y34.160 E6.27521
G1 X-47.406 Y34.211 E6.27736
G1 X-48.188 Y33.688 E6.29630
G1 X-49.319 Y31.996 E6.33727
G1 X-49.712 Y30.021 E6.37782
G1 X-49.712 Y-30.021 E7.58670
G1 X-49.319 Y-31.996 E7.62725
G1 X-48.224 Y-33.636 E7.66695
G1 X-48.487 Y-33.987 F7800.000
G1 X-46.658 Y-35.210 F900.000 E7.71125
G1 X-43.873 Y-35.764 E7.76841
G1 X-43.873 Y-35.627 E7.77117
G1 X43.873 Y-35.627 E9.53786
G1 X43.873 Y-35.764 E9.54062
G1 X46.658 Y-35.210 E9.59778
G1 X48.487 Y-33.987 E9.64208
G1 X49.710 Y-32.158 E9.68637
G1 X50.127 Y-30.062 E9.72941
G1 X50.127 Y30.062 E10.93993
G1 X49.710 Y32.158 E10.98296
G1 X48.487 Y33.987 E11.02726
G1 X47.727 Y34.496 E11.04568
G1 X47.727 Y34.496 E11.04568
G1 X46.658 Y35.210 E11.07156
G1 X43.873 Y35.764 E11.12872
G1 X43.873 Y35.627 E11.13148
G1 X-43.873 Y35.627 E12.89817
G1 X-43.873 Y35.764 E12.90093
G1 X-46.658 Y35.210 E12.95809
G1 X-47.727 Y34.496 E12.98397
G1 X-47.727 Y34.496 E12.98397
G1 X-48.487 Y33.987 E13.00239
G1 X-49.710 Y32.158 E13.04669
G1 X-50.127 Y30.062 E13.08972
G1 X-50.127 Y-30.062 E14.30024
G1 X-49.710 Y-32.158 E14.34327
G1 X-48.523 Y-33.934 E14.38629
G1 X-49.084 Y-34.584 F7800.000
G1 X-47.669 Y-35.529 F900.000 E14.42055
G1 X-45.938 Y-35.873 E14.45608
G1 X45.938 Y-35.873 E16.30592
G1 X47.669 Y-35.529 E16.34145
G1 X49.084 Y-34.584 E16.37571
G1 X50.029 Y-33.169 E16.40997
G1 X50.373 Y-31.438 E16.44550
G1 X50.373 Y31.438 E17.71145
G1 X50.029 Y33.169 E17.74698
G1 X49.084 Y34.584 E17.78124
G1 X47.669 Y35.529 E17.81550
G1 X45.938 Y35.873 E17.85103
G1 X-45.938 Y35.873 E19.70087
G1 X-47.669 Y35.529 E19.73640
G1 X-49.084 Y34.584 E19.77066
G1 X-50.029 Y33.169 E19.80492
G1 X-50.373 Y31.438 E19.84045
G1 X-50.373 Y-31.438 E21.10640
G1 X-50.029 Y-33.169 E21.14193
G1 X-49.119 Y-34.531 E21.17491
G1 X-49.383 Y-34.883 F7800.000
G1 X-47.831 Y-35.920 F900.000 E21.21249
G1 X-45.979 Y-36.288 E21.25050
G1 X45.979 Y-36.288 E23.10199
G1 X47.831 Y-35.920 E23.14000
G1 X49.383 Y-34.883 E23.17758
G1 X50.420 Y-33.331 E23.21516
G1 X50.788 Y-31.479 E23.25317
G1 X50.788 Y31.479 E24.52077
G1 X50.420 Y33.331 E24.55878
G1 X49.383 Y34.883 E24.59636
G1 X47.831 Y35.920 E24.63394
G1 X45.979 Y36.288 E24.67195
G1 X-45.979 Y36.288 E26.52344
G1 X-47.831 Y35.920 E26.56145
G1 X-49.383 Y34.883 E26.59903
G1 X-50.420 Y33.331 E26.63661
G1 X-50.788 Y31.479 E26.67462
G1 X-50.788 Y-31.479 E27.94222
G1 X-50.420 Y-33.331 E27.98023
G1 X-49.418 Y-34.830 E28.01653
G1 F1800.000 E27.01653
G92 E0
G1 X-44.300 Y34.683 F7800.000
G1 F1800.000 E1.00000
G1 X-44.300 Y-34.800 F900.000 E2.39896
G1 F1800.000 E1.39896
G92 E0
G1 X-41.300 Y34.683 F7800.000
G1 F1800.000 E1.00000
G1 X-41.300 Y-34.800 F900.000 E2.39896
G1 F1800.000 E1.39896
G92 E0
G1 X-38.300 Y34.683 F7800.000
G1 F1800.000 E1.00000
G1 X-38.300 Y-34.800 F900.000 E2.39896
G1 F1800.000 E1.39896
G92 E0
G1 X-35.300 Y34.683 F7800.000
G1 F1800.000 E1.00000
G1 X-35.300 Y-34.800 F900.000 E2.39896
G1 F1800.000 E1.39896
G92 E0
G1 X-32.300 Y34.683 F7800.000
G1 F1800.000 E1.00000
G1 X-32.300 Y-34.800 F900.000 E2.39896
G1 F1800.000 E1.39896
G92 E0
G1 X32.300 Y34.683 F7800.000
G1 F1800.000 E1.00000
G1 X32.300 Y-34.800 F900.000 E2.39896
G1 F1800.000 E1.39896
G92 E0
G1 X35.300 Y34.683 F7800.000
G1 F1800.000 E1.00000
G1 X35.300 Y-34.800 F900.000 E2.39896
G1 F1800.000 E1.39896
G92 E0
G1 X38.300 Y34.683 F7800.000
G1 F1800.000 E1.00000
G1 X38.300 Y-34.800 F900.000 E2.39896
G1 F1800.000 E1.39896
G92 E0
G1 X41.300 Y34.683 F7800.000
G1 F1800.000 E1.00000
G1 X41.300 Y-34.800 F900.000 E2.39896
G1 F1800.000 E1.39896
G92 E0
G1 X44.300 Y34.800 F7800.000
G1 F1800.000 E1.00000
G1 X44.300 Y-34.800 F900.000 E2.40131
G1 F1800.000 E1.40131
G92 E0
G1 X-47.233 Y33.701 F7800.000
G1 F1800.000 E1.00000
G1 X-47.298 Y-33.645 F900.000 E2.35594
G1 F1800.000 E1.35594
G92 E0
G1 X47.233 Y-33.701 F7800.000
G1 F1800.000 E1.00000
G1 X47.238 Y-33.726 F900.000 E1.00052
G1 F1800.000 E0.00052
G92 E0
G1 X33.569 Y-35.794 F7800.000
G1 F1800.000 E1.00000
G1 X43.735 Y-35.800 F1800.000 E1.20468
G1 X45.853 Y-35.629 E1.24746
G1 X46.764 Y-35.449 E1.26616
G1 X47.628 Y-35.057 E1.28526
G1 X48.783 Y-34.283 E1.31326
G1 X49.616 Y-33.036 E1.34345
G1 X49.988 Y-32.065 E1.36438
G1 X50.257 Y-30.082 E1.40468
G1 X50.257 Y29.658 E2.60748
G1 X50.130 Y31.353 E2.64170
G1 X49.872 Y32.443 E2.66426
G1 X49.616 Y33.036 E2.67727
G1 X48.783 Y34.283 E2.70745
G1 X47.628 Y35.057 E2.73545
G1 X46.764 Y35.449 E2.75455
G1 X44.158 Y35.754 E2.80737
G1 X-43.947 Y35.800 E4.58128
G1 X-45.853 Y35.629 E4.61981
G1 X-46.764 Y35.449 E4.63851
G1 X-47.628 Y35.057 E4.65761
G1 X-48.783 Y34.283 E4.68560
G1 X-49.616 Y33.036 E4.71579
G1 X-49.872 Y32.443 E4.72880
G1 X-50.108 Y31.454 E4.74926
G1 X-50.257 Y30.082 E4.77706
G1 X-50.257 Y-29.658 E5.97986
G1 X-50.130 Y-31.353 E6.01408
G1 X-49.872 Y-32.443 E6.03664
G1 X-49.616 Y-33.036 E6.04965
G1 X-48.783 Y-34.283 E6.07983
G1 X-47.628 Y-35.057 E6.10783
G1 X-46.764 Y-35.449 E6.12693
G1 X-44.158 Y-35.754 E6.17975
G1 X33.569 Y-35.794 E7.74471
G1 F1800.000 E6.74471
G92 E0
G1 Z0.600 F7800.000
G1 X44.288 Y-35.258
G1 F1800.000 E1.00000
G1 X46.496 Y-34.819 F1800.000 E1.04533
G1 X47.312 Y-34.274 E1.06509
G1 X47.312 Y-34.160 E1.06737
G1 X47.406 Y-34.211 E1.06953
G1 X48.188 Y-33.688 E1.08846
G1 X49.319 Y-31.996 E1.12944
G1 X49.712 Y-30.021 E1.16999
G1 X49.712 Y30.021 E2.37887
G1 X49.319 Y31.996 E2.41942
G1 X48.188 Y33.688 E2.46040
G1 X47.406 Y34.211 E2.47933
G1 X47.312 Y34.160 E2.48149
G1 X47.312 Y34.274 E2.48378
G1 X46.496 Y34.819 E2.50353
G1 X44.288 Y35.258 E2.54886
G1 X44.288 Y35.212 E2.54979
G1 X-44.288 Y35.212 E4.33318
G1 X-44.288 Y35.258 E4.33411
G1 X-46.496 Y34.819 E4.37944
G1 X-47.312 Y34.274 E4.39920
G1 X-47.312 Y34.160 E4.40149
G1 X-47.406 Y34.211 E4.40364
G1 X-48.188 Y33.688 E4.42258
G1 X-49.319 Y31.996 E4.46356
G1 X-49.712 Y30.021 E4.50411
G1 X-49.712 Y-30.021 E5.71299
G1 X-49.319 Y-31.996 E5.75353
G1 X-48.188 Y-33.688 E5.79451
G1 X-47.406 Y-34.211 E5.81345
G1 X-47.312 Y-34.160 E5.81560
G1 X-47.312 Y-34.274 E5.81789
G1 X-46.496 Y-34.819 E5.83765
G1 X-44.288 Y-35.258 E5.88298
G1 X-44.288 Y-35.212 E5.88391
G1 X44.271 Y-35.212 E7.66695
G1 X43.873 Y-35.627 F7800.000
G1 X43.873 Y-35.764 F1800.000 E7.66971
G1 X46.658 Y-35.210 E7.72687
G1 X48.487 Y-33.987 E7.77117
G1 X49.710 Y-32.158 E7.81546
G1 X50.127 Y-30.062 E7.85850
G1 X50.127 Y30.062 E9.06902
G1 X49.710 Y32.158 E9.11205
G1 X48.487 Y33.987 E9.15635
G1 X47.727 Y34.496 E9.17477
G1 X47.727 Y34.496 E9.17477
G1 X46.658 Y35.210 E9.20065
G1 X43.873 Y35.764 E9.25781
G1 X43.873 Y35.627 E9.26057
G1 X-43.873 Y35.627 E11.02726
G1 X-43.873 Y35.764 E11.03002
G1 X-46.658 Y35.210 E11.08718
G1 X-47.727 Y34.496 E11.11306
G1 X-47.727 Y34.496 E11.11306
G1 X-48.487 Y33.987 E11.13148
G1 X-49.710 Y32.158 E11.17578
G1 X-50.127 Y30.062 E11.21881
G1 X-50.127 Y-30.062 E12.42933
G1 X-49.710 Y-32.158 E12.47236
G1 X-48.487 Y-33.987 E12.51666
G1 X-46.658 Y-35.210 E12.56096
G1 X-43.873 Y-35.764 E12.61812
G1 X-43.873 Y-35.627 E12.62088
G1 X43.810 Y-35.627 E14.38629
G1 F1800.000 E13.38629
G92 E0
G1 X45.938 Y-35.873 F7800.000
G1 F1800.000 E1.00000
G1 X47.669 Y-35.529 F1800.000 E1.03553
G1 X49.084 Y-34.584 E1.06979
G1 X50.029 Y-33.169 E1.10405
G1 X50.373 Y-31.438 E1.13958
G1 X50.373 Y31.438 E2.40553
G1 X50.029 Y33.169 E2.44106
G1 X49.084 Y34.584 E2.47532
G1 X47.669 Y35.529 E2.50958
G1 X45.938 Y35.873 E2.54511
G1 X-45.938 Y35.873 E4.39495
G1 X-47.669 Y35.529 E4.43048
G1 X-49.084 Y34.584 E4.46474
G1 X-50.029 Y33.169 E4.49900
G1 X-50.373 Y31.438 E4.53452
G1 X-50.373 Y-31.438 E5.80048
G1 X-50.029 Y-33.169 E5.83601
G1 X-49.084 Y-34.584 E5.87027
G1 X-47.669 Y-35.529 E5.90453
G1 X-45.938 Y-35.873 E5.94006
G1 X45.875 Y-35.873 E7.78862
G1 X45.979 Y-36.288 F7800.000
G1 X47.831 Y-35.920 F1800.000 E7.82663
G1 X49.383 Y-34.883 E7.86421
G1 X50.420 Y-33.331 E7.90179
G1 X50.788 Y-31.479 E7.93980
G1 X50.788 Y31.479 E9.20740
G1 X50.420 Y33.331 E9.24541
G1 X49.383 Y34.883 E9.28299
G1 X47.831 Y35.920 E9.32057
G1 X45.979 Y36.288 E9.35858
G1 X-45.979 Y36.288 E11.21007
G1 X-47.831 Y35.920 E11.24808
G1 X-49.383 Y34.883 E11.28566
G1 X-50.420 Y33.331 E11.32324
G1 X-50.788 Y31.479 E11.36125
G1 X-50.788 Y-31.479 E12.62885
G1 X-50.420 Y-33.331 E12.66686
G1 X-49.383 Y-34.883 E12.70444
G1 X-47.831 Y-35.920 E12.74202
G1 X-45.979 Y-36.288 E12.78003
G1 X45.916 Y-36.288 E14.63024
G1 F1800.000 E13.63024
G92 E0
G1 X-44.300 Y34.683 F7800.000
G1 F1800.000 E1.00000
G1 X-44.300 Y-34.800 F1800.000 E2.39896
G1 F1800.000 E1.39896
G92 E0
G1 X-41.300 Y34.683 F7800.000
G1 F1800.000 E1.00000
G1 X-41.300 Y-34.800 F1800.000 E2.39896
G1 F1800.000 E1.39896
G92 E0
G1 X-38.300 Y34.683 F7800.000
G1 F1800.000 E1.00000
G1 X-38.300 Y-34.800 F1800.000 E2.39896
G1 F1800.000 E1.39896
G92 E0
G1 X-35.300 Y34.683 F7800.000
G1 F1800.000 E1.00000
G1 X-35.300 Y-34.800 F1800.000 E2.39896
G1 F1800.000 E1.39896
G92 E0
G1 X-32.300 Y34.683 F7800.000
G1 F1800.000 E1.00000
G1 X-32.300 Y-34.800 F1800.000 E2.39896
G1 F1800.000 E1.39896
G92 E0
G1 X32.300 Y34.683 F7800.000
G1 F1800.000 E1.00000
G1 X32.300 Y-34.800 F1800.000 E2.39896
G1 F1800.000 E1.39896
G92 E0
G1 X35.300 Y34.683 F7800.000
G1 F1800.000 E1.00000
G1 X35.300 Y-34.800 F1800.000 E2.39896
G1 F1800.000 E1.39896
G92 E0
G1 X38.300 Y34.683 F7800.000
G1 F1800.000 E1.00000
G1 X38.300 Y-34.800 F1800.000 E2.39896
G1 F1800.000 E1.39896
G92 E0
G1 X41.300 Y34.683 F7800.000
G1 F1800.000 E1.00000
G1 X41.300 Y-34.800 F1800.000 E2.39896
G1 F1800.000 E1.39896
G92 E0
G1 X44.300 Y34.800 F7800.000
G1 F1800.000 E1.00000
G1 X44.300 Y-34.800 F1800.000 E2.40131
G1 F1800.000 E1.40131
G92 E0
G1 X-47.233 Y33.701 F7800.000
G1 F1800.000 E1.00000
G1 X-47.298 Y-33.645 F1800.000 E2.35594
G1 F1800.000 E1.35594
G92 E0
G1 X47.233 Y-33.701 F7800.000
G1 F1800.000 E1.00000
G1 X47.238 Y-33.726 F1800.000 E1.00052
G1 F1800.000 E0.00052
G92 E0
G1 X33.569 Y-35.794 F7800.000
G1 F1800.000 E1.00000
G1 X43.735 Y-35.800 F3600.000 E1.20468
G1 X45.853 Y-35.629 E1.24746
G1 X46.764 Y-35.449 E1.26616
G1 X47.628 Y-35.057 E1.28526
G1 X48.783 Y-34.283 E1.31326
G1 X49.616 Y-33.036 E1.34345
G1 X49.988 Y-32.065 E1.36438
G1 X50.257 Y-30.082 E1.40468
G1 X50.257 Y29.658 E2.60748
G1 X50.130 Y31.353 E2.64170
G1 X49.872 Y32.443 E2.66426
G1 X49.616 Y33.036 E2.67727
G1 X48.783 Y34.283 E2.70745
G1 X47.628 Y35.057 E2.73545
G1 X46.764 Y35.449 E2.75455
G1 X44.158 Y35.754 E2.80737
G1 X-43.947 Y35.800 E4.58128
G1 X-45.853 Y35.629 E4.61981
G1 X-46.764 Y35.449 E4.63851
G1 X-47.628 Y35.057 E4.65761
G1 X-48.783 Y34.283 E4.68560
G1 X-49.616 Y33.036 E4.71579
G1 X-49.872 Y32.443 E4.72880
G1 X-50.108 Y31.454 E4.74926
G1 X-50.257 Y30.082 E4.77706
G1 X-50.257 Y-29.658 E5.97986
G1 X-50.130 Y-31.353 E6.01408
G1 X-49.872 Y-32.443 E6.03664
G1 X-49.616 Y-33.036 E6.04965
G1 X-48.783 Y-34.283 E6.07983
G1 X-47.628 Y-35.057 E6.10783
G1 X-46.764 Y-35.449 E6.12693
G1 X-44.158 Y-35.754 E6.17975
G1 X33.569 Y-35.794 E7.74471
G1 F1800.000 E6.74471
G92 E0
G1 Z0.900 F7800.000
G1 X44.288 Y-35.258
G1 F1800.000 E1.00000
G1 X46.496 Y-34.819 F1800.000 E1.04533
G1 X47.312 Y-34.274 E1.06509
G1 X47.312 Y-34.160 E1.06737
G1 X47.406 Y-34.211 E1.06953
G1 X48.188 Y-33.688 E1.08846
G1 X49.319 Y-31.996 E1.12944
G1 X49.712 Y-30.021 E1.16999
G1 X49.712 Y30.021 E2.37887
G1 X49.319 Y31.996 E2.41942
G1 X48.188 Y33.688 E2.46040
G1 X47.406 Y34.211 E2.47933
G1 X47.312 Y34.160 E2.48149
G1 X47.312 Y34.274 E2.48378
G1 X46.496 Y34.819 E2.50353
G1 X44.288 Y35.258 E2.54886
G1 X44.288 Y35.212 E2.54979
G1 X-44.288 Y35.212 E4.33318
G1 X-44.288 Y35.258 E4.33411
G1 X-46.496 Y34.819 E4.37944
G1 X-47.312 Y34.274 E4.39920
G1 X-47.312 Y34.160 E4.40149
G1 X-47.406 Y34.211 E4.40364
G1 X-48.188 Y33.688 E4.42258
G1 X-49.319 Y31.996 E4.46356
G1 X-49.712 Y30.021 E4.50411
G1 X-49.712 Y-30.021 E5.71299
G1 X-49.319 Y-31.996 E5.75353
G1 X-48.188 Y-33.688 E5.79451
G1 X-47.406 Y-34.211 E5.81345
G1 X-47.312 Y-34.160 E5.81560
