; generated by Slic3r 0.7.0 on 2012-03-03 at 10:00:12

; layer_height = 0.25
; perimeters = 3
; solid_layers = 3
; fill_density = .5
; nozzle_diameter = 0.4
; filament_diameter = 2.93
; extrusion_multiplier = 1
; perimeter_speed = 30
; infill_speed = 60
; travel_speed = 130
; extrusion_width_ratio = 0
; scale = 1
; single wall width = 0.53mm

M104 S218 ; set temperature
;
; Thing-O-Matic w/sjfw 1.11
; start.gcode
;
G21 ; set units to mm
G90 ; absoulte distances
; Dry run?
; P0 = normal P1 = no heat
M351 P0 
; Begin heating
M104 S220 ; extruder head
M140 S110 ; HBP
;
; Coarse home axes
; Set zero at limits for convenience
;
G1 Z999 F1500 ; home Z to get nozzle out of danger zone
G92 Z0
G1 Y-999 F4000 ; retract Y to get X out of front opening
G92 Y0
G1 X-999 F4000 ; now safe to home X
G92 X0
;
; Set actual offsets!
; Back off switches.
;
G1 X2 Y2 Z-2 F5000 
G1 Z999 F50
G92 Z121.3
G1 Y-999 F50
G92 Y-58.5
G1 X-999 F50
G92 X-58.5
;
; Extrude a turd then retract.
;
G1 X-50 Y55 Z.5 F10000
M116 ; wait for heat
G91 ; relative distances
G1 F4 ; set slow rate
G1 E3 ; extrude enough to get good pressure
G1 F4000 ; set for fast retract
G1 E-1 ; retract
;
; End of start.gcode
;
M109 S218 ; wait for temperature to be reached
G90 ; use absolute coordinates
G21 ; set units to millimeters
G92 E0 ; reset extrusion distance
M82 ; use absolute distances for extrusion
G1 Z0.250 F7800.000
G1 X-41.776 Y-41.776
G1 F1800.000 E0.20000
G1 X41.776 Y-41.776 F900.000 E1.75719
G1 X41.776 Y41.776 E3.31437
G1 X-41.776 Y41.776 E4.87156
G1 X-41.776 Y-41.696 E6.42726
G1 X-42.255 Y-42.255 F7800.000
G1 X42.255 Y-42.255 F900.000 E8.00232
G1 X42.255 Y42.255 E9.57737
G1 X-42.255 Y42.255 E11.15242
G1 X-42.255 Y-42.176 E12.72600
G1 X-42.735 Y-42.735 F7800.000
G1 X42.735 Y-42.735 F900.000 E14.31892
G1 X42.735 Y42.735 E15.91184
G1 X-42.735 Y42.735 E17.50477
G1 X-42.735 Y-42.655 E19.09620
G1 F1800.000 E18.89620
G92 E0
G1 X-41.005 Y41.447 F7800.000
G1 F1800.000 E0.20000
G1 X-41.447 Y41.005 F1800.000 E0.21166
G1 X-41.447 Y40.326 E0.22432
G1 X-40.326 Y41.447 E0.25389
G1 X-39.648 Y41.447 E0.26656
G1 X-41.447 Y39.648 E0.31404
G1 X-41.447 Y38.969 E0.32671
G1 X-38.969 Y41.447 E0.39211
G1 X-38.291 Y41.447 E0.40477
G1 X-41.447 Y38.291 E0.48808
G1 X-41.447 Y37.612 E0.50075
G1 X-37.612 Y41.447 E0.60197
G1 X-36.933 Y41.447 E0.61464
G1 X-41.447 Y36.933 E0.73377
G1 X-41.447 Y36.255 E0.74644
G1 X-36.255 Y41.447 E0.88349
G1 X-35.576 Y41.447 E0.89616
G1 X-41.447 Y35.576 E1.05112
G1 X-41.447 Y34.897 E1.06378
G1 X-34.897 Y41.447 E1.23666
G1 X-34.219 Y41.447 E1.24932
G1 X-41.447 Y34.219 E1.44011
G1 X-41.447 Y33.540 E1.45278
G1 X-33.540 Y41.447 E1.66148
G1 X-32.862 Y41.447 E1.67415
G1 X-41.447 Y32.862 E1.90076
G1 X-41.447 Y32.183 E1.91343
G1 X-32.183 Y41.447 E2.15795
G1 X-31.504 Y41.447 E2.17062
G1 X-41.447 Y31.504 E2.43306
G1 X-41.447 Y30.826 E2.44573
G1 X-30.826 Y41.447 E2.72608
G1 X-30.147 Y41.447 E2.73874
G1 X-41.447 Y30.147 E3.03701
G1 X-41.447 Y29.469 E3.04968
G1 X-29.469 Y41.447 E3.36585
G1 X-28.790 Y41.447 E3.37852
G1 X-41.447 Y28.790 E3.71261
G1 X-41.447 Y28.111 E3.72528
G1 X-28.111 Y41.447 E4.07728
G1 X-27.433 Y41.447 E4.08995
G1 X-41.447 Y27.433 E4.45987
G1 X-41.447 Y26.754 E4.47253
G1 X-26.754 Y41.447 E4.86037
G1 X-26.075 Y41.447 E4.87303
G1 X-41.447 Y26.075 E5.27878
G1 X-41.447 Y25.397 E5.29144
G1 X-25.397 Y41.447 E5.71510
G1 X-24.718 Y41.447 E5.72776
G1 X-41.447 Y24.718 E6.16933
G1 X-41.447 Y24.040 E6.18200
G1 X-24.040 Y41.447 E6.64148
G1 X-23.361 Y41.447 E6.65415
G1 X-41.447 Y23.361 E7.13155
G1 X-41.447 Y22.682 E7.14421
G1 X-22.682 Y41.447 E7.63952
G1 X-22.004 Y41.447 E7.65219
G1 X-41.447 Y22.004 E8.16541
G1 X-41.447 Y21.325 E8.17808
G1 X-21.325 Y41.447 E8.70921
G1 X-20.647 Y41.447 E8.72188
G1 X-41.447 Y20.647 E9.27092
G1 X-41.447 Y19.968 E9.28359
G1 X-19.968 Y41.447 E9.85055
G1 X-19.289 Y41.447 E9.86322
G1 X-41.447 Y19.289 E10.44809
G1 X-41.447 Y18.611 E10.46076
G1 X-18.611 Y41.447 E11.06355
G1 X-17.932 Y41.447 E11.07621
G1 X-41.447 Y17.932 E11.69691
G1 X-41.447 Y17.254 E11.70958
G1 X-17.254 Y41.447 E12.34819
G1 X-16.575 Y41.447 E12.36086
G1 X-41.447 Y16.575 E13.01738
G1 X-41.447 Y15.896 E13.03005
G1 X-15.896 Y41.447 E13.70449
G1 X-15.218 Y41.447 E13.71715
G1 X-41.447 Y15.218 E14.40951
G1 X-41.447 Y14.539 E14.42217
G1 X-14.539 Y41.447 E15.13244
G1 X-13.860 Y41.447 E15.14510
G1 X-41.447 Y13.860 E15.87328
G1 X-41.447 Y13.182 E15.88595
G1 X-13.182 Y41.447 E16.63204
G1 X-12.503 Y41.447 E16.64471
G1 X-41.447 Y12.503 E17.40871
G1 X-41.447 Y11.825 E17.42138
G1 X-11.825 Y41.447 E18.20329
G1 X-11.146 Y41.447 E18.21596
G1 X-41.447 Y11.146 E19.01579
G1 X-41.447 Y10.467 E19.02846
G1 X-10.467 Y41.447 E19.84620
G1 X-9.789 Y41.447 E19.85886
G1 X-41.447 Y9.789 E20.69452
G1 X-41.447 Y9.110 E20.70719
G1 X-9.110 Y41.447 E21.56076
G1 X-8.432 Y41.447 E21.57342
G1 X-41.447 Y8.432 E22.44490
G1 X-41.447 Y7.753 E22.45757
G1 X-7.753 Y41.447 E23.34697
G1 X-7.074 Y41.447 E23.35963
G1 X-41.447 Y7.074 E24.26694
G1 X-41.447 Y6.396 E24.27961
G1 X-6.396 Y41.447 E25.20483
G1 X-5.717 Y41.447 E25.21749
G1 X-41.447 Y5.717 E26.16063
G1 X-41.447 Y5.038 E26.17329
G1 X-5.038 Y41.447 E27.13434
G1 X-4.360 Y41.447 E27.14701
G1 X-41.447 Y4.360 E28.12597
G1 X-41.447 Y3.681 E28.13863
G1 X-3.681 Y41.447 E29.13551
G1 X-3.003 Y41.447 E29.14817
G1 X-41.447 Y3.003 E30.16296
G1 X-41.447 Y2.324 E30.17562
G1 X-2.324 Y41.447 E31.20832
G1 X-1.645 Y41.447 E31.22099
G1 X-41.447 Y1.645 E32.27160
G1 X-41.447 Y0.967 E32.28427
G1 X-0.967 Y41.447 E33.35279
G1 X-0.288 Y41.447 E33.36546
G1 X-41.447 Y0.288 E34.45190
G1 X-41.447 Y-0.390 E34.46456
G1 X0.390 Y41.447 E35.56892
G1 X1.069 Y41.447 E35.58158
G1 X-41.447 Y-1.069 E36.70385
G1 X-41.447 Y-1.748 E36.71651
G1 X1.748 Y41.447 E37.85669
G1 X2.426 Y41.447 E37.86936
G1 X-41.447 Y-2.426 E39.02745
G1 X-41.447 Y-3.105 E39.04011
G1 X3.105 Y41.447 E40.21612
G1 X3.784 Y41.447 E40.22878
G1 X-41.447 Y-3.784 E41.42270
G1 X-41.447 Y-4.462 E41.43536
G1 X4.462 Y41.447 E42.64719
G1 X5.141 Y41.447 E42.65986
G1 X-41.447 Y-5.141 E43.88960
G1 X-41.447 Y-5.819 E43.90227
G1 X5.819 Y41.447 E45.14992
G1 X6.498 Y41.447 E45.16259
G1 X-41.447 Y-6.498 E46.42816
G1 X-41.447 Y-7.177 E46.44082
G1 X7.177 Y41.447 E47.72430
G1 X7.855 Y41.447 E47.73697
G1 X-41.447 Y-7.855 E49.03837
G1 X-41.447 Y-8.534 E49.05103
G1 X8.534 Y41.447 E50.37034
G1 X9.212 Y41.447 E50.38301
G1 X-41.447 Y-9.212 E51.72023
G1 X-41.447 Y-9.891 E51.73289
G1 X9.891 Y41.447 E53.08802
G1 X10.570 Y41.447 E53.10069
G1 X-41.447 Y-10.570 E54.47374
G1 X-41.447 Y-11.248 E54.48640
G1 X11.248 Y41.447 E55.87736
G1 X11.927 Y41.447 E55.89003
G1 X-41.447 Y-11.927 E57.29890
G1 X-41.447 Y-12.606 E57.31157
G1 X12.606 Y41.447 E58.73835
G1 X13.284 Y41.447 E58.75102
G1 X-41.447 Y-13.284 E60.19572
G1 X-41.447 Y-13.963 E60.20838
G1 X13.963 Y41.447 E61.67100
G1 X14.641 Y41.447 E61.68366
G1 X-41.447 Y-14.641 E63.16419
G1 X-41.447 Y-15.320 E63.17685
G1 X15.320 Y41.447 E64.67529
G1 X15.999 Y41.447 E64.68796
G1 X-41.447 Y-15.999 E66.20431
G1 X-41.447 Y-16.677 E66.21697
G1 X16.677 Y41.447 E67.75124
G1 X17.356 Y41.447 E67.76390
G1 X-41.447 Y-17.356 E69.31608
G1 X-41.447 Y-18.034 E69.32874
G1 X18.034 Y41.447 E70.89883
G1 X18.713 Y41.447 E70.91150
G1 X-41.447 Y-18.713 E72.49950
G1 X-41.447 Y-19.392 E72.51217
G1 X19.392 Y41.447 E74.11808
G1 X20.070 Y41.447 E74.13075
G1 X-41.447 Y-20.070 E75.75458
G1 X-41.447 Y-20.749 E75.76724
G1 X20.749 Y41.447 E77.40899
G1 X21.428 Y41.447 E77.42165
G1 X-41.447 Y-21.428 E79.08131
G1 X-41.447 Y-22.106 E79.09397
G1 X22.106 Y41.447 E80.77154
G1 X22.785 Y41.447 E80.78421
G1 X-41.447 Y-22.785 E82.47969
G1 X-41.447 Y-23.463 E82.49235
G1 X23.463 Y41.447 E84.20575
G1 X24.142 Y41.447 E84.21841
G1 X-41.447 Y-24.142 E85.94972
G1 X-41.447 Y-24.821 E85.96239
G1 X24.821 Y41.447 E87.71160
G1 X25.499 Y41.447 E87.72427
G1 X-41.447 Y-25.499 E89.49140
G1 X-41.447 Y-26.178 E89.50407
G1 X26.178 Y41.447 E91.28912
G1 X26.856 Y41.447 E91.30178
G1 X-41.447 Y-26.856 E93.10474
G1 X-41.447 Y-27.535 E93.11741
G1 X27.535 Y41.447 E94.93828
G1 X28.214 Y41.447 E94.95094
G1 X-41.447 Y-28.214 E96.78973
G1 X-41.447 Y-28.892 E96.80239
G1 X28.892 Y41.447 E98.65909
G1 X29.571 Y41.447 E98.67176
G1 X-41.447 Y-29.571 E100.54637
G1 X-41.447 Y-30.250 E100.55904
G1 X30.250 Y41.447 E102.45156
G1 X30.928 Y41.447 E102.46423
G1 X-41.447 Y-30.928 E104.37466
G1 X-41.447 Y-31.607 E104.38733
G1 X31.607 Y41.447 E106.31568
G1 X32.285 Y41.447 E106.32834
G1 X-41.447 Y-32.285 E108.27461
G1 X-41.447 Y-32.964 E108.28727
G1 X32.964 Y41.447 E110.25145
G1 X33.643 Y41.447 E110.26411
G1 X-41.447 Y-33.643 E112.24620
G1 X-41.447 Y-34.321 E112.25887
G1 X34.321 Y41.447 E114.25887
G1 X35.000 Y41.447 E114.27154
G1 X-41.447 Y-35.000 E116.28945
G1 X-41.447 Y-35.678 E116.30212
G1 X35.678 Y41.447 E118.33794
G1 X36.357 Y41.447 E118.35061
G1 X-41.447 Y-36.357 E120.40435
G1 X-41.447 Y-37.036 E120.41702
G1 X37.036 Y41.447 E122.48867
G1 X37.714 Y41.447 E122.50134
G1 X-41.447 Y-37.714 E124.59090
G1 X-41.447 Y-38.393 E124.60357
G1 X38.393 Y41.447 E126.71105
G1 X39.071 Y41.447 E126.72372
G1 X-41.447 Y-39.071 E128.84911
G1 X-41.447 Y-39.750 E128.86178
G1 X39.750 Y41.447 E131.00508
G1 X40.429 Y41.447 E131.01775
G1 X-41.447 Y-40.429 E133.17897
G1 X-41.447 Y-41.107 E133.19163
G1 X41.107 Y41.447 E135.37076
G1 X41.447 Y41.107 E135.37972
G1 X-41.107 Y-41.447 E137.55885
G1 X-40.429 Y-41.447 E137.57152
G1 X41.447 Y40.429 E139.73274
G1 X41.447 Y39.750 E139.74540
G1 X-39.750 Y-41.447 E141.88871
G1 X-39.071 Y-41.447 E141.90137
G1 X41.447 Y39.071 E144.02677
G1 X41.447 Y38.393 E144.03943
G1 X-38.393 Y-41.447 E146.14691
G1 X-37.714 Y-41.447 E146.15958
G1 X41.447 Y37.714 E148.24914
G1 X41.447 Y37.036 E148.26181
G1 X-37.036 Y-41.447 E150.33346
G1 X-36.357 Y-41.447 E150.34613
G1 X41.447 Y36.357 E152.39987
G1 X41.447 Y35.678 E152.41254
G1 X-35.678 Y-41.447 E154.44837
G1 X-35.000 Y-41.447 E154.46103
G1 X41.447 Y35.000 E156.47895
G1 X41.447 Y34.321 E156.49161
G1 X-34.321 Y-41.447 E158.49161
G1 X-33.643 Y-41.447 E158.50428
G1 X41.447 Y33.643 E160.48637
G1 X41.447 Y32.964 E160.49903
G1 X-32.964 Y-41.447 E162.46321
G1 X-32.285 Y-41.447 E162.47588
G1 X41.447 Y32.285 E164.42214
G1 X41.447 Y31.607 E164.43480
G1 X-31.607 Y-41.447 E166.36315
G1 X-30.928 Y-41.447 E166.37582
G1 X41.447 Y30.928 E168.28626
G1 X41.447 Y30.250 E168.29892
G1 X-30.250 Y-41.447 E170.19145
G1 X-29.571 Y-41.447 E170.20411
G1 X41.447 Y29.571 E172.07872
G1 X41.447 Y28.892 E172.09139
G1 X-28.892 Y-41.447 E173.94809
G1 X-28.214 Y-41.447 E173.96075
G1 X41.447 Y28.214 E175.79954
G1 X41.447 Y27.535 E175.81220
G1 X-27.535 Y-41.447 E177.63307
G1 X-26.856 Y-41.447 E177.64574
G1 X41.447 Y26.856 E179.44870
G1 X41.447 Y26.178 E179.46137
G1 X-26.178 Y-41.447 E181.24641
G1 X-25.499 Y-41.447 E181.25908
G1 X41.447 Y25.499 E183.02621
G1 X41.447 Y24.821 E183.03888
G1 X-24.821 Y-41.447 E184.78810
G1 X-24.142 Y-41.447 E184.80076
G1 X41.447 Y24.142 E186.53207
G1 X41.447 Y23.463 E186.54473
G1 X-23.463 Y-41.447 E188.25813
G1 X-22.785 Y-41.447 E188.27079
G1 X41.447 Y22.785 E189.96627
G1 X41.447 Y22.106 E189.97894
G1 X-22.106 Y-41.447 E191.65651
G1 X-21.428 Y-41.447 E191.66917
G1 X41.447 Y21.428 E193.32883
G1 X41.447 Y20.749 E193.34149
G1 X-20.749 Y-41.447 E194.98324
G1 X-20.070 Y-41.447 E194.99590
G1 X41.447 Y20.070 E196.61973
G1 X41.447 Y19.392 E196.63240
G1 X-19.392 Y-41.447 E198.23831
G1 X-18.713 Y-41.447 E198.25098
G1 X41.447 Y18.713 E199.83898
G1 X41.447 Y18.034 E199.85165
G1 X-18.034 Y-41.447 E201.42174
G1 X-17.356 Y-41.447 E201.43440
G1 X41.447 Y17.356 E202.98658
G1 X41.447 Y16.677 E202.99924
G1 X-16.677 Y-41.447 E204.53351
G1 X-15.999 Y-41.447 E204.54617
G1 X41.447 Y15.999 E206.06252
G1 X41.447 Y15.320 E206.07519
G1 X-15.320 Y-41.447 E207.57363
G1 X-14.641 Y-41.447 E207.58629
G1 X41.447 Y14.641 E209.06682
G1 X41.447 Y13.963 E209.07948
G1 X-13.963 Y-41.447 E210.54210
G1 X-13.284 Y-41.447 E210.55476
G1 X41.447 Y13.284 E211.99946
G1 X41.447 Y12.606 E212.01213
G1 X-12.606 Y-41.447 E213.43891
G1 X-11.927 Y-41.447 E213.45158
G1 X41.447 Y11.927 E214.86045
G1 X41.447 Y11.248 E214.87312
G1 X-11.248 Y-41.447 E216.26408
G1 X-10.570 Y-41.447 E216.27674
G1 X41.447 Y10.570 E217.64979
G1 X41.447 Y9.891 E217.66245
G1 X-9.891 Y-41.447 E219.01759
G1 X-9.212 Y-41.447 E219.03025
G1 X41.447 Y9.212 E220.36747
G1 X41.447 Y8.534 E220.38014
G1 X-8.534 Y-41.447 E221.69945
G1 X-7.855 Y-41.447 E221.71211
G1 X41.447 Y7.855 E223.01351
G1 X41.447 Y7.177 E223.02617
G1 X-7.177 Y-41.447 E224.30965
G1 X-6.498 Y-41.447 E224.32232
G1 X41.447 Y6.498 E225.58789
G1 X41.447 Y5.819 E225.60056
G1 X-5.819 Y-41.447 E226.84821
G1 X-5.141 Y-41.447 E226.86088
G1 X41.447 Y5.141 E228.09062
G1 X41.447 Y4.462 E228.10329
G1 X-4.462 Y-41.447 E229.31511
G1 X-3.784 Y-41.447 E229.32778
G1 X41.447 Y3.784 E230.52170
G1 X41.447 Y3.105 E230.53436
G1 X-3.105 Y-41.447 E231.71037
G1 X-2.426 Y-41.447 E231.72303
G1 X41.447 Y2.426 E232.88112
G1 X41.447 Y1.748 E232.89379
G1 X-1.748 Y-41.447 E234.03397
G1 X-1.069 Y-41.447 E234.04663
G1 X41.447 Y1.069 E235.16890
G1 X41.447 Y0.390 E235.18156
G1 X-0.390 Y-41.447 E236.28591
G1 X0.288 Y-41.447 E236.29858
G1 X41.447 Y-0.288 E237.38502
G1 X41.447 Y-0.967 E237.39768
G1 X0.967 Y-41.447 E238.46621
G1 X1.645 Y-41.447 E238.47888
G1 X41.447 Y-1.645 E239.52949
G1 X41.447 Y-2.324 E239.54215
G1 X2.324 Y-41.447 E240.57485
G1 X3.003 Y-41.447 E240.58752
G1 X41.447 Y-3.003 E241.60230
G1 X41.447 Y-3.681 E241.61497
G1 X3.681 Y-41.447 E242.61184
G1 X4.360 Y-41.447 E242.62451
G1 X41.447 Y-4.360 E243.60347
G1 X41.447 Y-5.038 E243.61614
G1 X5.038 Y-41.447 E244.57718
G1 X5.717 Y-41.447 E244.58985
G1 X41.447 Y-5.717 E245.53298
G1 X41.447 Y-6.396 E245.54565
G1 X6.396 Y-41.447 E246.47087
G1 X7.074 Y-41.447 E246.48354
G1 X41.447 Y-7.074 E247.39085
G1 X41.447 Y-7.753 E247.40351
G1 X7.753 Y-41.447 E248.29291
G1 X8.432 Y-41.447 E248.30557
G1 X41.447 Y-8.432 E249.17705
G1 X41.447 Y-9.110 E249.18972
G1 X9.110 Y-41.447 E250.04329
G1 X9.789 Y-41.447 E250.05596
G1 X41.447 Y-9.789 E250.89161
G1 X41.447 Y-10.467 E250.90428
G1 X10.467 Y-41.447 E251.72202
G1 X11.146 Y-41.447 E251.73469
G1 X41.447 Y-11.146 E252.53452
G1 X41.447 Y-11.825 E252.54718
G1 X11.825 Y-41.447 E253.32910
G1 X12.503 Y-41.447 E253.34177
G1 X41.447 Y-12.503 E254.10577
G1 X41.447 Y-13.182 E254.11844
G1 X13.182 Y-41.447 E254.86453
G1 X13.860 Y-41.447 E254.87719
G1 X41.447 Y-13.860 E255.60537
G1 X41.447 Y-14.539 E255.61804
G1 X14.539 Y-41.447 E256.32830
G1 X15.218 Y-41.447 E256.34097
G1 X41.447 Y-15.218 E257.03332
G1 X41.447 Y-15.896 E257.04599
G1 X15.896 Y-41.447 E257.72043
G1 X16.575 Y-41.447 E257.73309
G1 X41.447 Y-16.575 E258.38962
G1 X41.447 Y-17.254 E258.40229
G1 X17.254 Y-41.447 E259.04090
G1 X17.932 Y-41.447 E259.05356
G1 X41.447 Y-17.932 E259.67426
G1 X41.447 Y-18.611 E259.68693
G1 X18.611 Y-41.447 E260.28972
G1 X19.289 Y-41.447 E260.30238
G1 X41.447 Y-19.289 E260.88726
G1 X41.447 Y-19.968 E260.89992
G1 X19.968 Y-41.447 E261.46688
G1 X20.647 Y-41.447 E261.47955
G1 X41.447 Y-20.647 E262.02860
G1 X41.447 Y-21.325 E262.04126
G1 X21.325 Y-41.447 E262.57240
G1 X22.004 Y-41.447 E262.58507
G1 X41.447 Y-22.004 E263.09829
G1 X41.447 Y-22.682 E263.11095
G1 X22.682 Y-41.447 E263.60626
G1 X23.361 Y-41.447 E263.61893
G1 X41.447 Y-23.361 E264.09632
G1 X41.447 Y-24.040 E264.10899
G1 X24.040 Y-41.447 E264.56847
G1 X24.718 Y-41.447 E264.58114
G1 X41.447 Y-24.718 E265.02271
G1 X41.447 Y-25.397 E265.03538
G1 X25.397 Y-41.447 E265.45903
G1 X26.075 Y-41.447 E265.47170
G1 X41.447 Y-26.075 E265.87744
G1 X41.447 Y-26.754 E265.89011
G1 X26.754 Y-41.447 E266.27794
G1 X27.433 Y-41.447 E266.29061
G1 X41.447 Y-27.433 E266.66052
G1 X41.447 Y-28.111 E266.67319
G1 X28.111 Y-41.447 E267.02519
G1 X28.790 Y-41.447 E267.03786
G1 X41.447 Y-28.790 E267.37195
G1 X41.447 Y-29.469 E267.38462
G1 X29.469 Y-41.447 E267.70080
G1 X30.147 Y-41.447 E267.71346
G1 X41.447 Y-30.147 E268.01173
G1 X41.447 Y-30.826 E268.02440
G1 X30.826 Y-41.447 E268.30475
G1 X31.504 Y-41.447 E268.31742
G1 X41.447 Y-31.504 E268.57985
G1 X41.447 Y-32.183 E268.59252
G1 X32.183 Y-41.447 E268.83705
G1 X32.862 Y-41.447 E268.84971
G1 X41.447 Y-32.862 E269.07633
G1 X41.447 Y-33.540 E269.08899
G1 X33.540 Y-41.447 E269.29769
