; generated by Slic3r 0.7.0 on 2012-03-02 at 11:40:55

; layer_height = .28
; perimeters = 3
; solid_layers = 3
; fill_density = .25
; nozzle_diameter = 0.4
; filament_diameter = 2.93
; extrusion_multiplier = 1
; perimeter_speed = 30
; infill_speed = 60
; travel_speed = 130
; extrusion_width_ratio = 0
; scale = 1
; single wall width = 0.46mm

M104 S220 ; set temperature
;
; Thing-O-Matic w/sjfw 1.11
; start.gcode
;
G21 ; set units to mm
G90 ; absoulte distances
; Dry run?
; P0 = normal P1 = no heat
M351 P0 
; Begin heating
M104 S220 ; extruder head
M140 S110 ; HBP
;
; Coarse home axes
; Set zero at limits for convenience
;
G1 Z999 F1500 ; home Z to get nozzle out of danger zone
G92 Z0
G1 Y-999 F4000 ; retract Y to get X out of front opening
G92 Y0
G1 X-999 F4000 ; now safe to home X
G92 X0
;
; Set actual offsets!
; Back off switches.
;
G1 X2 Y2 Z-2 F5000 
G1 Z999 F50
G92 Z121.3
G1 Y-999 F50
G92 Y-58.5
G1 X-999 F50
G92 X-58.5
;
; Extrude a turd then retract.
;
G1 X-50 Y55 Z.5 F10000
M116 ; wait for heat
G91 ; relative distances
G1 F4 ; set slow rate
G1 E3 ; extrude enough to get good pressure
G1 F4000 ; set for fast retract
G1 E-1 ; retract
;
; End of start.gcode
;
M109 S220 ; wait for temperature to be reached
G90 ; use absolute coordinates
G21 ; set units to millimeters
G92 E0 ; reset extrusion distance
M82 ; use absolute distances for extrusion
G1 Z0.280 F7800.000
G1 X-25.100 Y-11.920
G1 F1800.000 E1.00000
G1 X-24.920 Y-12.100 F900.000 E1.00474
G1 X-24.540 Y-12.440 E1.01425
G1 X-23.920 Y-12.880 E1.02842
G1 X-23.700 Y-13.010 E1.03318
G1 X-23.240 Y-13.240 E1.04276
G1 X-22.770 Y-13.430 E1.05221
G1 X-22.280 Y-13.580 E1.06176
G1 X-22.030 Y-13.640 E1.06656
G1 X-21.280 Y-13.750 E1.08068
G1 X-20.770 Y-13.770 E1.09020
G1 X21.270 Y-13.750 E1.87371
G1 X22.020 Y-13.640 E1.88784
G1 X22.520 Y-13.510 E1.89747
G1 X23.000 Y-13.340 E1.90696
G1 X23.460 Y-13.130 E1.91638
G1 X23.690 Y-13.010 E1.92122
G1 X23.910 Y-12.880 E1.92598
G1 X24.530 Y-12.440 E1.94015
G1 X24.910 Y-12.100 E1.94965
G1 X25.090 Y-11.920 E1.95440
G1 X25.430 Y-11.540 E1.96390
G1 X25.870 Y-10.920 E1.97807
G1 X26.000 Y-10.700 E1.98283
G1 X26.230 Y-10.240 E1.99242
G1 X26.420 Y-9.770 E2.00186
G1 X26.570 Y-9.280 E2.01141
G1 X26.630 Y-9.030 E2.01621
G1 X26.740 Y-8.280 E2.03033
G1 X26.740 Y8.270 E2.33878
G1 X26.630 Y9.020 E2.35291
G1 X26.500 Y9.520 E2.36254
G1 X26.330 Y10.000 E2.37203
G1 X26.120 Y10.460 E2.38145
G1 X26.000 Y10.690 E2.38629
G1 X25.870 Y10.910 E2.39105
G1 X25.430 Y11.530 E2.40522
G1 X25.090 Y11.910 E2.41472
G1 X24.910 Y12.090 E2.41947
G1 X24.530 Y12.430 E2.42897
G1 X23.910 Y12.870 E2.44314
G1 X23.690 Y13.000 E2.44790
G1 X23.230 Y13.230 E2.45749
G1 X22.760 Y13.420 E2.46694
G1 X22.270 Y13.570 E2.47649
G1 X22.020 Y13.630 E2.48128
G1 X21.270 Y13.740 E2.49541
G1 X20.760 Y13.760 E2.50492
G1 X-21.280 Y13.740 E3.28843
G1 X-22.030 Y13.630 E3.30256
G1 X-22.530 Y13.500 E3.31219
G1 X-23.010 Y13.330 E3.32168
G1 X-23.470 Y13.120 E3.33110
G1 X-23.700 Y13.000 E3.33594
G1 X-23.920 Y12.870 E3.34070
G1 X-24.540 Y12.430 E3.35487
G1 X-24.920 Y12.090 E3.36437
G1 X-25.100 Y11.910 E3.36912
G1 X-25.440 Y11.530 E3.37862
G1 X-25.880 Y10.910 E3.39279
G1 X-26.010 Y10.690 E3.39755
G1 X-26.240 Y10.230 E3.40714
G1 X-26.430 Y9.760 E3.41659
G1 X-26.580 Y9.270 E3.42614
G1 X-26.640 Y9.020 E3.43093
G1 X-26.750 Y8.270 E3.44506
G1 X-26.750 Y-8.280 E3.75351
G1 X-26.640 Y-9.030 E3.76763
G1 X-26.510 Y-9.530 E3.77726
G1 X-26.340 Y-10.010 E3.78675
G1 X-26.130 Y-10.470 E3.79618
G1 X-26.010 Y-10.700 E3.80101
G1 X-25.880 Y-10.920 E3.80577
G1 X-25.440 Y-11.540 E3.81994
G1 X-25.146 Y-11.868 E3.82815
G1 F1800.000 E2.82815
G92 E0
G1 X-19.893 Y-6.893 F7800.000
G1 F1800.000 E1.00000
G1 X-6.107 Y-6.893 F900.000 E1.25695
G1 X-6.107 Y6.893 E1.51390
G1 X-19.893 Y6.893 E1.77086
G1 X-19.893 Y-6.824 E2.02652
G1 X-20.331 Y-7.331 F7800.000
G1 X-5.669 Y-7.331 F900.000 E2.29979
G1 X-5.669 Y7.331 E2.57305
G1 X-20.331 Y7.331 E2.84632
G1 X-20.331 Y-7.262 E3.11830
G1 X-20.769 Y-7.769 F7800.000
G1 X-5.231 Y-7.769 F900.000 E3.40789
G1 X-5.231 Y7.769 E3.69747
G1 X-20.769 Y7.769 E3.98706
G1 X-20.769 Y-7.700 E4.27535
G1 F1800.000 E3.27535
G92 E0
G1 X6.107 Y-6.893 F7800.000
G1 F1800.000 E1.00000
G1 X19.893 Y-6.893 F900.000 E1.25695
G1 X19.893 Y6.893 E1.51390
G1 X6.107 Y6.893 E1.77086
G1 X6.107 Y-6.824 E2.02652
G1 X5.669 Y-7.331 F7800.000
G1 X20.331 Y-7.331 F900.000 E2.29979
G1 X20.331 Y7.331 E2.57305
G1 X5.669 Y7.331 E2.84632
G1 X5.669 Y-7.262 E3.11830
G1 X5.231 Y-7.769 F7800.000
G1 X20.769 Y-7.769 F900.000 E3.40789
G1 X20.769 Y7.769 E3.69747
G1 X5.231 Y7.769 E3.98706
G1 X5.231 Y-7.700 E4.27535
G1 X6.414 Y-5.652 F7800.000
G1 X18.652 Y6.586 F1800.000 E4.60102
G1 X18.029 Y6.586 F7800.000
G1 X6.414 Y-5.029 F1800.000 E4.91012
G1 X6.414 Y-4.406 F7800.000
G1 X17.406 Y6.586 F1800.000 E5.20264
G1 X16.783 Y6.586 F7800.000
G1 X6.414 Y-3.783 F1800.000 E5.47858
G1 X6.414 Y-3.160 F7800.000
G1 X16.160 Y6.586 F1800.000 E5.73795
G1 X15.537 Y6.586 F7800.000
G1 X6.414 Y-2.537 F1800.000 E5.98074
G1 X6.414 Y-1.914 F7800.000
G1 X14.914 Y6.586 F1800.000 E6.20696
G1 X14.292 Y6.586 F7800.000
G1 X6.414 Y-1.292 F1800.000 E6.41660
G1 X6.414 Y-0.669 F7800.000
G1 X13.669 Y6.586 F1800.000 E6.60966
G1 X13.046 Y6.586 F7800.000
G1 X6.414 Y-0.046 F1800.000 E6.78614
G1 X6.414 Y0.577 F7800.000
G1 X12.423 Y6.586 F1800.000 E6.94605
G1 X11.800 Y6.586 F7800.000
G1 X6.414 Y1.200 F1800.000 E7.08938
G1 X6.414 Y1.823 F7800.000
G1 X11.177 Y6.586 F1800.000 E7.21614
G1 X10.554 Y6.586 F7800.000
G1 X6.414 Y2.446 F1800.000 E7.32632
G1 X6.414 Y3.069 F7800.000
G1 X9.931 Y6.586 F1800.000 E7.41992
G1 X9.308 Y6.586 F7800.000
G1 X6.414 Y3.692 F1800.000 E7.49694
G1 X6.414 Y4.315 F7800.000
G1 X8.685 Y6.586 F1800.000 E7.55739
G1 X8.062 Y6.586 F7800.000
G1 X6.414 Y4.938 F1800.000 E7.60127
G1 X6.414 Y5.561 F7800.000
G1 X7.439 Y6.586 F1800.000 E7.62856
G1 X6.816 Y6.586 F7800.000
G1 X6.414 Y6.184 F1800.000 E7.63928
G1 F1800.000 E6.63928
G92 E0
G1 X7.348 Y-6.586 F7800.000
G1 F1800.000 E1.00000
G1 X19.586 Y5.652 F1800.000 E1.32567
G1 X19.586 Y6.275 F7800.000
G1 X6.725 Y-6.586 F1800.000 E1.66792
G1 X6.414 Y-6.275 E1.67621
G1 X19.275 Y6.586 E2.01846
G1 X19.586 Y5.029 F7800.000
G1 X7.971 Y-6.586 F1800.000 E2.32756
G1 X8.594 Y-6.586 F7800.000
G1 X19.586 Y4.406 F1800.000 E2.62008
G1 X19.586 Y3.783 F7800.000
G1 X9.217 Y-6.586 F1800.000 E2.89602
G1 X9.840 Y-6.586 F7800.000
G1 X19.586 Y3.160 F1800.000 E3.15539
G1 X19.586 Y2.537 F7800.000
G1 X10.463 Y-6.586 F1800.000 E3.39818
G1 X11.086 Y-6.586 F7800.000
G1 X19.586 Y1.914 F1800.000 E3.62440
G1 X19.586 Y1.292 F7800.000
G1 X11.708 Y-6.586 F1800.000 E3.83404
G1 X12.331 Y-6.586 F7800.000
G1 X19.586 Y0.669 F1800.000 E4.02710
G1 X19.586 Y0.046 F7800.000
G1 X12.954 Y-6.586 F1800.000 E4.20358
G1 X13.577 Y-6.586 F7800.000
G1 X19.586 Y-0.577 F1800.000 E4.36349
G1 X19.586 Y-1.200 F7800.000
G1 X14.200 Y-6.586 F1800.000 E4.50682
G1 X14.823 Y-6.586 F7800.000
G1 X19.586 Y-1.823 F1800.000 E4.63358
G1 X19.586 Y-2.446 F7800.000
G1 X15.446 Y-6.586 F1800.000 E4.74376
G1 X16.069 Y-6.586 F7800.000
G1 X19.586 Y-3.069 F1800.000 E4.83736
G1 X19.586 Y-3.692 F7800.000
G1 X16.692 Y-6.586 F1800.000 E4.91438
G1 X17.315 Y-6.586 F7800.000
G1 X19.586 Y-4.315 F1800.000 E4.97483
G1 X19.586 Y-4.938 F7800.000
G1 X17.938 Y-6.586 F1800.000 E5.01871
G1 X18.561 Y-6.586 F7800.000
G1 X19.586 Y-5.561 F1800.000 E5.04600
G1 X19.586 Y-6.184 F7800.000
G1 X19.184 Y-6.586 F1800.000 E5.05672
G1 F1800.000 E4.05672
G92 E0
G1 X-6.414 Y-6.184 F7800.000
G1 F1800.000 E1.00000
G1 X-6.816 Y-6.586 F1800.000 E1.01072
G1 X-7.439 Y-6.586 F7800.000
G1 X-6.414 Y-5.561 F1800.000 E1.03802
G1 X-6.414 Y-4.938 F7800.000
G1 X-8.062 Y-6.586 F1800.000 E1.08189
G1 X-8.685 Y-6.586 F7800.000
G1 X-6.414 Y-4.315 F1800.000 E1.14234
G1 X-6.414 Y-3.692 F7800.000
G1 X-9.308 Y-6.586 F1800.000 E1.21936
G1 X-9.931 Y-6.586 F7800.000
G1 X-6.414 Y-3.069 F1800.000 E1.31297
G1 X-6.414 Y-2.446 F7800.000
G1 X-10.554 Y-6.586 F1800.000 E1.42315
G1 X-11.177 Y-6.586 F7800.000
G1 X-6.414 Y-1.823 F1800.000 E1.54990
G1 X-6.414 Y-1.200 F7800.000
G1 X-11.800 Y-6.586 F1800.000 E1.69323
G1 X-12.423 Y-6.586 F7800.000
G1 X-6.414 Y-0.577 F1800.000 E1.85314
G1 X-6.414 Y0.046 F7800.000
G1 X-13.046 Y-6.586 F1800.000 E2.02963
G1 X-13.669 Y-6.586 F7800.000
G1 X-6.414 Y0.669 F1800.000 E2.22269
G1 X-6.414 Y1.292 F7800.000
G1 X-14.292 Y-6.586 F1800.000 E2.43233
G1 X-14.914 Y-6.586 F7800.000
G1 X-6.414 Y1.914 F1800.000 E2.65854
G1 X-6.414 Y2.537 F7800.000
G1 X-15.537 Y-6.586 F1800.000 E2.90133
G1 X-16.160 Y-6.586 F7800.000
G1 X-6.414 Y3.160 F1800.000 E3.16070
G1 X-6.414 Y3.783 F7800.000
G1 X-16.783 Y-6.586 F1800.000 E3.43664
G1 X-17.406 Y-6.586 F7800.000
G1 X-6.414 Y4.406 F1800.000 E3.72916
G1 X-6.414 Y5.029 F7800.000
G1 X-18.029 Y-6.586 F1800.000 E4.03826
G1 X-18.652 Y-6.586 F7800.000
G1 X-6.414 Y5.652 F1800.000 E4.36393
G1 X-6.414 Y6.275 F7800.000
G1 X-19.275 Y-6.586 F1800.000 E4.70618
G1 X-19.586 Y-6.275 E4.71447
G1 X-6.725 Y6.586 E5.05672
G1 X-7.348 Y6.586 F7800.000
G1 X-19.586 Y-5.652 F1800.000 E5.38240
G1 X-19.586 Y-5.029 F7800.000
G1 X-7.971 Y6.586 F1800.000 E5.69149
G1 X-8.594 Y6.586 F7800.000
G1 X-19.586 Y-4.406 F1800.000 E5.98401
G1 X-19.586 Y-3.783 F7800.000
G1 X-9.217 Y6.586 F1800.000 E6.25996
G1 X-9.840 Y6.586 F7800.000
G1 X-19.586 Y-3.160 F1800.000 E6.51933
G1 X-19.586 Y-2.537 F7800.000
G1 X-10.463 Y6.586 F1800.000 E6.76212
G1 X-11.086 Y6.586 F7800.000
G1 X-19.586 Y-1.914 F1800.000 E6.98833
G1 X-19.586 Y-1.292 F7800.000
G1 X-11.708 Y6.586 F1800.000 E7.19797
G1 X-12.331 Y6.586 F7800.000
G1 X-19.586 Y-0.669 F1800.000 E7.39103
G1 X-19.586 Y-0.046 F7800.000
G1 X-12.954 Y6.586 F1800.000 E7.56752
G1 X-13.577 Y6.586 F7800.000
G1 X-19.586 Y0.577 F1800.000 E7.72743
G1 X-19.586 Y1.200 F7800.000
G1 X-14.200 Y6.586 F1800.000 E7.87076
G1 X-14.823 Y6.586 F7800.000
G1 X-19.586 Y1.823 F1800.000 E7.99751
G1 X-19.586 Y2.446 F7800.000
G1 X-15.446 Y6.586 F1800.000 E8.10769
G1 X-16.069 Y6.586 F7800.000
G1 X-19.586 Y3.069 F1800.000 E8.20129
G1 X-19.586 Y3.692 F7800.000
G1 X-16.692 Y6.586 F1800.000 E8.27832
G1 X-17.315 Y6.586 F7800.000
G1 X-19.586 Y4.315 F1800.000 E8.33877
G1 X-19.586 Y4.938 F7800.000
G1 X-17.938 Y6.586 F1800.000 E8.38264
G1 X-18.561 Y6.586 F7800.000
G1 X-19.586 Y5.561 F1800.000 E8.40994
G1 X-19.586 Y6.184 F7800.000
G1 X-19.184 Y6.586 F1800.000 E8.42066
G1 X-20.207 Y7.207 F7800.000
G1 X-20.038 Y7.038 F1800.000 E8.42510
G1 X-20.117 Y6.749 E8.43068
G1 X-20.067 Y-6.978 E8.68652
G1 X-20.207 Y-7.207 E8.69152
G1 F1800.000 E7.69152
G92 E0
G1 X5.793 Y7.207 F7800.000
G1 F1800.000 E1.00000
G1 X5.793 Y7.207 F1800.000 E1.00000
G1 F1800.000 E0.00000
G92 E0
G1 Z0.560 F7800.000
G1 X-6.107 Y6.893
G1 F1800.000 E1.00000
G1 X-19.893 Y6.893 F1800.000 E1.25695
G1 X-19.893 Y-6.893 E1.51390
G1 X-6.107 Y-6.893 E1.77086
G1 X-6.107 Y6.824 E2.02652
G1 X-5.669 Y7.331 F7800.000
G1 X-20.331 Y7.331 F1800.000 E2.29979
G1 X-20.331 Y-7.331 E2.57305
G1 X-5.669 Y-7.331 E2.84632
G1 X-5.669 Y7.262 E3.11830
G1 X-5.231 Y7.769 F7800.000
G1 X-20.769 Y7.769 F1800.000 E3.40789
G1 X-20.769 Y-7.769 E3.69747
G1 X-5.231 Y-7.769 E3.98706
G1 X-5.231 Y7.700 E4.27535
G1 F1800.000 E3.27535
G92 E0
G1 X6.107 Y6.893 F7800.000
G1 F1800.000 E1.00000
G1 X6.107 Y-6.893 F1800.000 E1.25695
G1 X19.893 Y-6.893 E1.51390
G1 X19.893 Y6.893 E1.77086
G1 X6.176 Y6.893 E2.02652
G1 X5.669 Y7.331 F7800.000
G1 X5.669 Y-7.331 F1800.000 E2.29979
G1 X20.331 Y-7.331 E2.57305
G1 X20.331 Y7.331 E2.84632
G1 X5.738 Y7.331 E3.11830
G1 X5.231 Y7.769 F7800.000
G1 X5.231 Y-7.769 F1800.000 E3.40789
G1 X20.769 Y-7.769 E3.69747
G1 X20.769 Y7.769 E3.98706
G1 X5.300 Y7.769 E4.27535
G1 X7.348 Y6.586 F7800.000
G1 X19.586 Y-5.652 F3600.000 E4.60102
G1 X19.586 Y-5.029 F7800.000
G1 X7.971 Y6.586 F3600.000 E4.91012
G1 X8.594 Y6.586 F7800.000
G1 X19.586 Y-4.406 F3600.000 E5.20264
G1 X19.586 Y-3.783 F7800.000
G1 X9.217 Y6.586 F3600.000 E5.47858
G1 X9.840 Y6.586 F7800.000
G1 X19.586 Y-3.160 F3600.000 E5.73795
G1 X19.586 Y-2.537 F7800.000
G1 X10.463 Y6.586 F3600.000 E5.98074
G1 X11.086 Y6.586 F7800.000
G1 X19.586 Y-1.914 F3600.000 E6.20696
G1 X19.586 Y-1.292 F7800.000
G1 X11.708 Y6.586 F3600.000 E6.41660
G1 X12.331 Y6.586 F7800.000
G1 X19.586 Y-0.669 F3600.000 E6.60966
G1 X19.586 Y-0.046 F7800.000
G1 X12.954 Y6.586 F3600.000 E6.78614
G1 X13.577 Y6.586 F7800.000
G1 X19.586 Y0.577 F3600.000 E6.94605
G1 X19.586 Y1.200 F7800.000
G1 X14.200 Y6.586 F3600.000 E7.08938
G1 X14.823 Y6.586 F7800.000
G1 X19.586 Y1.823 F3600.000 E7.21614
G1 X19.586 Y2.446 F7800.000
G1 X15.446 Y6.586 F3600.000 E7.32632
G1 X16.069 Y6.586 F7800.000
G1 X19.586 Y3.069 F3600.000 E7.41992
G1 X19.586 Y3.692 F7800.000
G1 X16.692 Y6.586 F3600.000 E7.49694
G1 X17.315 Y6.586 F7800.000
G1 X19.586 Y4.315 F3600.000 E7.55739
G1 X19.586 Y4.938 F7800.000
G1 X17.938 Y6.586 F3600.000 E7.60127
G1 X18.561 Y6.586 F7800.000
G1 X19.586 Y5.561 F3600.000 E7.62856
G1 X19.586 Y6.184 F7800.000
G1 X19.184 Y6.586 F3600.000 E7.63928
G1 F1800.000 E6.63928
G92 E0
G1 X6.414 Y5.652 F7800.000
G1 F1800.000 E1.00000
G1 X18.652 Y-6.586 F3600.000 E1.32567
G1 X18.029 Y-6.586 F7800.000
G1 X6.414 Y5.029 F3600.000 E1.63477
G1 X6.414 Y4.406 F7800.000
G1 X17.406 Y-6.586 F3600.000 E1.92729
G1 X16.783 Y-6.586 F7800.000
G1 X6.414 Y3.783 F3600.000 E2.20324
G1 X6.414 Y3.160 F7800.000
G1 X16.160 Y-6.586 F3600.000 E2.46260
G1 X15.537 Y-6.586 F7800.000
G1 X6.414 Y2.537 F3600.000 E2.70539
G1 X6.414 Y1.914 F7800.000
G1 X14.914 Y-6.586 F3600.000 E2.93161
G1 X14.292 Y-6.586 F7800.000
G1 X6.414 Y1.292 F3600.000 E3.14125
G1 X6.414 Y0.669 F7800.000
G1 X13.669 Y-6.586 F3600.000 E3.33431
G1 X13.046 Y-6.586 F7800.000
G1 X6.414 Y0.046 F3600.000 E3.51079
G1 X6.414 Y-0.577 F7800.000
G1 X12.423 Y-6.586 F3600.000 E3.67070
G1 X11.800 Y-6.586 F7800.000
G1 X6.414 Y-1.200 F3600.000 E3.81403
G1 X6.414 Y-1.823 F7800.000
G1 X11.177 Y-6.586 F3600.000 E3.94079
G1 X10.554 Y-6.586 F7800.000
G1 X6.414 Y-2.446 F3600.000 E4.05097
G1 X6.414 Y-3.069 F7800.000
G1 X9.931 Y-6.586 F3600.000 E4.14457
G1 X9.308 Y-6.586 F7800.000
G1 X6.414 Y-3.692 F3600.000 E4.22160
G1 X6.414 Y-4.315 F7800.000
G1 X8.685 Y-6.586 F3600.000 E4.28205
G1 X8.062 Y-6.586 F7800.000
G1 X6.414 Y-4.938 F3600.000 E4.32592
G1 X6.414 Y-5.561 F7800.000
G1 X7.439 Y-6.586 F3600.000 E4.35321
G1 X6.816 Y-6.586 F7800.000
G1 X6.414 Y-6.184 F3600.000 E4.36393
G1 F1800.000 E3.36393
G92 E0
G1 X19.275 Y-6.586 F7800.000
G1 F1800.000 E1.00000
G1 X6.414 Y6.275 F3600.000 E1.34225
G1 X6.725 Y6.586 E1.35054
G1 X19.586 Y-6.275 E1.69279
G1 F1800.000 E0.69279
G92 E0
G1 X-6.414 Y-6.275 F7800.000
G1 F1800.000 E1.00000
G1 X-19.275 Y6.586 F3600.000 E1.34225
G1 X-19.586 Y6.275 E1.35054
G1 X-6.725 Y-6.586 E1.69279
G1 X-7.348 Y-6.586 F7800.000
G1 X-19.586 Y5.652 F3600.000 E2.01846
G1 X-19.586 Y5.029 F7800.000
G1 X-7.971 Y-6.586 F3600.000 E2.32756
G1 X-8.594 Y-6.586 F7800.000
G1 X-19.586 Y4.406 F3600.000 E2.62008
G1 X-19.586 Y3.783 F7800.000
G1 X-9.217 Y-6.586 F3600.000 E2.89602
G1 X-9.840 Y-6.586 F7800.000
G1 X-19.586 Y3.160 F3600.000 E3.15539
G1 X-19.586 Y2.537 F7800.000
G1 X-10.463 Y-6.586 F3600.000 E3.39818
G1 X-11.086 Y-6.586 F7800.000
G1 X-19.586 Y1.914 F3600.000 E3.62440
G1 X-19.586 Y1.292 F7800.000
G1 X-11.708 Y-6.586 F3600.000 E3.83404
G1 X-12.331 Y-6.586 F7800.000
G1 X-19.586 Y0.669 F3600.000 E4.02710
G1 X-19.586 Y0.046 F7800.000
G1 X-12.954 Y-6.586 F3600.000 E4.20358
G1 X-13.577 Y-6.586 F7800.000
G1 X-19.586 Y-0.577 F3600.000 E4.36349
G1 X-19.586 Y-1.200 F7800.000
G1 X-14.200 Y-6.586 F3600.000 E4.50682
G1 X-14.823 Y-6.586 F7800.000
G1 X-19.586 Y-1.823 F3600.000 E4.63358
G1 X-19.586 Y-2.446 F7800.000
G1 X-15.446 Y-6.586 F3600.000 E4.74376
G1 X-16.069 Y-6.586 F7800.000
G1 X-19.586 Y-3.069 F3600.000 E4.83736
G1 X-19.586 Y-3.692 F7800.000
G1 X-16.692 Y-6.586 F3600.000 E4.91438
G1 X-17.315 Y-6.586 F7800.000
G1 X-19.586 Y-4.315 F3600.000 E4.97483
G1 X-19.586 Y-4.938 F7800.000
G1 X-17.938 Y-6.586 F3600.000 E5.01871
G1 X-18.561 Y-6.586 F7800.000
G1 X-19.586 Y-5.561 F3600.000 E5.04600
G1 X-19.586 Y-6.184 F7800.000
G1 X-19.184 Y-6.586 F3600.000 E5.05672
G1 F1800.000 E4.05672
G92 E0
G1 X-6.414 Y-5.652 F7800.000
G1 F1800.000 E1.00000
G1 X-18.652 Y6.586 F3600.000 E1.32567
G1 X-18.029 Y6.586 F7800.000
