; generated by Slic3r 0.7.0 on 2012-03-02 at 14:04:22

; layer_height = .28
; perimeters = 3
; solid_layers = 3
; fill_density = .25
; nozzle_diameter = 0.4
; filament_diameter = 2.93
; extrusion_multiplier = 1
; perimeter_speed = 30
; infill_speed = 60
; travel_speed = 130
; extrusion_width_ratio = 0
; scale = 1
; single wall width = 0.46mm

M104 S220 ; set temperature

M109 S220 ; wait for temperature to be reached
G90 ; use absolute coordinates
G21 ; set units to millimeters
G92 E0 ; reset extrusion distance
M82 ; use absolute distances for extrusion
G1 Z4.080 F7800.000
G1 X41.017 Y41.412
G1 F1800.000 E1.00000
G1 X41.412 Y41.017 F900.000 E1.01041
G1 X41.831 Y40.648 E1.02082
G1 X42.273 Y40.305 E1.03124
G1 X42.735 Y39.991 E1.04165
G1 X43.216 Y39.707 E1.05206
G1 X43.714 Y39.453 E1.06247
G1 X44.226 Y39.232 E1.07288
G1 X44.752 Y39.042 E1.08330
G1 X45.288 Y38.886 E1.09371
G1 X45.834 Y38.765 E1.10412
G1 X46.385 Y38.677 E1.11453
G1 X46.393 Y38.676 E1.11468
G1 X46.393 Y46.393 E1.25851
G1 X38.676 Y46.393 E1.40233
G1 X38.677 Y46.385 E1.40248
G1 X38.765 Y45.834 E1.41290
G1 X38.886 Y45.288 E1.42331
G1 X39.042 Y44.752 E1.43372
G1 X39.232 Y44.226 E1.44413
G1 X39.453 Y43.714 E1.45454
G1 X39.707 Y43.216 E1.46496
G1 X39.991 Y42.735 E1.47537
G1 X40.305 Y42.273 E1.48578
G1 X40.648 Y41.831 E1.49619
G1 X40.971 Y41.464 E1.50531
G1 X40.698 Y41.113 F7800.000
G1 X41.113 Y40.698 F900.000 E1.51624
G1 X41.552 Y40.310 E1.52716
G1 X42.015 Y39.951 E1.53809
G1 X42.500 Y39.622 E1.54901
G1 X43.005 Y39.323 E1.55994
G1 X43.527 Y39.057 E1.57086
G1 X44.065 Y38.824 E1.58179
G1 X44.617 Y38.626 E1.59271
G1 X45.180 Y38.462 E1.60364
G1 X45.752 Y38.334 E1.61456
G1 X46.331 Y38.243 E1.62549
G1 X46.831 Y38.195 E1.63486
G1 X46.831 Y46.831 E1.79581
G1 X38.195 Y46.831 E1.95676
G1 X38.243 Y46.331 E1.96613
G1 X38.334 Y45.752 E1.97706
G1 X38.462 Y45.180 E1.98798
G1 X38.626 Y44.617 E1.99890
G1 X38.824 Y44.065 E2.00983
G1 X39.057 Y43.527 E2.02075
G1 X39.323 Y43.005 E2.03168
G1 X39.622 Y42.500 E2.04260
G1 X39.951 Y42.015 E2.05353
G1 X40.310 Y41.552 E2.06445
G1 X40.652 Y41.165 E2.07409
G1 X40.379 Y40.813 F7800.000
G1 X40.813 Y40.379 F900.000 E2.08552
G1 X41.273 Y39.973 E2.09696
G1 X41.758 Y39.597 E2.10840
G1 X42.266 Y39.252 E2.11984
G1 X42.794 Y38.940 E2.13127
G1 X43.341 Y38.661 E2.14271
G1 X43.904 Y38.417 E2.15415
G1 X44.481 Y38.209 E2.16559
G1 X45.071 Y38.038 E2.17703
G1 X45.670 Y37.904 E2.18846
G1 X46.276 Y37.808 E2.19990
G1 X46.887 Y37.750 E2.21134
G1 X47.269 Y37.738 E2.21847
G1 X47.269 Y47.269 E2.39609
G1 X37.738 Y47.269 E2.57371
G1 X37.750 Y46.887 E2.58084
G1 X37.808 Y46.276 E2.59228
G1 X37.904 Y45.670 E2.60372
G1 X38.038 Y45.071 E2.61516
G1 X38.209 Y44.481 E2.62659
G1 X38.417 Y43.904 E2.63803
G1 X38.661 Y43.341 E2.64947
G1 X38.940 Y42.794 E2.66091
G1 X39.252 Y42.266 E2.67234
G1 X39.597 Y41.758 E2.68378
G1 X39.973 Y41.273 E2.69522
G1 X40.333 Y40.865 E2.70536
G1 F1800.000 E1.70536
G92 E0
G1 X33.588 Y33.983 F7800.000
G1 F1800.000 E1.00000
G1 X33.169 Y34.352 F900.000 E1.01041
G1 X32.727 Y34.695 E1.02082
G1 X32.265 Y35.009 E1.03124
G1 X31.784 Y35.293 E1.04165
G1 X31.286 Y35.547 E1.05206
G1 X30.774 Y35.768 E1.06247
G1 X30.248 Y35.958 E1.07288
G1 X29.712 Y36.114 E1.08330
G1 X29.166 Y36.235 E1.09371
G1 X28.615 Y36.323 E1.10412
G1 X28.607 Y36.324 E1.10427
G1 X28.607 Y28.607 E1.24810
G1 X36.324 Y28.607 E1.39192
G1 X36.323 Y28.615 E1.39207
G1 X36.235 Y29.166 E1.40248
G1 X36.114 Y29.712 E1.41290
G1 X35.958 Y30.248 E1.42331
G1 X35.768 Y30.774 E1.43372
G1 X35.547 Y31.286 E1.44413
G1 X35.293 Y31.784 E1.45455
G1 X35.009 Y32.265 E1.46496
G1 X34.695 Y32.727 E1.47537
G1 X34.352 Y33.169 E1.48578
G1 X33.983 Y33.588 E1.49619
G1 X33.637 Y33.934 E1.50531
G1 X33.887 Y34.302 F7800.000
G1 X33.448 Y34.690 F900.000 E1.51624
G1 X32.985 Y35.049 E1.52716
G1 X32.500 Y35.378 E1.53809
G1 X31.995 Y35.677 E1.54901
G1 X31.473 Y35.943 E1.55994
G1 X30.935 Y36.176 E1.57086
G1 X30.383 Y36.374 E1.58179
G1 X29.820 Y36.538 E1.59271
G1 X29.248 Y36.666 E1.60364
G1 X28.669 Y36.757 E1.61456
G1 X28.169 Y36.805 E1.62393
G1 X28.169 Y28.169 E1.78488
G1 X36.805 Y28.169 E1.94583
G1 X36.757 Y28.669 E1.95521
G1 X36.666 Y29.248 E1.96613
G1 X36.538 Y29.820 E1.97705
G1 X36.374 Y30.383 E1.98798
G1 X36.176 Y30.935 E1.99890
G1 X35.943 Y31.473 E2.00983
G1 X35.677 Y31.995 E2.02075
G1 X35.378 Y32.500 E2.03168
G1 X35.049 Y32.985 E2.04260
G1 X34.690 Y33.448 E2.05353
G1 X34.302 Y33.887 E2.06445
G1 X33.936 Y34.253 E2.07409
G1 X34.187 Y34.621 F7800.000
G1 X33.727 Y35.027 F900.000 E2.08552
G1 X33.242 Y35.403 E2.09696
G1 X32.734 Y35.748 E2.10840
G1 X32.206 Y36.060 E2.11984
G1 X31.659 Y36.339 E2.13127
G1 X31.096 Y36.583 E2.14271
G1 X30.519 Y36.791 E2.15415
G1 X29.929 Y36.962 E2.16559
G1 X29.330 Y37.096 E2.17702
G1 X28.724 Y37.192 E2.18846
G1 X28.113 Y37.250 E2.19990
G1 X27.731 Y37.262 E2.20703
G1 X27.731 Y27.731 E2.38465
G1 X37.262 Y27.731 E2.56228
G1 X37.250 Y28.113 E2.56940
G1 X37.192 Y28.724 E2.58084
G1 X37.096 Y29.330 E2.59228
G1 X36.962 Y29.929 E2.60372
G1 X36.791 Y30.519 E2.61516
G1 X36.583 Y31.096 E2.62659
G1 X36.339 Y31.659 E2.63803
G1 X36.060 Y32.206 E2.64947
G1 X35.748 Y32.734 E2.66091
G1 X35.403 Y33.242 E2.67234
G1 X35.027 Y33.727 E2.68378
G1 X34.621 Y34.187 E2.69522
G1 X34.236 Y34.572 E2.70536
G1 F1800.000 E1.70536
G92 E0
G1 X36.454 Y21.393 F7800.000
G1 F1800.000 E1.00000
G1 X28.607 Y21.393 F900.000 E1.14625
G1 X28.607 Y13.546 E1.29249
G1 X28.892 Y13.519 E1.29784
G1 X29.581 Y13.410 E1.31084
G1 X30.262 Y13.258 E1.32385
G1 X30.932 Y13.063 E1.33685
G1 X31.589 Y12.827 E1.34986
G1 X32.229 Y12.550 E1.36286
G1 X32.851 Y12.233 E1.37587
G1 X33.451 Y11.878 E1.38887
G1 X34.029 Y11.486 E1.40188
G1 X34.580 Y11.058 E1.41488
G1 X35.103 Y10.597 E1.42788
G1 X35.597 Y10.103 E1.44089
G1 X36.058 Y9.580 E1.45389
G1 X36.486 Y9.029 E1.46690
G1 X36.878 Y8.451 E1.47990
G1 X37.233 Y7.851 E1.49291
G1 X37.550 Y7.229 E1.50591
G1 X37.827 Y6.589 E1.51892
G1 X38.063 Y5.932 E1.53192
G1 X38.258 Y5.262 E1.54492
G1 X38.410 Y4.581 E1.55793
G1 X38.519 Y3.892 E1.57093
G1 X38.546 Y3.607 E1.57628
G1 X46.393 Y3.607 E1.72253
G1 X46.393 Y11.454 E1.86877
G1 X46.108 Y11.481 E1.87412
G1 X45.419 Y11.590 E1.88712
G1 X44.738 Y11.742 E1.90013
G1 X44.068 Y11.937 E1.91313
G1 X43.411 Y12.173 E1.92614
G1 X42.771 Y12.450 E1.93914
G1 X42.149 Y12.767 E1.95215
G1 X41.549 Y13.122 E1.96515
G1 X40.971 Y13.514 E1.97816
G1 X40.420 Y13.942 E1.99116
G1 X39.897 Y14.403 E2.00416
G1 X39.403 Y14.897 E2.01717
G1 X38.942 Y15.420 E2.03017
G1 X38.514 Y15.971 E2.04318
G1 X38.122 Y16.549 E2.05618
G1 X37.767 Y17.149 E2.06919
G1 X37.450 Y17.771 E2.08219
G1 X37.173 Y18.411 E2.09520
G1 X36.937 Y19.068 E2.10820
G1 X36.742 Y19.738 E2.12120
G1 X36.590 Y20.419 E2.13421
G1 X36.481 Y21.108 E2.14721
G1 X36.460 Y21.324 E2.15127
G1 X36.915 Y21.163 F7800.000
G1 X36.852 Y21.830 F900.000 E2.16376
G1 X36.852 Y21.831 E2.16378
G1 X28.169 Y21.831 E2.32561
G1 X28.169 Y13.148 E2.48744
G1 X28.170 Y13.148 E2.48746
G1 X28.837 Y13.085 E2.49995
G1 X29.499 Y12.980 E2.51244
G1 X30.153 Y12.834 E2.52494
G1 X30.797 Y12.647 E2.53743
G1 X31.428 Y12.420 E2.54992
G1 X32.043 Y12.154 E2.56241
G1 X32.640 Y11.849 E2.57490
G1 X33.217 Y11.508 E2.58739
G1 X33.771 Y11.132 E2.59989
G1 X34.301 Y10.721 E2.61238
G1 X34.804 Y10.277 E2.62487
G1 X35.277 Y9.804 E2.63736
G1 X35.721 Y9.301 E2.64985
G1 X36.132 Y8.771 E2.66235
G1 X36.508 Y8.217 E2.67484
G1 X36.849 Y7.640 E2.68733
G1 X37.154 Y7.043 E2.69982
G1 X37.420 Y6.428 E2.71231
G1 X37.647 Y5.797 E2.72480
G1 X37.834 Y5.153 E2.73730
G1 X37.980 Y4.499 E2.74979
G1 X38.085 Y3.837 E2.76228
G1 X38.148 Y3.170 E2.77477
G1 X38.148 Y3.169 E2.77479
G1 X46.831 Y3.169 E2.93662
G1 X46.831 Y11.852 E3.09845
G1 X46.830 Y11.852 E3.09847
G1 X46.163 Y11.915 E3.11096
G1 X45.501 Y12.020 E3.12346
G1 X44.847 Y12.166 E3.13595
G1 X44.203 Y12.353 E3.14844
G1 X43.572 Y12.580 E3.16093
G1 X42.957 Y12.846 E3.17342
G1 X42.360 Y13.151 E3.18591
G1 X41.783 Y13.492 E3.19841
G1 X41.229 Y13.868 E3.21090
G1 X40.699 Y14.279 E3.22339
G1 X40.196 Y14.723 E3.23588
G1 X39.723 Y15.196 E3.24837
G1 X39.279 Y15.699 E3.26086
G1 X38.868 Y16.229 E3.27336
G1 X38.492 Y16.783 E3.28585
G1 X38.151 Y17.360 E3.29834
G1 X37.846 Y17.957 E3.31083
G1 X37.580 Y18.572 E3.32332
G1 X37.353 Y19.203 E3.33581
G1 X37.166 Y19.847 E3.34831
G1 X37.020 Y20.501 E3.36080
G1 X36.926 Y21.094 E3.37200
G1 X37.349 Y21.218 F7800.000
G1 X37.289 Y21.858 F900.000 E3.38398
G1 X37.276 Y22.269 E3.39165
G1 X27.731 Y22.269 E3.56954
G1 X27.731 Y12.724 E3.74744
G1 X28.142 Y12.711 E3.75511
G1 X28.782 Y12.651 E3.76708
G1 X29.417 Y12.550 E3.77906
G1 X30.044 Y12.410 E3.79104
G1 X30.662 Y12.230 E3.80302
G1 X31.266 Y12.013 E3.81500
G1 X31.856 Y11.757 E3.82698
G1 X32.429 Y11.466 E3.83896
G1 X32.982 Y11.138 E3.85094
G1 X33.514 Y10.777 E3.86292
G1 X34.022 Y10.383 E3.87490
G1 X34.504 Y9.958 E3.88687
G1 X34.958 Y9.504 E3.89885
G1 X35.383 Y9.022 E3.91083
G1 X35.777 Y8.514 E3.92281
G1 X36.138 Y7.982 E3.93479
G1 X36.466 Y7.429 E3.94677
G1 X36.757 Y6.856 E3.95875
G1 X37.013 Y6.266 E3.97073
G1 X37.230 Y5.662 E3.98271
G1 X37.410 Y5.044 E3.99469
G1 X37.550 Y4.417 E4.00666
G1 X37.651 Y3.782 E4.01864
G1 X37.711 Y3.142 E4.03062
G1 X37.724 Y2.731 E4.03829
G1 X47.269 Y2.731 E4.21619
G1 X47.269 Y12.276 E4.39408
G1 X46.858 Y12.289 E4.40175
G1 X46.218 Y12.349 E4.41373
G1 X45.583 Y12.450 E4.42571
G1 X44.956 Y12.590 E4.43769
G1 X44.338 Y12.770 E4.44967
G1 X43.734 Y12.987 E4.46165
G1 X43.144 Y13.243 E4.47362
G1 X42.571 Y13.534 E4.48560
G1 X42.018 Y13.862 E4.49758
G1 X41.486 Y14.223 E4.50956
G1 X40.978 Y14.617 E4.52154
G1 X40.496 Y15.042 E4.53352
G1 X40.042 Y15.496 E4.54550
G1 X39.617 Y15.978 E4.55748
G1 X39.223 Y16.486 E4.56946
G1 X38.862 Y17.018 E4.58144
G1 X38.534 Y17.571 E4.59341
G1 X38.243 Y18.144 E4.60539
G1 X37.987 Y18.734 E4.61737
G1 X37.770 Y19.338 E4.62935
G1 X37.590 Y19.956 E4.64133
G1 X37.450 Y20.583 E4.65331
G1 X37.360 Y21.149 E4.66400
G1 F1800.000 E3.66400
G92 E0
G1 X21.393 Y21.393 F7800.000
G1 F1800.000 E1.00000
G1 X13.676 Y21.393 F900.000 E1.14383
G1 X13.677 Y21.385 E1.14398
G1 X13.765 Y20.834 E1.15439
G1 X13.886 Y20.288 E1.16480
G1 X14.042 Y19.752 E1.17521
G1 X14.232 Y19.226 E1.18562
G1 X14.453 Y18.714 E1.19604
G1 X14.707 Y18.216 E1.20645
G1 X14.991 Y17.735 E1.21686
G1 X15.305 Y17.273 E1.22727
G1 X15.648 Y16.831 E1.23768
G1 X16.017 Y16.412 E1.24810
G1 X16.412 Y16.017 E1.25851
G1 X16.831 Y15.648 E1.26892
G1 X17.273 Y15.305 E1.27933
G1 X17.735 Y14.991 E1.28975
G1 X18.216 Y14.707 E1.30016
G1 X18.714 Y14.453 E1.31057
G1 X19.226 Y14.232 E1.32098
G1 X19.752 Y14.042 E1.33139
G1 X20.288 Y13.886 E1.34181
G1 X20.834 Y13.765 E1.35222
G1 X21.385 Y13.677 E1.36263
G1 X21.393 Y13.676 E1.36278
G1 X21.393 Y21.324 E1.50531
G1 X21.831 Y21.831 F7800.000
G1 X13.195 Y21.831 F900.000 E1.66626
G1 X13.243 Y21.331 E1.67564
G1 X13.334 Y20.752 E1.68656
G1 X13.462 Y20.180 E1.69748
G1 X13.626 Y19.617 E1.70841
G1 X13.824 Y19.065 E1.71933
G1 X14.057 Y18.527 E1.73026
G1 X14.323 Y18.005 E1.74118
G1 X14.622 Y17.500 E1.75211
G1 X14.951 Y17.015 E1.76303
G1 X15.310 Y16.552 E1.77396
G1 X15.698 Y16.113 E1.78488
G1 X16.113 Y15.698 E1.79581
G1 X16.552 Y15.310 E1.80673
G1 X17.015 Y14.951 E1.81766
G1 X17.500 Y14.622 E1.82858
G1 X18.005 Y14.323 E1.83951
G1 X18.527 Y14.057 E1.85043
G1 X19.065 Y13.824 E1.86136
G1 X19.617 Y13.626 E1.87228
G1 X20.180 Y13.462 E1.88321
G1 X20.752 Y13.334 E1.89413
G1 X21.331 Y13.243 E1.90506
G1 X21.831 Y13.195 E1.91443
G1 X21.831 Y21.762 E2.07409
G1 X22.269 Y22.269 F7800.000
G1 X12.738 Y22.269 F900.000 E2.25171
G1 X12.750 Y21.887 E2.25884
G1 X12.808 Y21.276 E2.27028
G1 X12.904 Y20.670 E2.28171
G1 X13.038 Y20.071 E2.29315
G1 X13.209 Y19.481 E2.30459
G1 X13.417 Y18.904 E2.31603
G1 X13.661 Y18.341 E2.32746
G1 X13.940 Y17.794 E2.33890
G1 X14.252 Y17.266 E2.35034
G1 X14.597 Y16.758 E2.36178
G1 X14.973 Y16.273 E2.37322
G1 X15.379 Y15.813 E2.38465
G1 X15.813 Y15.379 E2.39609
G1 X16.273 Y14.973 E2.40753
G1 X16.758 Y14.597 E2.41897
G1 X17.266 Y14.252 E2.43040
G1 X17.794 Y13.940 E2.44184
G1 X18.341 Y13.661 E2.45328
G1 X18.904 Y13.417 E2.46472
G1 X19.481 Y13.209 E2.47615
G1 X20.071 Y13.038 E2.48759
G1 X20.670 Y12.904 E2.49903
G1 X21.276 Y12.808 E2.51047
G1 X21.887 Y12.750 E2.52190
G1 X22.269 Y12.738 E2.52903
G1 X22.269 Y22.200 E2.70536
G1 F1800.000 E1.70536
G92 E0
G1 X8.983 Y8.588 F7800.000
G1 F1800.000 E1.00000
G1 X8.588 Y8.983 F900.000 E1.01041
G1 X8.169 Y9.352 E1.02082
G1 X7.727 Y9.695 E1.03124
G1 X7.265 Y10.009 E1.04165
G1 X6.784 Y10.293 E1.05206
G1 X6.286 Y10.547 E1.06247
G1 X5.774 Y10.768 E1.07288
G1 X5.248 Y10.958 E1.08330
G1 X4.712 Y11.114 E1.09371
G1 X4.166 Y11.235 E1.10412
G1 X3.615 Y11.323 E1.11453
G1 X3.607 Y11.324 E1.11468
G1 X3.607 Y3.607 E1.25851
G1 X11.324 Y3.607 E1.40233
G1 X11.323 Y3.615 E1.40248
G1 X11.235 Y4.166 E1.41290
G1 X11.114 Y4.712 E1.42331
G1 X10.958 Y5.248 E1.43372
G1 X10.768 Y5.774 E1.44413
G1 X10.547 Y6.286 E1.45454
G1 X10.293 Y6.784 E1.46496
G1 X10.009 Y7.265 E1.47537
G1 X9.695 Y7.727 E1.48578
G1 X9.352 Y8.169 E1.49619
G1 X9.029 Y8.536 E1.50531
G1 X9.302 Y8.887 F7800.000
G1 X8.887 Y9.302 F900.000 E1.51624
G1 X8.448 Y9.690 E1.52716
G1 X7.985 Y10.049 E1.53809
G1 X7.500 Y10.378 E1.54901
G1 X6.995 Y10.677 E1.55994
G1 X6.473 Y10.943 E1.57086
G1 X5.935 Y11.176 E1.58179
G1 X5.383 Y11.374 E1.59271
G1 X4.820 Y11.538 E1.60364
G1 X4.248 Y11.666 E1.61456
G1 X3.669 Y11.757 E1.62549
G1 X3.169 Y11.805 E1.63486
G1 X3.169 Y3.169 E1.79581
G1 X11.805 Y3.169 E1.95676
G1 X11.757 Y3.669 E1.96613
G1 X11.666 Y4.248 E1.97706
G1 X11.538 Y4.820 E1.98798
G1 X11.374 Y5.383 E1.99890
G1 X11.176 Y5.935 E2.00983
G1 X10.943 Y6.473 E2.02075
G1 X10.677 Y6.995 E2.03168
G1 X10.378 Y7.500 E2.04260
G1 X10.049 Y7.985 E2.05353
G1 X9.690 Y8.448 E2.06445
G1 X9.348 Y8.835 E2.07409
G1 X9.621 Y9.187 F7800.000
G1 X9.187 Y9.621 F900.000 E2.08552
G1 X8.727 Y10.027 E2.09696
G1 X8.242 Y10.403 E2.10840
G1 X7.734 Y10.748 E2.11984
G1 X7.206 Y11.060 E2.13127
G1 X6.659 Y11.339 E2.14271
G1 X6.096 Y11.583 E2.15415
G1 X5.519 Y11.791 E2.16559
G1 X4.929 Y11.962 E2.17703
G1 X4.330 Y12.096 E2.18846
G1 X3.724 Y12.192 E2.19990
G1 X3.113 Y12.250 E2.21134
G1 X2.731 Y12.262 E2.21847
G1 X2.731 Y2.731 E2.39609
G1 X12.262 Y2.731 E2.57371
G1 X12.250 Y3.113 E2.58084
G1 X12.192 Y3.724 E2.59228
G1 X12.096 Y4.330 E2.60372
G1 X11.962 Y4.929 E2.61516
G1 X11.791 Y5.519 E2.62659
G1 X11.583 Y6.096 E2.63803
G1 X11.339 Y6.659 E2.64947
G1 X11.060 Y7.206 E2.66091
G1 X10.748 Y7.734 E2.67234
G1 X10.403 Y8.242 E2.68378
G1 X10.027 Y8.727 E2.69522
G1 X9.667 Y9.135 E2.70536
G1 F1800.000 E1.70536
G92 E0
G1 X11.454 Y-3.607 F7800.000
G1 F1800.000 E1.00000
G1 X3.607 Y-3.607 F900.000 E1.14625
G1 X3.607 Y-11.454 E1.29249
G1 X3.892 Y-11.481 E1.29784
G1 X4.581 Y-11.590 E1.31084
G1 X5.262 Y-11.742 E1.32385
G1 X5.932 Y-11.937 E1.33685
G1 X6.589 Y-12.173 E1.34986
G1 X7.229 Y-12.450 E1.36286
G1 X7.851 Y-12.767 E1.37587
G1 X8.451 Y-13.122 E1.38887
G1 X9.029 Y-13.514 E1.40188
G1 X9.580 Y-13.942 E1.41488
G1 X10.103 Y-14.403 E1.42788
G1 X10.597 Y-14.897 E1.44089
G1 X11.058 Y-15.420 E1.45389
G1 X11.486 Y-15.971 E1.46690
G1 X11.878 Y-16.549 E1.47990
G1 X12.233 Y-17.149 E1.49291
G1 X12.550 Y-17.771 E1.50591
G1 X12.827 Y-18.411 E1.51892
G1 X13.063 Y-19.068 E1.53192
G1 X13.258 Y-19.738 E1.54493
G1 X13.410 Y-20.419 E1.55793
G1 X13.519 Y-21.108 E1.57093
G1 X13.546 Y-21.393 E1.57628
G1 X21.393 Y-21.393 E1.72253
G1 X21.393 Y-13.546 E1.86877
G1 X21.108 Y-13.519 E1.87412
G1 X20.419 Y-13.410 E1.88712
G1 X19.738 Y-13.258 E1.90013
G1 X19.068 Y-13.063 E1.91313
G1 X18.411 Y-12.827 E1.92614
G1 X17.771 Y-12.550 E1.93914
G1 X17.149 Y-12.233 E1.95215
G1 X16.549 Y-11.878 E1.96515
G1 X15.971 Y-11.486 E1.97816
G1 X15.420 Y-11.058 E1.99116
G1 X14.897 Y-10.597 E2.00416
G1 X14.403 Y-10.103 E2.01717
G1 X13.942 Y-9.580 E2.03017
G1 X13.514 Y-9.029 E2.04318
G1 X13.122 Y-8.451 E2.05618
G1 X12.767 Y-7.851 E2.06919
G1 X12.450 Y-7.229 E2.08219
G1 X12.173 Y-6.589 E2.09520
G1 X11.937 Y-5.932 E2.10820
G1 X11.742 Y-5.262 E2.12120
G1 X11.590 Y-4.581 E2.13421
G1 X11.481 Y-3.892 E2.14721
G1 X11.460 Y-3.676 E2.15127
G1 X11.915 Y-3.837 F7800.000
G1 X11.852 Y-3.170 F900.000 E2.16376
G1 X11.852 Y-3.169 E2.16378
G1 X3.169 Y-3.169 E2.32561
G1 X3.169 Y-11.852 E2.48744
G1 X3.170 Y-11.852 E2.48746
G1 X3.837 Y-11.915 E2.49995
