; generated by Slic3r 0.7.0 on 2012-03-02 at 09:05:24

; layer_height = 0.25
; perimeters = 3
; solid_layers = 3
; fill_density = .25
; nozzle_diameter = 0.4
; filament_diameter = 2.93
; extrusion_multiplier = 1
; perimeter_speed = 30
; infill_speed = 60
; travel_speed = 130
; extrusion_width_ratio = 0
; scale = 1
; single wall width = 0.53mm

M104 S220 ; set temperature
;
; Thing-O-Matic w/sjfw 1.11
; start.gcode
;
G21 ; set units to mm
G90 ; absoulte distances
; Dry run?
; P0 = normal P1 = no heat
M351 P0 
; Begin heating
M104 S220 ; extruder head
M140 S110 ; HBP
;
; Coarse home axes
; Set zero at limits for convenience
;
G1 Z999 F1500 ; home Z to get nozzle out of danger zone
G92 Z0
G1 Y-999 F4000 ; retract Y to get X out of front opening
G92 Y0
G1 X-999 F4000 ; now safe to home X
G92 X0
;
; Set actual offsets!
; Back off switches.
;
G1 X2 Y2 Z-2 F5000 
G1 Z999 F50
G92 Z121.3
G1 Y-999 F50
G92 Y-58.5
G1 X-999 F50
G92 X-58.5
;
; Extrude a turd then retract.
;
G1 X-50 Y55 Z.5 F10000
M116 ; wait for heat
G91 ; relative distances
G1 F4 ; set slow rate
G1 E3 ; extrude enough to get good pressure
G1 F4000 ; set for fast retract
G1 E-1 ; retract
;
; End of start.gcode
;
M109 S220 ; wait for temperature to be reached
G90 ; use absolute coordinates
G21 ; set units to millimeters
G92 E0 ; reset extrusion distance
M82 ; use absolute distances for extrusion
G1 Z0.250 F7800.000
G1 X-39.070 Y-18.890
G1 F1800.000 E1.00000
G1 X-38.890 Y-19.070 F900.000 E1.00474
G1 X-38.510 Y-19.410 E1.01425
G1 X-37.890 Y-19.850 E1.02842
G1 X-37.670 Y-19.980 E1.03318
G1 X-37.210 Y-20.210 E1.04276
G1 X-36.740 Y-20.400 E1.05221
G1 X-36.250 Y-20.550 E1.06176
G1 X-36.000 Y-20.610 E1.06656
G1 X-35.250 Y-20.720 E1.08068
G1 X-34.740 Y-20.740 E1.09020
G1 X35.240 Y-20.720 E2.39444
G1 X35.990 Y-20.610 E2.40857
G1 X36.490 Y-20.480 E2.41819
G1 X36.970 Y-20.310 E2.42769
G1 X37.430 Y-20.100 E2.43711
G1 X37.660 Y-19.980 E2.44194
G1 X37.880 Y-19.850 E2.44671
G1 X38.500 Y-19.410 E2.46088
G1 X38.880 Y-19.070 E2.47038
G1 X39.060 Y-18.890 E2.47512
G1 X39.400 Y-18.510 E2.48463
G1 X39.840 Y-17.890 E2.49880
G1 X39.970 Y-17.670 E2.50356
G1 X40.200 Y-17.210 E2.51314
G1 X40.390 Y-16.740 E2.52259
G1 X40.540 Y-16.250 E2.53214
G1 X40.600 Y-16.000 E2.53693
G1 X40.710 Y-15.250 E2.55106
G1 X40.710 Y15.240 E3.11932
G1 X40.600 Y15.990 E3.13344
G1 X40.470 Y16.490 E3.14307
G1 X40.300 Y16.970 E3.15256
G1 X40.090 Y17.430 E3.16199
G1 X39.970 Y17.660 E3.16682
G1 X39.840 Y17.880 E3.17158
G1 X39.400 Y18.500 E3.18575
G1 X39.060 Y18.880 E3.19526
G1 X38.880 Y19.060 E3.20000
G1 X38.500 Y19.400 E3.20950
G1 X37.880 Y19.840 E3.22367
G1 X37.660 Y19.970 E3.22844
G1 X37.200 Y20.200 E3.23802
G1 X36.730 Y20.390 E3.24747
G1 X36.240 Y20.540 E3.25702
G1 X35.990 Y20.600 E3.26181
G1 X35.240 Y20.710 E3.27594
G1 X34.730 Y20.730 E3.28545
G1 X-35.250 Y20.710 E4.58970
G1 X-36.000 Y20.600 E4.60382
G1 X-36.500 Y20.470 E4.61345
G1 X-36.980 Y20.300 E4.62294
G1 X-37.440 Y20.090 E4.63237
G1 X-37.670 Y19.970 E4.63720
G1 X-37.890 Y19.840 E4.64196
G1 X-38.510 Y19.400 E4.65613
G1 X-38.890 Y19.060 E4.66564
G1 X-39.070 Y18.880 E4.67038
G1 X-39.410 Y18.500 E4.67988
G1 X-39.850 Y17.880 E4.69405
G1 X-39.980 Y17.660 E4.69882
G1 X-40.210 Y17.200 E4.70840
G1 X-40.400 Y16.730 E4.71785
G1 X-40.550 Y16.240 E4.72740
G1 X-40.610 Y15.990 E4.73219
G1 X-40.720 Y15.240 E4.74632
G1 X-40.720 Y-15.250 E5.31457
G1 X-40.610 Y-16.000 E5.32870
G1 X-40.480 Y-16.500 E5.33833
G1 X-40.310 Y-16.980 E5.34782
G1 X-40.100 Y-17.440 E5.35724
G1 X-39.980 Y-17.670 E5.36208
G1 X-39.850 Y-17.890 E5.36684
G1 X-39.410 Y-18.510 E5.38101
G1 X-39.123 Y-18.831 E5.38903
G1 F1800.000 E4.38903
G92 E0
G1 X-33.776 Y-13.776 F7800.000
G1 F1800.000 E1.00000
G1 X-6.224 Y-13.776 F900.000 E1.51349
G1 X-6.224 Y13.776 E2.02699
G1 X-33.776 Y13.776 E2.54048
G1 X-33.776 Y-13.696 E3.05249
G1 X-34.255 Y-14.255 F7800.000
G1 X-5.745 Y-14.255 F900.000 E3.58385
G1 X-5.745 Y14.255 E4.11521
G1 X-34.255 Y14.255 E4.64657
G1 X-34.255 Y-14.176 E5.17645
G1 X-34.735 Y-14.735 F7800.000
G1 X-5.265 Y-14.735 F900.000 E5.72568
G1 X-5.265 Y14.735 E6.27491
G1 X-34.735 Y14.735 E6.82414
G1 X-34.735 Y-14.655 E7.37189
G1 F1800.000 E6.37189
G92 E0
G1 X6.224 Y-13.776 F7800.000
G1 F1800.000 E1.00000
G1 X33.776 Y-13.776 F900.000 E1.51349
G1 X33.776 Y13.776 E2.02699
G1 X6.224 Y13.776 E2.54048
G1 X6.224 Y-13.696 E3.05249
G1 X5.745 Y-14.255 F7800.000
G1 X34.255 Y-14.255 F900.000 E3.58385
G1 X34.255 Y14.255 E4.11521
G1 X5.745 Y14.255 E4.64657
G1 X5.745 Y-14.176 E5.17645
G1 X5.265 Y-14.735 F7800.000
G1 X34.735 Y-14.735 F900.000 E5.72568
G1 X34.735 Y14.735 E6.27491
G1 X5.265 Y14.735 E6.82414
G1 X5.265 Y-14.655 E7.37189
G1 X6.553 Y-13.447 F7800.000
G1 X33.447 Y13.447 F1800.000 E8.08120
G1 X32.768 Y13.447 F7800.000
G1 X6.553 Y-12.768 F1800.000 E8.77262
G1 X6.553 Y-12.090 F7800.000
G1 X32.090 Y13.447 F1800.000 E9.44616
G1 X31.412 Y13.447 F7800.000
G1 X6.553 Y-11.412 F1800.000 E10.10181
G1 X6.553 Y-10.734 F7800.000
G1 X30.734 Y13.447 F1800.000 E10.73956
G1 X30.055 Y13.447 F7800.000
G1 X6.553 Y-10.055 F1800.000 E11.35943
G1 X6.553 Y-9.377 F7800.000
G1 X29.377 Y13.447 F1800.000 E11.96141
G1 X28.699 Y13.447 F7800.000
G1 X6.553 Y-8.699 F1800.000 E12.54550
G1 X6.553 Y-8.021 F7800.000
G1 X28.021 Y13.447 F1800.000 E13.11170
G1 X27.342 Y13.447 F7800.000
G1 X6.553 Y-7.342 F1800.000 E13.66002
G1 X6.553 Y-6.664 F7800.000
G1 X26.664 Y13.447 F1800.000 E14.19044
G1 X25.986 Y13.447 F7800.000
G1 X6.553 Y-5.986 F1800.000 E14.70297
G1 X6.553 Y-5.308 F7800.000
G1 X25.308 Y13.447 F1800.000 E15.19762
G1 X24.629 Y13.447 F7800.000
G1 X6.553 Y-4.629 F1800.000 E15.67438
G1 X6.553 Y-3.951 F7800.000
G1 X23.951 Y13.447 F1800.000 E16.13325
G1 X23.273 Y13.447 F7800.000
G1 X6.553 Y-3.273 F1800.000 E16.57423
G1 X6.553 Y-2.595 F7800.000
G1 X22.595 Y13.447 F1800.000 E16.99732
G1 X21.916 Y13.447 F7800.000
G1 X6.553 Y-1.916 F1800.000 E17.40252
G1 X6.553 Y-1.238 F7800.000
G1 X21.238 Y13.447 F1800.000 E17.78983
G1 X20.560 Y13.447 F7800.000
G1 X6.553 Y-0.560 F1800.000 E18.15926
G1 X6.553 Y0.118 F7800.000
G1 X19.882 Y13.447 F1800.000 E18.51080
G1 X19.203 Y13.447 F7800.000
G1 X6.553 Y0.797 F1800.000 E18.84444
G1 X6.553 Y1.475 F7800.000
G1 X18.525 Y13.447 F1800.000 E19.16020
G1 X17.847 Y13.447 F7800.000
G1 X6.553 Y2.153 F1800.000 E19.45807
G1 X6.553 Y2.831 F7800.000
G1 X17.169 Y13.447 F1800.000 E19.73805
G1 X16.490 Y13.447 F7800.000
G1 X6.553 Y3.510 F1800.000 E20.00014
G1 X6.553 Y4.188 F7800.000
G1 X15.812 Y13.447 F1800.000 E20.24434
G1 X15.134 Y13.447 F7800.000
G1 X6.553 Y4.866 F1800.000 E20.47066
G1 X6.553 Y5.544 F7800.000
G1 X14.456 Y13.447 F1800.000 E20.67908
G1 X13.777 Y13.447 F7800.000
G1 X6.553 Y6.223 F1800.000 E20.86962
G1 X6.553 Y6.901 F7800.000
G1 X13.099 Y13.447 F1800.000 E21.04227
G1 X12.421 Y13.447 F7800.000
G1 X6.553 Y7.579 F1800.000 E21.19703
G1 X6.553 Y8.257 F7800.000
G1 X11.743 Y13.447 F1800.000 E21.33390
G1 X11.064 Y13.447 F7800.000
G1 X6.553 Y8.936 F1800.000 E21.45288
G1 X6.553 Y9.614 F7800.000
G1 X10.386 Y13.447 F1800.000 E21.55397
G1 X9.708 Y13.447 F7800.000
G1 X6.553 Y10.292 F1800.000 E21.63717
G1 X6.553 Y10.970 F7800.000
G1 X9.030 Y13.447 F1800.000 E21.70249
G1 X8.351 Y13.447 F7800.000
G1 X6.553 Y11.649 F1800.000 E21.74991
G1 X6.553 Y12.327 F7800.000
G1 X7.673 Y13.447 F1800.000 E21.77945
G1 X6.995 Y13.447 F7800.000
G1 X6.553 Y13.005 F1800.000 E21.79110
G1 F1800.000 E20.79110
G92 E0
G1 X7.232 Y-13.447 F7800.000
G1 F1800.000 E1.00000
G1 X33.447 Y12.768 F1800.000 E1.69142
G1 X33.447 Y12.090 F7800.000
G1 X7.910 Y-13.447 F1800.000 E2.36496
G1 X8.588 Y-13.447 F7800.000
G1 X33.447 Y11.412 F1800.000 E3.02060
G1 X33.447 Y10.734 F7800.000
G1 X9.266 Y-13.447 F1800.000 E3.65836
G1 X9.945 Y-13.447 F7800.000
G1 X33.447 Y10.055 F1800.000 E4.27823
G1 X33.447 Y9.377 F7800.000
G1 X10.623 Y-13.447 F1800.000 E4.88021
G1 X11.301 Y-13.447 F7800.000
G1 X33.447 Y8.699 F1800.000 E5.46430
G1 X33.447 Y8.021 F7800.000
G1 X11.979 Y-13.447 F1800.000 E6.03050
G1 X12.658 Y-13.447 F7800.000
G1 X33.447 Y7.342 F1800.000 E6.57881
G1 X33.447 Y6.664 F7800.000
G1 X13.336 Y-13.447 F1800.000 E7.10924
G1 X14.014 Y-13.447 F7800.000
G1 X33.447 Y5.986 F1800.000 E7.62177
G1 X33.447 Y5.308 F7800.000
G1 X14.692 Y-13.447 F1800.000 E8.11642
G1 X15.371 Y-13.447 F7800.000
G1 X33.447 Y4.629 F1800.000 E8.59318
G1 X33.447 Y3.951 F7800.000
G1 X16.049 Y-13.447 F1800.000 E9.05205
G1 X16.727 Y-13.447 F7800.000
G1 X33.447 Y3.273 F1800.000 E9.49303
G1 X33.447 Y2.595 F7800.000
G1 X17.405 Y-13.447 F1800.000 E9.91612
G1 X18.084 Y-13.447 F7800.000
G1 X33.447 Y1.916 F1800.000 E10.32132
G1 X33.447 Y1.238 F7800.000
G1 X18.762 Y-13.447 F1800.000 E10.70863
G1 X19.440 Y-13.447 F7800.000
G1 X33.447 Y0.560 F1800.000 E11.07806
G1 X33.447 Y-0.118 F7800.000
G1 X20.118 Y-13.447 F1800.000 E11.42959
G1 X20.797 Y-13.447 F7800.000
G1 X33.447 Y-0.797 F1800.000 E11.76324
G1 X33.447 Y-1.475 F7800.000
G1 X21.475 Y-13.447 F1800.000 E12.07900
G1 X22.153 Y-13.447 F7800.000
G1 X33.447 Y-2.153 F1800.000 E12.37687
G1 X33.447 Y-2.831 F7800.000
G1 X22.831 Y-13.447 F1800.000 E12.65685
G1 X23.510 Y-13.447 F7800.000
G1 X33.447 Y-3.510 F1800.000 E12.91894
G1 X33.447 Y-4.188 F7800.000
G1 X24.188 Y-13.447 F1800.000 E13.16314
G1 X24.866 Y-13.447 F7800.000
G1 X33.447 Y-4.866 F1800.000 E13.38946
G1 X33.447 Y-5.544 F7800.000
G1 X25.544 Y-13.447 F1800.000 E13.59788
G1 X26.223 Y-13.447 F7800.000
G1 X33.447 Y-6.223 F1800.000 E13.78842
G1 X33.447 Y-6.901 F7800.000
G1 X26.901 Y-13.447 F1800.000 E13.96107
G1 X27.579 Y-13.447 F7800.000
G1 X33.447 Y-7.579 F1800.000 E14.11582
G1 X33.447 Y-8.257 F7800.000
G1 X28.257 Y-13.447 F1800.000 E14.25269
G1 X28.936 Y-13.447 F7800.000
G1 X33.447 Y-8.936 F1800.000 E14.37168
G1 X33.447 Y-9.614 F7800.000
G1 X29.614 Y-13.447 F1800.000 E14.47277
G1 X30.292 Y-13.447 F7800.000
G1 X33.447 Y-10.292 F1800.000 E14.55597
G1 X33.447 Y-10.970 F7800.000
G1 X30.970 Y-13.447 F1800.000 E14.62129
G1 X31.649 Y-13.447 F7800.000
G1 X33.447 Y-11.649 F1800.000 E14.66871
G1 X33.447 Y-12.327 F7800.000
G1 X32.327 Y-13.447 F1800.000 E14.69825
G1 X33.005 Y-13.447 F7800.000
G1 X33.447 Y-13.005 F1800.000 E14.70990
G1 F1800.000 E13.70990
G92 E0
G1 X-6.553 Y-13.005 F7800.000
G1 F1800.000 E1.00000
G1 X-6.995 Y-13.447 F1800.000 E1.01165
G1 X-7.673 Y-13.447 F7800.000
G1 X-6.553 Y-12.327 F1800.000 E1.04118
G1 X-6.553 Y-11.649 F7800.000
G1 X-8.351 Y-13.447 F1800.000 E1.08861
G1 X-9.030 Y-13.447 F7800.000
G1 X-6.553 Y-10.970 F1800.000 E1.15393
G1 X-6.553 Y-10.292 F7800.000
G1 X-9.708 Y-13.447 F1800.000 E1.23713
G1 X-10.386 Y-13.447 F7800.000
G1 X-6.553 Y-9.614 F1800.000 E1.33822
G1 X-6.553 Y-8.936 F7800.000
G1 X-11.064 Y-13.447 F1800.000 E1.45720
G1 X-11.743 Y-13.447 F7800.000
G1 X-6.553 Y-8.257 F1800.000 E1.59407
G1 X-6.553 Y-7.579 F7800.000
G1 X-12.421 Y-13.447 F1800.000 E1.74883
G1 X-13.099 Y-13.447 F7800.000
G1 X-6.553 Y-6.901 F1800.000 E1.92148
G1 X-6.553 Y-6.223 F7800.000
G1 X-13.777 Y-13.447 F1800.000 E2.11201
G1 X-14.456 Y-13.447 F7800.000
G1 X-6.553 Y-5.544 F1800.000 E2.32044
G1 X-6.553 Y-4.866 F7800.000
G1 X-15.134 Y-13.447 F1800.000 E2.54675
G1 X-15.812 Y-13.447 F7800.000
G1 X-6.553 Y-4.188 F1800.000 E2.79096
G1 X-6.553 Y-3.510 F7800.000
G1 X-16.490 Y-13.447 F1800.000 E3.05305
G1 X-17.169 Y-13.447 F7800.000
G1 X-6.553 Y-2.831 F1800.000 E3.33303
G1 X-6.553 Y-2.153 F7800.000
G1 X-17.847 Y-13.447 F1800.000 E3.63090
G1 X-18.525 Y-13.447 F7800.000
G1 X-6.553 Y-1.475 F1800.000 E3.94666
G1 X-6.553 Y-0.797 F7800.000
G1 X-19.203 Y-13.447 F1800.000 E4.28030
G1 X-19.882 Y-13.447 F7800.000
G1 X-6.553 Y-0.118 F1800.000 E4.63184
G1 X-6.553 Y0.560 F7800.000
G1 X-20.560 Y-13.447 F1800.000 E5.00126
G1 X-21.238 Y-13.447 F7800.000
G1 X-6.553 Y1.238 F1800.000 E5.38858
G1 X-6.553 Y1.916 F7800.000
G1 X-21.916 Y-13.447 F1800.000 E5.79378
G1 X-22.595 Y-13.447 F7800.000
G1 X-6.553 Y2.595 F1800.000 E6.21687
G1 X-6.553 Y3.273 F7800.000
G1 X-23.273 Y-13.447 F1800.000 E6.65785
G1 X-23.951 Y-13.447 F7800.000
G1 X-6.553 Y3.951 F1800.000 E7.11672
G1 X-6.553 Y4.629 F7800.000
G1 X-24.629 Y-13.447 F1800.000 E7.59348
G1 X-25.308 Y-13.447 F7800.000
G1 X-6.553 Y5.308 F1800.000 E8.08812
G1 X-6.553 Y5.986 F7800.000
G1 X-25.986 Y-13.447 F1800.000 E8.60066
G1 X-26.664 Y-13.447 F7800.000
G1 X-6.553 Y6.664 F1800.000 E9.13108
G1 X-6.553 Y7.342 F7800.000
G1 X-27.342 Y-13.447 F1800.000 E9.67940
G1 X-28.021 Y-13.447 F7800.000
G1 X-6.553 Y8.021 F1800.000 E10.24560
G1 X-6.553 Y8.699 F7800.000
G1 X-28.699 Y-13.447 F1800.000 E10.82969
G1 X-29.377 Y-13.447 F7800.000
G1 X-6.553 Y9.377 F1800.000 E11.43167
G1 X-6.553 Y10.055 F7800.000
G1 X-30.055 Y-13.447 F1800.000 E12.05154
G1 X-30.734 Y-13.447 F7800.000
G1 X-6.553 Y10.734 F1800.000 E12.68929
G1 X-6.553 Y11.412 F7800.000
G1 X-31.412 Y-13.447 F1800.000 E13.34494
G1 X-32.090 Y-13.447 F7800.000
G1 X-6.553 Y12.090 F1800.000 E14.01847
G1 X-6.553 Y12.768 F7800.000
G1 X-32.768 Y-13.447 F1800.000 E14.70990
G1 X-33.447 Y-13.447 F7800.000
G1 X-6.553 Y13.447 F1800.000 E15.41921
G1 X-7.232 Y13.447 F7800.000
G1 X-33.447 Y-12.768 F1800.000 E16.11063
G1 X-33.447 Y-12.090 F7800.000
G1 X-7.910 Y13.447 F1800.000 E16.78417
G1 X-8.588 Y13.447 F7800.000
G1 X-33.447 Y-11.412 F1800.000 E17.43981
G1 X-33.447 Y-10.734 F7800.000
G1 X-9.266 Y13.447 F1800.000 E18.07757
G1 X-9.945 Y13.447 F7800.000
G1 X-33.447 Y-10.055 F1800.000 E18.69744
G1 X-33.447 Y-9.377 F7800.000
G1 X-10.623 Y13.447 F1800.000 E19.29942
G1 X-11.301 Y13.447 F7800.000
G1 X-33.447 Y-8.699 F1800.000 E19.88351
G1 X-33.447 Y-8.021 F7800.000
G1 X-11.979 Y13.447 F1800.000 E20.44971
G1 X-12.658 Y13.447 F7800.000
G1 X-33.447 Y-7.342 F1800.000 E20.99802
G1 X-33.447 Y-6.664 F7800.000
G1 X-13.336 Y13.447 F1800.000 E21.52845
G1 X-14.014 Y13.447 F7800.000
G1 X-33.447 Y-5.986 F1800.000 E22.04098
G1 X-33.447 Y-5.308 F7800.000
G1 X-14.692 Y13.447 F1800.000 E22.53563
G1 X-15.371 Y13.447 F7800.000
G1 X-33.447 Y-4.629 F1800.000 E23.01239
G1 X-33.447 Y-3.951 F7800.000
G1 X-16.049 Y13.447 F1800.000 E23.47126
G1 X-16.727 Y13.447 F7800.000
G1 X-33.447 Y-3.273 F1800.000 E23.91224
G1 X-33.447 Y-2.595 F7800.000
G1 X-17.405 Y13.447 F1800.000 E24.33533
G1 X-18.084 Y13.447 F7800.000
G1 X-33.447 Y-1.916 F1800.000 E24.74053
G1 X-33.447 Y-1.238 F7800.000
G1 X-18.762 Y13.447 F1800.000 E25.12784
G1 X-19.440 Y13.447 F7800.000
G1 X-33.447 Y-0.560 F1800.000 E25.49727
G1 X-33.447 Y0.118 F7800.000
G1 X-20.118 Y13.447 F1800.000 E25.84880
G1 X-20.797 Y13.447 F7800.000
G1 X-33.447 Y0.797 F1800.000 E26.18245
G1 X-33.447 Y1.475 F7800.000
G1 X-21.475 Y13.447 F1800.000 E26.49821
G1 X-22.153 Y13.447 F7800.000
G1 X-33.447 Y2.153 F1800.000 E26.79608
G1 X-33.447 Y2.831 F7800.000
G1 X-22.831 Y13.447 F1800.000 E27.07606
G1 X-23.510 Y13.447 F7800.000
G1 X-33.447 Y3.510 F1800.000 E27.33815
G1 X-33.447 Y4.188 F7800.000
G1 X-24.188 Y13.447 F1800.000 E27.58235
G1 X-24.866 Y13.447 F7800.000
G1 X-33.447 Y4.866 F1800.000 E27.80867
G1 X-33.447 Y5.544 F7800.000
G1 X-25.544 Y13.447 F1800.000 E28.01709
G1 X-26.223 Y13.447 F7800.000
G1 X-33.447 Y6.223 F1800.000 E28.20763
G1 X-33.447 Y6.901 F7800.000
G1 X-26.901 Y13.447 F1800.000 E28.38028
G1 X-27.579 Y13.447 F7800.000
G1 X-33.447 Y7.579 F1800.000 E28.53503
G1 X-33.447 Y8.257 F7800.000
G1 X-28.257 Y13.447 F1800.000 E28.67190
G1 X-28.936 Y13.447 F7800.000
G1 X-33.447 Y8.936 F1800.000 E28.79088
G1 X-33.447 Y9.614 F7800.000
G1 X-29.614 Y13.447 F1800.000 E28.89198
G1 X-30.292 Y13.447 F7800.000
G1 X-33.447 Y10.292 F1800.000 E28.97518
G1 X-33.447 Y10.970 F7800.000
G1 X-30.970 Y13.447 F1800.000 E29.04050
G1 X-31.649 Y13.447 F7800.000
G1 X-33.447 Y11.649 F1800.000 E29.08792
G1 X-33.447 Y12.327 F7800.000
G1 X-32.327 Y13.447 F1800.000 E29.11746
G1 X-33.005 Y13.447 F7800.000
G1 X-33.447 Y13.005 F1800.000 E29.12911
G1 F1800.000 E28.12911
G92 E0
G1 X-34.100 Y-14.100 F7800.000
G1 F1800.000 E1.00000
G1 X-33.836 Y-13.978 F1800.000 E1.00541
G1 X-6.427 Y-14.024 E1.51624
G1 X-6.022 Y-13.836 E1.52456
G1 X-6.022 Y13.836 E2.04030
G1 X-5.900 Y14.100 E2.04571
G1 F1800.000 E1.04571
G92 E0
G1 X5.900 Y-14.100 F7800.000
G1 F1800.000 E1.00000
G1 X6.164 Y-13.978 F1800.000 E1.00541
G1 X33.573 Y-14.024 E1.51624
G1 X33.978 Y-13.836 E1.52456
G1 X33.978 Y13.836 E2.04030
G1 X34.100 Y14.100 E2.04571
G1 F1800.000 E1.04571
