; generated by Slic3r 0.7.0 on 2012-03-02 at 11:26:10

; layer_height = .28
; perimeters = 3
; solid_layers = 3
; fill_density = .25
; nozzle_diameter = 0.4
; filament_diameter = 2.93
; extrusion_multiplier = 1
; perimeter_speed = 30
; infill_speed = 60
; travel_speed = 130
; extrusion_width_ratio = 0
; scale = 1
; single wall width = 0.46mm

M104 S220 ; set temperature
;
; Thing-O-Matic w/sjfw 1.11
; start.gcode
;
G21 ; set units to mm
G90 ; absoulte distances
; Dry run?
; P0 = normal P1 = no heat
M351 P0 
; Begin heating
M104 S220 ; extruder head
M140 S110 ; HBP
;
; Coarse home axes
; Set zero at limits for convenience
;
G1 Z999 F1500 ; home Z to get nozzle out of danger zone
G92 Z0
G1 Y-999 F4000 ; retract Y to get X out of front opening
G92 Y0
G1 X-999 F4000 ; now safe to home X
G92 X0
;
; Set actual offsets!
; Back off switches.
;
G1 X2 Y2 Z-2 F5000 
G1 Z999 F50
G92 Z121.3
G1 Y-999 F50
G92 Y-58.5
G1 X-999 F50
G92 X-58.5
;
; Extrude a turd then retract.
;
G1 X-50 Y55 Z.5 F10000
M116 ; wait for heat
G91 ; relative distances
G1 F4 ; set slow rate
G1 E3 ; extrude enough to get good pressure
G1 F4000 ; set for fast retract
G1 E-1 ; retract
;
; End of start.gcode
;
M109 S220 ; wait for temperature to be reached
G90 ; use absolute coordinates
G21 ; set units to millimeters
G92 E0 ; reset extrusion distance
M82 ; use absolute distances for extrusion
G1 Z5.320 F7800.000
G1 X-45.100 Y-44.920
G1 F1800.000 E1.00000
G1 X-44.920 Y-45.100 F900.000 E1.00474
G1 X-44.540 Y-45.440 E1.01425
G1 X-43.920 Y-45.880 E1.02842
G1 X-43.700 Y-46.010 E1.03318
G1 X-43.240 Y-46.240 E1.04276
G1 X-42.770 Y-46.430 E1.05221
G1 X-42.280 Y-46.580 E1.06176
G1 X-42.030 Y-46.640 E1.06656
G1 X-41.280 Y-46.750 E1.08068
G1 X-40.770 Y-46.770 E1.09020
G1 X41.270 Y-46.750 E2.61921
G1 X42.020 Y-46.640 E2.63333
G1 X42.520 Y-46.510 E2.64296
G1 X43.000 Y-46.340 E2.65245
G1 X43.460 Y-46.130 E2.66188
G1 X43.690 Y-46.010 E2.66671
G1 X43.910 Y-45.880 E2.67147
G1 X44.530 Y-45.440 E2.68564
G1 X44.910 Y-45.100 E2.69515
G1 X45.090 Y-44.920 E2.69989
G1 X45.430 Y-44.540 E2.70939
G1 X45.870 Y-43.920 E2.72356
G1 X46.000 Y-43.700 E2.72833
G1 X46.230 Y-43.240 E2.73791
G1 X46.420 Y-42.770 E2.74736
G1 X46.570 Y-42.280 E2.75691
G1 X46.630 Y-42.030 E2.76170
G1 X46.740 Y-41.280 E2.77583
G1 X46.740 Y41.270 E4.31434
G1 X46.630 Y42.020 E4.32847
G1 X46.500 Y42.520 E4.33810
G1 X46.330 Y43.000 E4.34759
G1 X46.120 Y43.460 E4.35701
G1 X46.000 Y43.690 E4.36185
G1 X45.870 Y43.910 E4.36661
G1 X45.430 Y44.530 E4.38078
G1 X45.090 Y44.910 E4.39029
G1 X44.910 Y45.090 E4.39503
G1 X44.530 Y45.430 E4.40453
G1 X43.910 Y45.870 E4.41870
G1 X43.690 Y46.000 E4.42346
G1 X43.230 Y46.230 E4.43305
G1 X42.760 Y46.420 E4.44250
G1 X42.270 Y46.570 E4.45205
G1 X42.020 Y46.630 E4.45684
G1 X41.270 Y46.740 E4.47097
G1 X40.760 Y46.760 E4.48048
G1 X-41.280 Y46.740 E6.00949
G1 X-42.030 Y46.630 E6.02362
G1 X-42.530 Y46.500 E6.03325
G1 X-43.010 Y46.330 E6.04274
G1 X-43.470 Y46.120 E6.05216
G1 X-43.700 Y46.000 E6.05700
G1 X-43.920 Y45.870 E6.06176
G1 X-44.540 Y45.430 E6.07593
G1 X-44.920 Y45.090 E6.08543
G1 X-45.100 Y44.910 E6.09018
G1 X-45.440 Y44.530 E6.09968
G1 X-45.880 Y43.910 E6.11385
G1 X-46.010 Y43.690 E6.11861
G1 X-46.240 Y43.230 E6.12820
G1 X-46.430 Y42.760 E6.13764
G1 X-46.580 Y42.270 E6.14719
G1 X-46.640 Y42.020 E6.15199
G1 X-46.750 Y41.270 E6.16611
G1 X-46.750 Y-41.280 E7.70463
G1 X-46.640 Y-42.030 E7.71876
G1 X-46.510 Y-42.530 E7.72839
G1 X-46.340 Y-43.010 E7.73788
G1 X-46.130 Y-43.470 E7.74730
G1 X-46.010 Y-43.700 E7.75213
G1 X-45.880 Y-43.920 E7.75690
G1 X-45.440 Y-44.540 E7.77107
G1 X-45.146 Y-44.868 E7.77928
G1 F1800.000 E6.77928
G92 E0
G1 X26.107 Y26.107 F7800.000
G1 F1800.000 E1.00000
G1 X39.893 Y26.107 F900.000 E1.25695
G1 X39.893 Y39.893 E1.51390
G1 X26.107 Y39.893 E1.77086
G1 X26.107 Y26.176 E2.02652
G1 X25.669 Y25.669 F7800.000
G1 X40.331 Y25.669 F900.000 E2.29979
G1 X40.331 Y40.331 E2.57305
G1 X25.669 Y40.331 E2.84632
G1 X25.669 Y25.738 E3.11830
G1 X25.231 Y25.231 F7800.000
G1 X40.769 Y25.231 F900.000 E3.40789
G1 X40.769 Y40.769 E3.69747
G1 X25.231 Y40.769 E3.98706
G1 X25.231 Y25.300 E4.27535
G1 F1800.000 E3.27535
G92 E0
G1 X17.893 Y26.107 F7800.000
G1 F1800.000 E1.00000
G1 X17.893 Y39.893 F900.000 E1.25695
G1 X4.107 Y39.893 E1.51390
G1 X4.107 Y26.107 E1.77086
G1 X17.824 Y26.107 E2.02652
G1 X18.331 Y25.669 F7800.000
G1 X18.331 Y40.331 F900.000 E2.29979
G1 X3.669 Y40.331 E2.57305
G1 X3.669 Y25.669 E2.84632
G1 X18.262 Y25.669 E3.11830
G1 X18.769 Y25.231 F7800.000
G1 X18.769 Y40.769 F900.000 E3.40789
G1 X3.231 Y40.769 E3.69747
G1 X3.231 Y25.231 E3.98706
G1 X18.700 Y25.231 E4.27535
G1 F1800.000 E3.27535
G92 E0
G1 X-4.107 Y26.107 F7800.000
G1 F1800.000 E1.00000
G1 X-4.107 Y39.893 F900.000 E1.25695
G1 X-17.893 Y39.893 E1.51390
G1 X-17.893 Y26.107 E1.77086
G1 X-4.176 Y26.107 E2.02652
G1 X-3.669 Y25.669 F7800.000
G1 X-3.669 Y40.331 F900.000 E2.29979
G1 X-18.331 Y40.331 E2.57305
G1 X-18.331 Y25.669 E2.84632
G1 X-3.738 Y25.669 E3.11830
G1 X-3.231 Y25.231 F7800.000
G1 X-3.231 Y40.769 F900.000 E3.40789
G1 X-18.769 Y40.769 E3.69747
G1 X-18.769 Y25.231 E3.98706
G1 X-3.300 Y25.231 E4.27535
G1 F1800.000 E3.27535
G92 E0
G1 X-26.107 Y26.107 F7800.000
G1 F1800.000 E1.00000
G1 X-26.107 Y39.893 F900.000 E1.25695
G1 X-39.893 Y39.893 E1.51390
G1 X-39.893 Y26.107 E1.77086
G1 X-26.176 Y26.107 E2.02652
G1 X-25.669 Y25.669 F7800.000
G1 X-25.669 Y40.331 F900.000 E2.29979
G1 X-40.331 Y40.331 E2.57305
G1 X-40.331 Y25.669 E2.84632
G1 X-25.738 Y25.669 E3.11830
G1 X-25.231 Y25.231 F7800.000
G1 X-25.231 Y40.769 F900.000 E3.40789
G1 X-40.769 Y40.769 E3.69747
G1 X-40.769 Y25.231 E3.98706
G1 X-25.300 Y25.231 E4.27535
G1 F1800.000 E3.27535
G92 E0
G1 X-26.107 Y17.893 F7800.000
G1 F1800.000 E1.00000
G1 X-39.893 Y17.893 F900.000 E1.25695
G1 X-39.893 Y4.107 E1.51390
G1 X-26.107 Y4.107 E1.77086
G1 X-26.107 Y17.824 E2.02652
G1 X-25.669 Y18.331 F7800.000
G1 X-40.331 Y18.331 F900.000 E2.29979
G1 X-40.331 Y3.669 E2.57305
G1 X-25.669 Y3.669 E2.84632
G1 X-25.669 Y18.262 E3.11830
G1 X-25.231 Y18.769 F7800.000
G1 X-40.769 Y18.769 F900.000 E3.40789
G1 X-40.769 Y3.231 E3.69747
G1 X-25.231 Y3.231 E3.98706
G1 X-25.231 Y18.700 E4.27535
G1 F1800.000 E3.27535
G92 E0
G1 X-17.893 Y17.893 F7800.000
G1 F1800.000 E1.00000
G1 X-17.893 Y4.107 F900.000 E1.25695
G1 X-4.107 Y4.107 E1.51390
G1 X-4.107 Y17.893 E1.77086
G1 X-17.824 Y17.893 E2.02652
G1 X-18.331 Y18.331 F7800.000
G1 X-18.331 Y3.669 F900.000 E2.29979
G1 X-3.669 Y3.669 E2.57305
G1 X-3.669 Y18.331 E2.84632
G1 X-18.262 Y18.331 E3.11830
G1 X-18.769 Y18.769 F7800.000
G1 X-18.769 Y3.231 F900.000 E3.40789
G1 X-3.231 Y3.231 E3.69747
G1 X-3.231 Y18.769 E3.98706
G1 X-18.700 Y18.769 E4.27535
G1 F1800.000 E3.27535
G92 E0
G1 X4.107 Y17.893 F7800.000
G1 F1800.000 E1.00000
G1 X4.107 Y4.107 F900.000 E1.25695
G1 X17.893 Y4.107 E1.51390
G1 X17.893 Y17.893 E1.77086
G1 X4.176 Y17.893 E2.02652
G1 X3.669 Y18.331 F7800.000
G1 X3.669 Y3.669 F900.000 E2.29979
G1 X18.331 Y3.669 E2.57305
G1 X18.331 Y18.331 E2.84632
G1 X3.738 Y18.331 E3.11830
G1 X3.231 Y18.769 F7800.000
G1 X3.231 Y3.231 F900.000 E3.40789
G1 X18.769 Y3.231 E3.69747
G1 X18.769 Y18.769 E3.98706
G1 X3.300 Y18.769 E4.27535
G1 F1800.000 E3.27535
G92 E0
G1 X26.107 Y17.893 F7800.000
G1 F1800.000 E1.00000
G1 X26.107 Y4.107 F900.000 E1.25695
G1 X39.893 Y4.107 E1.51390
G1 X39.893 Y17.893 E1.77086
G1 X26.176 Y17.893 E2.02652
G1 X25.669 Y18.331 F7800.000
G1 X25.669 Y3.669 F900.000 E2.29979
G1 X40.331 Y3.669 E2.57305
G1 X40.331 Y18.331 E2.84632
G1 X25.738 Y18.331 E3.11830
G1 X25.231 Y18.769 F7800.000
G1 X25.231 Y3.231 F900.000 E3.40789
G1 X40.769 Y3.231 E3.69747
G1 X40.769 Y18.769 E3.98706
G1 X25.300 Y18.769 E4.27535
G1 F1800.000 E3.27535
G92 E0
G1 X26.107 Y-4.107 F7800.000
G1 F1800.000 E1.00000
G1 X26.107 Y-17.893 F900.000 E1.25695
G1 X39.893 Y-17.893 E1.51390
G1 X39.893 Y-4.107 E1.77086
G1 X26.176 Y-4.107 E2.02652
G1 X25.669 Y-3.669 F7800.000
G1 X25.669 Y-18.331 F900.000 E2.29979
G1 X40.331 Y-18.331 E2.57305
G1 X40.331 Y-3.669 E2.84632
G1 X25.738 Y-3.669 E3.11830
G1 X25.231 Y-3.231 F7800.000
G1 X25.231 Y-18.769 F900.000 E3.40789
G1 X40.769 Y-18.769 E3.69747
G1 X40.769 Y-3.231 E3.98706
G1 X25.300 Y-3.231 E4.27535
G1 F1800.000 E3.27535
G92 E0
G1 X17.893 Y-4.107 F7800.000
G1 F1800.000 E1.00000
G1 X4.107 Y-4.107 F900.000 E1.25695
G1 X4.107 Y-17.893 E1.51390
G1 X17.893 Y-17.893 E1.77086
G1 X17.893 Y-4.176 E2.02652
G1 X18.331 Y-3.669 F7800.000
G1 X3.669 Y-3.669 F900.000 E2.29979
G1 X3.669 Y-18.331 E2.57305
G1 X18.331 Y-18.331 E2.84632
G1 X18.331 Y-3.738 E3.11830
G1 X18.769 Y-3.231 F7800.000
G1 X3.231 Y-3.231 F900.000 E3.40789
G1 X3.231 Y-18.769 E3.69747
G1 X18.769 Y-18.769 E3.98706
G1 X18.769 Y-3.300 E4.27535
G1 F1800.000 E3.27535
G92 E0
G1 X-4.107 Y-4.107 F7800.000
G1 F1800.000 E1.00000
G1 X-17.893 Y-4.107 F900.000 E1.25695
G1 X-17.893 Y-17.893 E1.51390
G1 X-4.107 Y-17.893 E1.77086
G1 X-4.107 Y-4.176 E2.02652
G1 X-3.669 Y-3.669 F7800.000
G1 X-18.331 Y-3.669 F900.000 E2.29979
G1 X-18.331 Y-18.331 E2.57305
G1 X-3.669 Y-18.331 E2.84632
G1 X-3.669 Y-3.738 E3.11830
G1 X-3.231 Y-3.231 F7800.000
G1 X-18.769 Y-3.231 F900.000 E3.40789
G1 X-18.769 Y-18.769 E3.69747
G1 X-3.231 Y-18.769 E3.98706
G1 X-3.231 Y-3.300 E4.27535
G1 F1800.000 E3.27535
G92 E0
G1 X-26.107 Y-4.107 F7800.000
G1 F1800.000 E1.00000
G1 X-39.893 Y-4.107 F900.000 E1.25695
G1 X-39.893 Y-17.893 E1.51390
G1 X-26.107 Y-17.893 E1.77086
G1 X-26.107 Y-4.176 E2.02652
G1 X-25.669 Y-3.669 F7800.000
G1 X-40.331 Y-3.669 F900.000 E2.29979
G1 X-40.331 Y-18.331 E2.57305
G1 X-25.669 Y-18.331 E2.84632
G1 X-25.669 Y-3.738 E3.11830
G1 X-25.231 Y-3.231 F7800.000
G1 X-40.769 Y-3.231 F900.000 E3.40789
G1 X-40.769 Y-18.769 E3.69747
G1 X-25.231 Y-18.769 E3.98706
G1 X-25.231 Y-3.300 E4.27535
G1 F1800.000 E3.27535
G92 E0
G1 X-26.107 Y-26.107 F7800.000
G1 F1800.000 E1.00000
G1 X-39.893 Y-26.107 F900.000 E1.25695
G1 X-39.893 Y-39.893 E1.51390
G1 X-26.107 Y-39.893 E1.77086
G1 X-26.107 Y-26.176 E2.02652
G1 X-25.669 Y-25.669 F7800.000
G1 X-40.331 Y-25.669 F900.000 E2.29979
G1 X-40.331 Y-40.331 E2.57305
G1 X-25.669 Y-40.331 E2.84632
G1 X-25.669 Y-25.738 E3.11830
G1 X-25.231 Y-25.231 F7800.000
G1 X-40.769 Y-25.231 F900.000 E3.40789
G1 X-40.769 Y-40.769 E3.69747
G1 X-25.231 Y-40.769 E3.98706
G1 X-25.231 Y-25.300 E4.27535
G1 F1800.000 E3.27535
G92 E0
G1 X-17.893 Y-26.107 F7800.000
G1 F1800.000 E1.00000
G1 X-17.893 Y-39.893 F900.000 E1.25695
G1 X-4.107 Y-39.893 E1.51390
G1 X-4.107 Y-26.107 E1.77086
G1 X-17.824 Y-26.107 E2.02652
G1 X-18.331 Y-25.669 F7800.000
G1 X-18.331 Y-40.331 F900.000 E2.29979
G1 X-3.669 Y-40.331 E2.57305
G1 X-3.669 Y-25.669 E2.84632
G1 X-18.262 Y-25.669 E3.11830
G1 X-18.769 Y-25.231 F7800.000
G1 X-18.769 Y-40.769 F900.000 E3.40789
G1 X-3.231 Y-40.769 E3.69747
G1 X-3.231 Y-25.231 E3.98706
G1 X-18.700 Y-25.231 E4.27535
G1 F1800.000 E3.27535
G92 E0
G1 X4.107 Y-26.107 F7800.000
G1 F1800.000 E1.00000
G1 X4.107 Y-39.893 F900.000 E1.25695
G1 X17.893 Y-39.893 E1.51390
G1 X17.893 Y-26.107 E1.77086
G1 X4.176 Y-26.107 E2.02652
G1 X3.669 Y-25.669 F7800.000
G1 X3.669 Y-40.331 F900.000 E2.29979
G1 X18.331 Y-40.331 E2.57305
G1 X18.331 Y-25.669 E2.84632
G1 X3.738 Y-25.669 E3.11830
G1 X3.231 Y-25.231 F7800.000
G1 X3.231 Y-40.769 F900.000 E3.40789
G1 X18.769 Y-40.769 E3.69747
G1 X18.769 Y-25.231 E3.98706
G1 X3.300 Y-25.231 E4.27535
G1 F1800.000 E3.27535
G92 E0
G1 X26.107 Y-26.107 F7800.000
G1 F1800.000 E1.00000
G1 X26.107 Y-39.893 F900.000 E1.25695
G1 X39.893 Y-39.893 E1.51390
G1 X39.893 Y-26.107 E1.77086
G1 X26.176 Y-26.107 E2.02652
G1 X25.669 Y-25.669 F7800.000
G1 X25.669 Y-40.331 F900.000 E2.29979
G1 X40.331 Y-40.331 E2.57305
G1 X40.331 Y-25.669 E2.84632
G1 X25.738 Y-25.669 E3.11830
G1 X25.231 Y-25.231 F7800.000
G1 X25.231 Y-40.769 F900.000 E3.40789
G1 X40.769 Y-40.769 E3.69747
G1 X40.769 Y-25.231 E3.98706
G1 X25.300 Y-25.231 E4.27535
G1 F1800.000 E3.27535
G92 E0
G1 Z5.600 F7800.000
G1 X26.107 Y26.107
G1 F1800.000 E1.00000
G1 X39.893 Y26.107 F1800.000 E1.25695
G1 X39.893 Y39.893 E1.51390
G1 X26.107 Y39.893 E1.77086
G1 X26.107 Y26.176 E2.02652
G1 X25.669 Y25.669 F7800.000
G1 X40.331 Y25.669 F1800.000 E2.29979
G1 X40.331 Y40.331 E2.57305
G1 X25.669 Y40.331 E2.84632
G1 X25.669 Y25.738 E3.11830
G1 X25.231 Y25.231 F7800.000
G1 X40.769 Y25.231 F1800.000 E3.40789
G1 X40.769 Y40.769 E3.69747
G1 X25.231 Y40.769 E3.98706
G1 X25.231 Y25.300 E4.27535
G1 F1800.000 E3.27535
G92 E0
G1 X17.893 Y26.107 F7800.000
G1 F1800.000 E1.00000
G1 X17.893 Y39.893 F1800.000 E1.25695
G1 X4.107 Y39.893 E1.51390
G1 X4.107 Y26.107 E1.77086
G1 X17.824 Y26.107 E2.02652
G1 X18.331 Y25.669 F7800.000
G1 X18.331 Y40.331 F1800.000 E2.29979
G1 X3.669 Y40.331 E2.57305
G1 X3.669 Y25.669 E2.84632
G1 X18.262 Y25.669 E3.11830
G1 X18.769 Y25.231 F7800.000
G1 X18.769 Y40.769 F1800.000 E3.40789
G1 X3.231 Y40.769 E3.69747
G1 X3.231 Y25.231 E3.98706
G1 X18.700 Y25.231 E4.27535
G1 F1800.000 E3.27535
G92 E0
G1 X-4.107 Y26.107 F7800.000
G1 F1800.000 E1.00000
G1 X-4.107 Y39.893 F1800.000 E1.25695
G1 X-17.893 Y39.893 E1.51390
G1 X-17.893 Y26.107 E1.77086
G1 X-4.176 Y26.107 E2.02652
G1 X-3.669 Y25.669 F7800.000
G1 X-3.669 Y40.331 F1800.000 E2.29979
G1 X-18.331 Y40.331 E2.57305
G1 X-18.331 Y25.669 E2.84632
G1 X-3.738 Y25.669 E3.11830
G1 X-3.231 Y25.231 F7800.000
G1 X-3.231 Y40.769 F1800.000 E3.40789
G1 X-18.769 Y40.769 E3.69747
G1 X-18.769 Y25.231 E3.98706
G1 X-3.300 Y25.231 E4.27535
G1 F1800.000 E3.27535
G92 E0
G1 X-26.107 Y26.107 F7800.000
G1 F1800.000 E1.00000
G1 X-26.107 Y39.893 F1800.000 E1.25695
G1 X-39.893 Y39.893 E1.51390
G1 X-39.893 Y26.107 E1.77086
G1 X-26.176 Y26.107 E2.02652
G1 X-25.669 Y25.669 F7800.000
G1 X-25.669 Y40.331 F1800.000 E2.29979
G1 X-40.331 Y40.331 E2.57305
G1 X-40.331 Y25.669 E2.84632
G1 X-25.738 Y25.669 E3.11830
G1 X-25.231 Y25.231 F7800.000
G1 X-25.231 Y40.769 F1800.000 E3.40789
G1 X-40.769 Y40.769 E3.69747
G1 X-40.769 Y25.231 E3.98706
G1 X-25.300 Y25.231 E4.27535
G1 F1800.000 E3.27535
G92 E0
G1 X-26.107 Y17.893 F7800.000
G1 F1800.000 E1.00000
G1 X-39.893 Y17.893 F1800.000 E1.25695
G1 X-39.893 Y4.107 E1.51390
G1 X-26.107 Y4.107 E1.77086
G1 X-26.107 Y17.824 E2.02652
G1 X-25.669 Y18.331 F7800.000
G1 X-40.331 Y18.331 F1800.000 E2.29979
G1 X-40.331 Y3.669 E2.57305
G1 X-25.669 Y3.669 E2.84632
G1 X-25.669 Y18.262 E3.11830
G1 X-25.231 Y18.769 F7800.000
G1 X-40.769 Y18.769 F1800.000 E3.40789
G1 X-40.769 Y3.231 E3.69747
G1 X-25.231 Y3.231 E3.98706
G1 X-25.231 Y18.700 E4.27535
G1 F1800.000 E3.27535
G92 E0
G1 X-17.893 Y17.893 F7800.000
G1 F1800.000 E1.00000
G1 X-17.893 Y4.107 F1800.000 E1.25695
G1 X-4.107 Y4.107 E1.51390
G1 X-4.107 Y17.893 E1.77086
G1 X-17.824 Y17.893 E2.02652
G1 X-18.331 Y18.331 F7800.000
G1 X-18.331 Y3.669 F1800.000 E2.29979
G1 X-3.669 Y3.669 E2.57305
G1 X-3.669 Y18.331 E2.84632
G1 X-18.262 Y18.331 E3.11830
G1 X-18.769 Y18.769 F7800.000
G1 X-18.769 Y3.231 F1800.000 E3.40789
G1 X-3.231 Y3.231 E3.69747
G1 X-3.231 Y18.769 E3.98706
G1 X-18.700 Y18.769 E4.27535
G1 F1800.000 E3.27535
G92 E0
G1 X4.107 Y17.893 F7800.000
G1 F1800.000 E1.00000
G1 X4.107 Y4.107 F1800.000 E1.25695
G1 X17.893 Y4.107 E1.51390
G1 X17.893 Y17.893 E1.77086
G1 X4.176 Y17.893 E2.02652
G1 X3.669 Y18.331 F7800.000
G1 X3.669 Y3.669 F1800.000 E2.29979
G1 X18.331 Y3.669 E2.57305
G1 X18.331 Y18.331 E2.84632
G1 X3.738 Y18.331 E3.11830
G1 X3.231 Y18.769 F7800.000
G1 X3.231 Y3.231 F1800.000 E3.40789
G1 X18.769 Y3.231 E3.69747
G1 X18.769 Y18.769 E3.98706
G1 X3.300 Y18.769 E4.27535
G1 F1800.000 E3.27535
G92 E0
G1 X26.107 Y17.893 F7800.000
G1 F1800.000 E1.00000
G1 X26.107 Y4.107 F1800.000 E1.25695
G1 X39.893 Y4.107 E1.51390
G1 X39.893 Y17.893 E1.77086
G1 X26.176 Y17.893 E2.02652
G1 X25.669 Y18.331 F7800.000
G1 X25.669 Y3.669 F1800.000 E2.29979
G1 X40.331 Y3.669 E2.57305
G1 X40.331 Y18.331 E2.84632
G1 X25.738 Y18.331 E3.11830
G1 X25.231 Y18.769 F7800.000
G1 X25.231 Y3.231 F1800.000 E3.40789
G1 X40.769 Y3.231 E3.69747
G1 X40.769 Y18.769 E3.98706
G1 X25.300 Y18.769 E4.27535
G1 F1800.000 E3.27535
G92 E0
G1 X26.107 Y-4.107 F7800.000
G1 F1800.000 E1.00000
G1 X26.107 Y-17.893 F1800.000 E1.25695
G1 X39.893 Y-17.893 E1.51390
G1 X39.893 Y-4.107 E1.77086
G1 X26.176 Y-4.107 E2.02652
