; generated by Slic3r 0.7.0 on 2012-03-02 at 12:10:20

; layer_height = .28
; perimeters = 3
; solid_layers = 3
; fill_density = .25
; nozzle_diameter = 0.4
; filament_diameter = 2.93
; extrusion_multiplier = 1
; perimeter_speed = 30
; infill_speed = 60
; travel_speed = 130
; extrusion_width_ratio = 0
; scale = 1
; single wall width = 0.46mm

M104 S220 ; set temperature
;
; Thing-O-Matic w/sjfw 1.11
; start.gcode
;
G21 ; set units to mm
G90 ; absoulte distances
; Dry run?
; P0 = normal P1 = no heat
M351 P0 
; Begin heating
M104 S220 ; extruder head
M140 S110 ; HBP
;
; Coarse home axes
; Set zero at limits for convenience
;
G1 Z999 F1500 ; home Z to get nozzle out of danger zone
G92 Z0
G1 Y-999 F4000 ; retract Y to get X out of front opening
G92 Y0
G1 X-999 F4000 ; now safe to home X
G92 X0
;
; Set actual offsets!
; Back off switches.
;
G1 X2 Y2 Z-2 F5000 
G1 Z999 F50
G92 Z121.3
G1 Y-999 F50
G92 Y-58.5
G1 X-999 F50
G92 X-58.5
;
; Extrude a turd then retract.
;
G1 X-50 Y55 Z.5 F10000
M116 ; wait for heat
G91 ; relative distances
G1 F4 ; set slow rate
G1 E3 ; extrude enough to get good pressure
G1 F4000 ; set for fast retract
G1 E-1 ; retract
;
; End of start.gcode
;
M109 S220 ; wait for temperature to be reached
G90 ; use absolute coordinates
G21 ; set units to millimeters
G92 E0 ; reset extrusion distance
M82 ; use absolute distances for extrusion
G1 Z0.280 F7800.000
G1 X-51.600 Y-51.420
G1 F1800.000 E1.00000
G1 X-51.420 Y-51.600 F900.000 E1.00474
G1 X-51.040 Y-51.940 E1.01425
G1 X-50.420 Y-52.380 E1.02842
G1 X-50.200 Y-52.510 E1.03318
G1 X-49.740 Y-52.740 E1.04276
G1 X-49.270 Y-52.930 E1.05221
G1 X-48.780 Y-53.080 E1.06176
G1 X-48.530 Y-53.140 E1.06656
G1 X-47.780 Y-53.250 E1.08068
G1 X-47.270 Y-53.270 E1.09020
G1 X47.770 Y-53.250 E2.86149
G1 X48.520 Y-53.140 E2.87562
G1 X49.020 Y-53.010 E2.88525
G1 X49.500 Y-52.840 E2.89474
G1 X49.960 Y-52.630 E2.90416
G1 X50.190 Y-52.510 E2.90900
G1 X50.410 Y-52.380 E2.91376
G1 X51.030 Y-51.940 E2.92793
G1 X51.410 Y-51.600 E2.93743
G1 X51.590 Y-51.420 E2.94218
G1 X51.930 Y-51.040 E2.95168
G1 X52.370 Y-50.420 E2.96585
G1 X52.500 Y-50.200 E2.97061
G1 X52.730 Y-49.740 E2.98020
G1 X52.920 Y-49.270 E2.98964
G1 X53.070 Y-48.780 E2.99920
G1 X53.130 Y-48.530 E3.00399
G1 X53.240 Y-47.780 E3.01811
G1 X53.240 Y47.770 E4.79892
G1 X53.130 Y48.520 E4.81304
G1 X53.000 Y49.020 E4.82267
G1 X52.830 Y49.500 E4.83216
G1 X52.620 Y49.960 E4.84159
G1 X52.500 Y50.190 E4.84642
G1 X52.370 Y50.410 E4.85118
G1 X51.930 Y51.030 E4.86535
G1 X51.590 Y51.410 E4.87486
G1 X51.410 Y51.590 E4.87960
G1 X51.030 Y51.930 E4.88910
G1 X50.410 Y52.370 E4.90327
G1 X50.190 Y52.500 E4.90804
G1 X49.730 Y52.730 E4.91762
G1 X49.260 Y52.920 E4.92707
G1 X48.770 Y53.070 E4.93662
G1 X48.520 Y53.130 E4.94141
G1 X47.770 Y53.240 E4.95554
G1 X47.260 Y53.260 E4.96505
G1 X-47.780 Y53.240 E6.73635
G1 X-48.530 Y53.130 E6.75048
G1 X-49.030 Y53.000 E6.76010
G1 X-49.510 Y52.830 E6.76959
G1 X-49.970 Y52.620 E6.77902
G1 X-50.200 Y52.500 E6.78385
G1 X-50.420 Y52.370 E6.78862
G1 X-51.040 Y51.930 E6.80279
G1 X-51.420 Y51.590 E6.81229
G1 X-51.600 Y51.410 E6.81703
G1 X-51.940 Y51.030 E6.82654
G1 X-52.380 Y50.410 E6.84071
G1 X-52.510 Y50.190 E6.84547
G1 X-52.740 Y49.730 E6.85505
G1 X-52.930 Y49.260 E6.86450
G1 X-53.080 Y48.770 E6.87405
G1 X-53.140 Y48.520 E6.87884
G1 X-53.250 Y47.770 E6.89297
G1 X-53.250 Y-47.780 E8.67377
G1 X-53.140 Y-48.530 E8.68790
G1 X-53.010 Y-49.030 E8.69753
G1 X-52.840 Y-49.510 E8.70702
G1 X-52.630 Y-49.970 E8.71644
G1 X-52.510 Y-50.200 E8.72128
G1 X-52.380 Y-50.420 E8.72604
G1 X-51.940 Y-51.040 E8.74021
G1 X-51.646 Y-51.368 E8.74842
G1 F1800.000 E7.74842
G92 E0
G1 X28.607 Y28.607 F7800.000
G1 F1800.000 E1.00000
G1 X46.393 Y28.607 F900.000 E1.33150
G1 X46.393 Y46.393 E1.66300
G1 X28.607 Y46.393 E1.99451
G1 X28.607 Y28.676 E2.32472
G1 X28.169 Y28.169 F7800.000
G1 X46.831 Y28.169 F900.000 E2.67253
G1 X46.831 Y46.831 E3.02035
G1 X28.169 Y46.831 E3.36817
G1 X28.169 Y28.238 E3.71470
G1 X27.731 Y27.731 F7800.000
G1 X47.269 Y27.731 F900.000 E4.07883
G1 X47.269 Y47.269 E4.44297
G1 X27.731 Y47.269 E4.80710
G1 X27.731 Y27.800 E5.16994
G1 F1800.000 E4.16994
G92 E0
G1 X21.393 Y28.607 F7800.000
G1 F1800.000 E1.00000
G1 X21.393 Y46.393 F900.000 E1.33150
G1 X3.607 Y46.393 E1.66300
G1 X3.607 Y28.607 E1.99451
G1 X21.324 Y28.607 E2.32472
G1 X21.831 Y28.169 F7800.000
G1 X21.831 Y46.831 F900.000 E2.67253
G1 X3.169 Y46.831 E3.02035
G1 X3.169 Y28.169 E3.36817
G1 X21.762 Y28.169 E3.71470
G1 X22.269 Y27.731 F7800.000
G1 X22.269 Y47.269 F900.000 E4.07883
G1 X2.731 Y47.269 E4.44297
G1 X2.731 Y27.731 E4.80710
G1 X22.200 Y27.731 E5.16994
G1 F1800.000 E4.16994
G92 E0
G1 X-3.607 Y28.607 F7800.000
G1 F1800.000 E1.00000
G1 X-3.607 Y46.393 F900.000 E1.33150
G1 X-21.393 Y46.393 E1.66300
G1 X-21.393 Y28.607 E1.99451
G1 X-3.676 Y28.607 E2.32472
G1 X-3.169 Y28.169 F7800.000
G1 X-3.169 Y46.831 F900.000 E2.67253
G1 X-21.831 Y46.831 E3.02035
G1 X-21.831 Y28.169 E3.36817
G1 X-3.238 Y28.169 E3.71470
G1 X-2.731 Y27.731 F7800.000
G1 X-2.731 Y47.269 F900.000 E4.07883
G1 X-22.269 Y47.269 E4.44297
G1 X-22.269 Y27.731 E4.80710
G1 X-2.800 Y27.731 E5.16994
G1 F1800.000 E4.16994
G92 E0
G1 X-28.607 Y28.607 F7800.000
G1 F1800.000 E1.00000
G1 X-28.607 Y46.393 F900.000 E1.33150
G1 X-46.393 Y46.393 E1.66300
G1 X-46.393 Y28.607 E1.99451
G1 X-28.676 Y28.607 E2.32472
G1 X-28.169 Y28.169 F7800.000
G1 X-28.169 Y46.831 F900.000 E2.67253
G1 X-46.831 Y46.831 E3.02035
G1 X-46.831 Y28.169 E3.36817
G1 X-28.238 Y28.169 E3.71470
G1 X-27.731 Y27.731 F7800.000
G1 X-27.731 Y47.269 F900.000 E4.07883
G1 X-47.269 Y47.269 E4.44297
G1 X-47.269 Y27.731 E4.80710
G1 X-27.800 Y27.731 E5.16994
G1 F1800.000 E4.16994
G92 E0
G1 X-28.607 Y21.393 F7800.000
G1 F1800.000 E1.00000
G1 X-46.393 Y21.393 F900.000 E1.33150
G1 X-46.393 Y3.607 E1.66300
G1 X-28.607 Y3.607 E1.99451
G1 X-28.607 Y21.324 E2.32472
G1 X-28.169 Y21.831 F7800.000
G1 X-46.831 Y21.831 F900.000 E2.67253
G1 X-46.831 Y3.169 E3.02035
G1 X-28.169 Y3.169 E3.36817
G1 X-28.169 Y21.762 E3.71470
G1 X-27.731 Y22.269 F7800.000
G1 X-47.269 Y22.269 F900.000 E4.07883
G1 X-47.269 Y2.731 E4.44297
G1 X-27.731 Y2.731 E4.80710
G1 X-27.731 Y22.200 E5.16994
G1 F1800.000 E4.16994
G92 E0
G1 X-21.393 Y21.393 F7800.000
G1 F1800.000 E1.00000
G1 X-21.393 Y3.607 F900.000 E1.33150
G1 X-3.607 Y3.607 E1.66300
G1 X-3.607 Y21.393 E1.99451
G1 X-21.324 Y21.393 E2.32472
G1 X-21.831 Y21.831 F7800.000
G1 X-21.831 Y3.169 F900.000 E2.67253
G1 X-3.169 Y3.169 E3.02035
G1 X-3.169 Y21.831 E3.36817
G1 X-21.762 Y21.831 E3.71470
G1 X-22.269 Y22.269 F7800.000
G1 X-22.269 Y2.731 F900.000 E4.07883
G1 X-2.731 Y2.731 E4.44297
G1 X-2.731 Y22.269 E4.80710
G1 X-22.200 Y22.269 E5.16994
G1 F1800.000 E4.16994
G92 E0
G1 X3.607 Y21.393 F7800.000
G1 F1800.000 E1.00000
G1 X3.607 Y3.607 F900.000 E1.33150
G1 X21.393 Y3.607 E1.66300
G1 X21.393 Y21.393 E1.99451
G1 X3.676 Y21.393 E2.32472
G1 X3.169 Y21.831 F7800.000
G1 X3.169 Y3.169 F900.000 E2.67253
G1 X21.831 Y3.169 E3.02035
G1 X21.831 Y21.831 E3.36817
G1 X3.238 Y21.831 E3.71470
G1 X2.731 Y22.269 F7800.000
G1 X2.731 Y2.731 F900.000 E4.07883
G1 X22.269 Y2.731 E4.44297
G1 X22.269 Y22.269 E4.80710
G1 X2.800 Y22.269 E5.16994
G1 F1800.000 E4.16994
G92 E0
G1 X28.607 Y21.393 F7800.000
G1 F1800.000 E1.00000
G1 X28.607 Y3.607 F900.000 E1.33150
G1 X46.393 Y3.607 E1.66300
G1 X46.393 Y21.393 E1.99451
G1 X28.676 Y21.393 E2.32472
G1 X28.169 Y21.831 F7800.000
G1 X28.169 Y3.169 F900.000 E2.67253
G1 X46.831 Y3.169 E3.02035
G1 X46.831 Y21.831 E3.36817
G1 X28.238 Y21.831 E3.71470
G1 X27.731 Y22.269 F7800.000
G1 X27.731 Y2.731 F900.000 E4.07883
G1 X47.269 Y2.731 E4.44297
G1 X47.269 Y22.269 E4.80710
G1 X27.800 Y22.269 E5.16994
G1 F1800.000 E4.16994
G92 E0
G1 X28.607 Y-3.607 F7800.000
G1 F1800.000 E1.00000
G1 X28.607 Y-21.393 F900.000 E1.33150
G1 X46.393 Y-21.393 E1.66300
G1 X46.393 Y-3.607 E1.99451
G1 X28.676 Y-3.607 E2.32472
G1 X28.169 Y-3.169 F7800.000
G1 X28.169 Y-21.831 F900.000 E2.67253
G1 X46.831 Y-21.831 E3.02035
G1 X46.831 Y-3.169 E3.36817
G1 X28.238 Y-3.169 E3.71470
G1 X27.731 Y-2.731 F7800.000
G1 X27.731 Y-22.269 F900.000 E4.07883
G1 X47.269 Y-22.269 E4.44297
G1 X47.269 Y-2.731 E4.80710
G1 X27.800 Y-2.731 E5.16994
G1 F1800.000 E4.16994
G92 E0
G1 X21.393 Y-3.607 F7800.000
G1 F1800.000 E1.00000
G1 X3.607 Y-3.607 F900.000 E1.33150
G1 X3.607 Y-21.393 E1.66300
G1 X21.393 Y-21.393 E1.99451
G1 X21.393 Y-3.676 E2.32472
G1 X21.831 Y-3.169 F7800.000
G1 X3.169 Y-3.169 F900.000 E2.67253
G1 X3.169 Y-21.831 E3.02035
G1 X21.831 Y-21.831 E3.36817
G1 X21.831 Y-3.238 E3.71470
G1 X22.269 Y-2.731 F7800.000
G1 X2.731 Y-2.731 F900.000 E4.07883
G1 X2.731 Y-22.269 E4.44297
G1 X22.269 Y-22.269 E4.80710
G1 X22.269 Y-2.800 E5.16994
G1 F1800.000 E4.16994
G92 E0
G1 X-3.607 Y-3.607 F7800.000
G1 F1800.000 E1.00000
G1 X-21.393 Y-3.607 F900.000 E1.33150
G1 X-21.393 Y-21.393 E1.66300
G1 X-3.607 Y-21.393 E1.99451
G1 X-3.607 Y-3.676 E2.32472
G1 X-3.169 Y-3.169 F7800.000
G1 X-21.831 Y-3.169 F900.000 E2.67253
G1 X-21.831 Y-21.831 E3.02035
G1 X-3.169 Y-21.831 E3.36817
G1 X-3.169 Y-3.238 E3.71470
G1 X-2.731 Y-2.731 F7800.000
G1 X-22.269 Y-2.731 F900.000 E4.07883
G1 X-22.269 Y-22.269 E4.44297
G1 X-2.731 Y-22.269 E4.80710
G1 X-2.731 Y-2.800 E5.16994
G1 F1800.000 E4.16994
G92 E0
G1 X-28.607 Y-3.607 F7800.000
G1 F1800.000 E1.00000
G1 X-46.393 Y-3.607 F900.000 E1.33150
G1 X-46.393 Y-21.393 E1.66300
G1 X-28.607 Y-21.393 E1.99451
G1 X-28.607 Y-3.676 E2.32472
G1 X-28.169 Y-3.169 F7800.000
G1 X-46.831 Y-3.169 F900.000 E2.67253
G1 X-46.831 Y-21.831 E3.02035
G1 X-28.169 Y-21.831 E3.36817
G1 X-28.169 Y-3.238 E3.71470
G1 X-27.731 Y-2.731 F7800.000
G1 X-47.269 Y-2.731 F900.000 E4.07883
G1 X-47.269 Y-22.269 E4.44297
G1 X-27.731 Y-22.269 E4.80710
G1 X-27.731 Y-2.800 E5.16994
G1 F1800.000 E4.16994
G92 E0
G1 X-28.607 Y-28.607 F7800.000
G1 F1800.000 E1.00000
G1 X-46.393 Y-28.607 F900.000 E1.33150
G1 X-46.393 Y-46.393 E1.66300
G1 X-28.607 Y-46.393 E1.99451
G1 X-28.607 Y-28.676 E2.32472
G1 X-28.169 Y-28.169 F7800.000
G1 X-46.831 Y-28.169 F900.000 E2.67253
G1 X-46.831 Y-46.831 E3.02035
G1 X-28.169 Y-46.831 E3.36817
G1 X-28.169 Y-28.238 E3.71470
G1 X-27.731 Y-27.731 F7800.000
G1 X-47.269 Y-27.731 F900.000 E4.07883
G1 X-47.269 Y-47.269 E4.44297
G1 X-27.731 Y-47.269 E4.80710
G1 X-27.731 Y-27.800 E5.16994
G1 F1800.000 E4.16994
G92 E0
G1 X-21.393 Y-28.607 F7800.000
G1 F1800.000 E1.00000
G1 X-21.393 Y-46.393 F900.000 E1.33150
G1 X-3.607 Y-46.393 E1.66300
G1 X-3.607 Y-28.607 E1.99451
G1 X-21.324 Y-28.607 E2.32472
G1 X-21.831 Y-28.169 F7800.000
G1 X-21.831 Y-46.831 F900.000 E2.67253
G1 X-3.169 Y-46.831 E3.02035
G1 X-3.169 Y-28.169 E3.36817
G1 X-21.762 Y-28.169 E3.71470
G1 X-22.269 Y-27.731 F7800.000
G1 X-22.269 Y-47.269 F900.000 E4.07883
G1 X-2.731 Y-47.269 E4.44297
G1 X-2.731 Y-27.731 E4.80710
G1 X-22.200 Y-27.731 E5.16994
G1 F1800.000 E4.16994
G92 E0
G1 X3.607 Y-28.607 F7800.000
G1 F1800.000 E1.00000
G1 X3.607 Y-46.393 F900.000 E1.33150
G1 X21.393 Y-46.393 E1.66300
G1 X21.393 Y-28.607 E1.99451
G1 X3.676 Y-28.607 E2.32472
G1 X3.169 Y-28.169 F7800.000
G1 X3.169 Y-46.831 F900.000 E2.67253
G1 X21.831 Y-46.831 E3.02035
G1 X21.831 Y-28.169 E3.36817
G1 X3.238 Y-28.169 E3.71470
G1 X2.731 Y-27.731 F7800.000
G1 X2.731 Y-47.269 F900.000 E4.07883
G1 X22.269 Y-47.269 E4.44297
G1 X22.269 Y-27.731 E4.80710
G1 X2.800 Y-27.731 E5.16994
G1 F1800.000 E4.16994
G92 E0
G1 X28.607 Y-28.607 F7800.000
G1 F1800.000 E1.00000
G1 X28.607 Y-46.393 F900.000 E1.33150
G1 X46.393 Y-46.393 E1.66300
G1 X46.393 Y-28.607 E1.99451
G1 X28.676 Y-28.607 E2.32472
G1 X28.169 Y-28.169 F7800.000
G1 X28.169 Y-46.831 F900.000 E2.67253
G1 X46.831 Y-46.831 E3.02035
G1 X46.831 Y-28.169 E3.36817
G1 X28.238 Y-28.169 E3.71470
G1 X27.731 Y-27.731 F7800.000
G1 X27.731 Y-47.269 F900.000 E4.07883
G1 X47.269 Y-47.269 E4.44297
G1 X47.269 Y-27.731 E4.80710
G1 X27.800 Y-27.731 E5.16994
G1 F1800.000 E4.16994
G92 E0
G1 X-29.316 Y28.914 F7800.000
G1 F1800.000 E1.00000
G1 X-28.914 Y29.316 F1800.000 E1.01067
G1 X-28.914 Y29.937 E1.02231
G1 X-29.937 Y28.914 E1.04943
G1 X-30.559 Y28.914 E1.06107
G1 X-28.914 Y30.559 E1.10465
G1 X-28.914 Y31.180 E1.11629
G1 X-31.180 Y28.914 E1.17632
G1 X-31.801 Y28.914 E1.18796
G1 X-28.914 Y31.801 E1.26445
G1 X-28.914 Y32.422 E1.27608
G1 X-32.422 Y28.914 E1.36903
G1 X-33.043 Y28.914 E1.38066
G1 X-28.914 Y33.043 E1.49006
G1 X-28.914 Y33.664 E1.50170
G1 X-33.664 Y28.914 E1.62755
G1 X-34.285 Y28.914 E1.63919
G1 X-28.914 Y34.285 E1.78149
G1 X-28.914 Y34.906 E1.79313
G1 X-34.906 Y28.914 E1.95189
G1 X-35.528 Y28.914 E1.96353
G1 X-28.914 Y35.528 E2.13875
G1 X-28.914 Y36.149 E2.15038
G1 X-36.149 Y28.914 E2.34205
G1 X-36.770 Y28.914 E2.35369
G1 X-28.914 Y36.770 E2.56181
G1 X-28.914 Y37.391 E2.57345
G1 X-37.391 Y28.914 E2.79803
G1 X-38.012 Y28.914 E2.80967
G1 X-28.914 Y38.012 E3.05070
G1 X-28.914 Y38.633 E3.06234
G1 X-38.633 Y28.914 E3.31983
G1 X-39.254 Y28.914 E3.33146
G1 X-28.914 Y39.254 E3.60541
G1 X-28.914 Y39.875 E3.61704
G1 X-39.875 Y28.914 E3.90744
G1 X-40.496 Y28.914 E3.91908
G1 X-28.914 Y40.496 E4.22593
G1 X-28.914 Y41.118 E4.23757
G1 X-41.118 Y28.914 E4.56088
G1 X-41.739 Y28.914 E4.57251
G1 X-28.914 Y41.739 E4.91227
G1 X-28.914 Y42.360 E4.92391
G1 X-42.360 Y28.914 E5.28013
G1 X-42.981 Y28.914 E5.29176
G1 X-28.914 Y42.981 E5.66444
G1 X-28.914 Y43.602 E5.67607
G1 X-43.602 Y28.914 E6.06520
G1 X-44.223 Y28.914 E6.07683
G1 X-28.914 Y44.223 E6.48241
G1 X-28.914 Y44.844 E6.49405
G1 X-44.844 Y28.914 E6.91609
G1 X-45.465 Y28.914 E6.92772
G1 X-28.914 Y45.465 E7.36621
G1 X-28.914 Y46.086 E7.37785
G1 X-46.086 Y28.914 E7.83279
G1 X-46.086 Y29.535 E7.84443
G1 X-29.535 Y46.086 E8.28292
G1 X-30.156 Y46.086 E8.29455
G1 X-46.086 Y30.156 E8.71659
G1 X-46.086 Y30.777 E8.72822
G1 X-30.777 Y46.086 E9.13381
G1 X-31.398 Y46.086 E9.14544
G1 X-46.086 Y31.398 E9.53457
G1 X-46.086 Y32.019 E9.54620
G1 X-32.019 Y46.086 E9.91888
G1 X-32.640 Y46.086 E9.93051
G1 X-46.086 Y32.640 E10.28673
G1 X-46.086 Y33.261 E10.29836
G1 X-33.261 Y46.086 E10.63813
G1 X-33.882 Y46.086 E10.64976
G1 X-46.086 Y33.882 E10.97307
G1 X-46.086 Y34.504 E10.98471
G1 X-34.504 Y46.086 E11.29156
G1 X-35.125 Y46.086 E11.30320
G1 X-46.086 Y35.125 E11.59360
G1 X-46.086 Y35.746 E11.60523
G1 X-35.746 Y46.086 E11.87918
G1 X-36.367 Y46.086 E11.89081
G1 X-46.086 Y36.367 E12.14830
G1 X-46.086 Y36.988 E12.15994
G1 X-36.988 Y46.086 E12.40097
G1 X-37.609 Y46.086 E12.41261
G1 X-46.086 Y37.609 E12.63719
G1 X-46.086 Y38.230 E12.64882
G1 X-38.230 Y46.086 E12.85695
G1 X-38.851 Y46.086 E12.86859
G1 X-46.086 Y38.851 E13.06026
G1 X-46.086 Y39.472 E13.07189
G1 X-39.472 Y46.086 E13.24711
G1 X-40.094 Y46.086 E13.25875
G1 X-46.086 Y40.094 E13.41751
G1 X-46.086 Y40.715 E13.42915
G1 X-40.715 Y46.086 E13.57145
G1 X-41.336 Y46.086 E13.58309
G1 X-46.086 Y41.336 E13.70894
G1 X-46.086 Y41.957 E13.72058
G1 X-41.957 Y46.086 E13.82998
G1 X-42.578 Y46.086 E13.84161
G1 X-46.086 Y42.578 E13.93456
G1 X-46.086 Y43.199 E13.94619
G1 X-43.199 Y46.086 E14.02268
G1 X-43.820 Y46.086 E14.03432
G1 X-46.086 Y43.820 E14.09435
G1 X-46.086 Y44.441 E14.10599
G1 X-44.441 Y46.086 E14.14957
G1 X-45.063 Y46.086 E14.16121
G1 X-46.086 Y45.063 E14.18833
G1 X-46.086 Y45.684 E14.19997
G1 X-45.684 Y46.086 E14.21064
G1 F1800.000 E13.21064
G92 E0
G1 X-20.684 Y46.086 F7800.000
G1 F1800.000 E1.00000
G1 X-21.086 Y45.684 F1800.000 E1.01067
G1 X-21.086 Y45.063 E1.02231
G1 X-20.063 Y46.086 E1.04943
G1 X-19.441 Y46.086 E1.06107
G1 X-21.086 Y44.441 E1.10465
G1 X-21.086 Y43.820 E1.11629
G1 X-18.820 Y46.086 E1.17632
G1 X-18.199 Y46.086 E1.18796
G1 X-21.086 Y43.199 E1.26445
G1 X-21.086 Y42.578 E1.27608
G1 X-17.578 Y46.086 E1.36903
G1 X-16.957 Y46.086 E1.38066
G1 X-21.086 Y41.957 E1.49006
G1 X-21.086 Y41.336 E1.50170
G1 X-16.336 Y46.086 E1.62755
G1 X-15.715 Y46.086 E1.63919
G1 X-21.086 Y40.715 E1.78149
G1 X-21.086 Y40.094 E1.79313
G1 X-15.094 Y46.086 E1.95189
G1 X-14.472 Y46.086 E1.96353
G1 X-21.086 Y39.472 E2.13875
G1 X-21.086 Y38.851 E2.15038
G1 X-13.851 Y46.086 E2.34205
G1 X-13.230 Y46.086 E2.35369
G1 X-21.086 Y38.230 E2.56182
G1 X-21.086 Y37.609 E2.57345
G1 X-12.609 Y46.086 E2.79803
G1 X-11.988 Y46.086 E2.80967
G1 X-21.086 Y36.988 E3.05070
G1 X-21.086 Y36.367 E3.06234
