; generated by Slic3r 0.7.0 on 2012-03-02 at 11:41:32

; layer_height = .28
; perimeters = 3
; solid_layers = 3
; fill_density = .25
; nozzle_diameter = 0.4
; filament_diameter = 2.93
; extrusion_multiplier = 1
; perimeter_speed = 30
; infill_speed = 60
; travel_speed = 130
; extrusion_width_ratio = 0
; scale = 1
; single wall width = 0.46mm

M104 S220 ; set temperature
;
; Thing-O-Matic w/sjfw 1.11
; start.gcode
;
G21 ; set units to mm
G90 ; absoulte distances
; Dry run?
; P0 = normal P1 = no heat
M351 P0 
; Begin heating
M104 S220 ; extruder head
M140 S110 ; HBP
;
; Coarse home axes
; Set zero at limits for convenience
;
G1 Z999 F1500 ; home Z to get nozzle out of danger zone
G92 Z0
G1 Y-999 F4000 ; retract Y to get X out of front opening
G92 Y0
G1 X-999 F4000 ; now safe to home X
G92 X0
;
; Set actual offsets!
; Back off switches.
;
G1 X2 Y2 Z-2 F5000 
G1 Z999 F50
G92 Z121.3
G1 Y-999 F50
G92 Y-58.5
G1 X-999 F50
G92 X-58.5
;
; Extrude a turd then retract.
;
G1 X-50 Y55 Z.5 F10000
M116 ; wait for heat
G91 ; relative distances
G1 F4 ; set slow rate
G1 E3 ; extrude enough to get good pressure
G1 F4000 ; set for fast retract
G1 E-1 ; retract
;
; End of start.gcode
;
M109 S220 ; wait for temperature to be reached
G90 ; use absolute coordinates
G21 ; set units to millimeters
G92 E0 ; reset extrusion distance
M82 ; use absolute distances for extrusion
G1 Z2.800 F7800.000
G1 X-25.010 Y-4.020
G1 F1800.000 E1.00000
G1 X-16.640 Y-12.370 F900.000 E1.22035
G1 X-16.000 Y-12.830 E1.23504
G1 X-15.780 Y-12.970 E1.23990
G1 X-15.320 Y-13.210 E1.24957
G1 X-14.830 Y-13.410 E1.25943
G1 X-14.330 Y-13.570 E1.26921
G1 X-13.820 Y-13.680 E1.27894
G1 X-13.300 Y-13.750 E1.28872
G1 X-12.780 Y-13.770 E1.29841
G1 X13.280 Y-13.750 E1.78410
G1 X13.800 Y-13.680 E1.79388
G1 X14.310 Y-13.570 E1.80361
G1 X14.810 Y-13.410 E1.81339
G1 X15.300 Y-13.210 E1.82326
G1 X15.760 Y-12.970 E1.83293
G1 X16.410 Y-12.530 E1.84755
G1 X16.620 Y-12.370 E1.85247
G1 X25.360 Y-3.630 E2.08284
G1 X25.820 Y-2.990 E2.09753
G1 X25.960 Y-2.770 E2.10239
G1 X26.200 Y-2.310 E2.11206
G1 X26.400 Y-1.820 E2.12192
G1 X26.560 Y-1.320 E2.13170
G1 X26.670 Y-0.810 E2.14143
G1 X26.740 Y-0.290 E2.15121
G1 X26.740 Y8.270 E2.31074
G1 X26.630 Y9.020 E2.32487
G1 X26.500 Y9.520 E2.33450
G1 X26.330 Y10.000 E2.34399
G1 X26.120 Y10.460 E2.35341
G1 X26.000 Y10.690 E2.35825
G1 X25.870 Y10.910 E2.36301
G1 X25.430 Y11.530 E2.37718
G1 X25.090 Y11.910 E2.38668
G1 X24.910 Y12.090 E2.39143
G1 X24.530 Y12.430 E2.40093
G1 X23.910 Y12.870 E2.41510
G1 X23.690 Y13.000 E2.41986
G1 X23.230 Y13.230 E2.42945
G1 X22.760 Y13.420 E2.43890
G1 X22.270 Y13.570 E2.44845
G1 X22.020 Y13.630 E2.45324
G1 X21.270 Y13.740 E2.46737
G1 X20.760 Y13.760 E2.47688
G1 X-21.280 Y13.740 E3.26039
G1 X-22.030 Y13.630 E3.27452
G1 X-22.530 Y13.500 E3.28415
G1 X-23.010 Y13.330 E3.29364
G1 X-23.470 Y13.120 E3.30306
G1 X-23.700 Y13.000 E3.30790
G1 X-23.920 Y12.870 E3.31266
G1 X-24.540 Y12.430 E3.32683
G1 X-24.920 Y12.090 E3.33633
G1 X-25.100 Y11.910 E3.34108
G1 X-25.440 Y11.530 E3.35058
G1 X-25.880 Y10.910 E3.36475
G1 X-26.010 Y10.690 E3.36951
G1 X-26.240 Y10.230 E3.37910
G1 X-26.430 Y9.760 E3.38855
G1 X-26.580 Y9.270 E3.39810
G1 X-26.640 Y9.020 E3.40289
G1 X-26.750 Y8.270 E3.41702
G1 X-26.750 Y-0.300 E3.57674
G1 X-26.680 Y-0.820 E3.58652
G1 X-26.570 Y-1.330 E3.59624
G1 X-26.410 Y-1.830 E3.60603
G1 X-26.210 Y-2.320 E3.61589
G1 X-25.970 Y-2.780 E3.62556
G1 X-25.530 Y-3.430 E3.64019
G1 X-25.370 Y-3.640 E3.64511
G1 X-25.058 Y-3.970 E3.65357
G1 F1800.000 E2.65357
G92 E0
G1 X-19.893 Y1.039 F7800.000
G1 F1800.000 E1.00000
G1 X-19.859 Y1.035 F900.000 E1.00065
G1 X-19.294 Y0.946 E1.01132
G1 X-18.735 Y0.821 E1.02198
G1 X-18.186 Y0.661 E1.03264
G1 X-17.647 Y0.468 E1.04330
G1 X-17.122 Y0.240 E1.05397
G1 X-16.613 Y-0.019 E1.06463
G1 X-16.120 Y-0.311 E1.07529
G1 X-15.647 Y-0.632 E1.08596
G1 X-15.195 Y-0.983 E1.09662
G1 X-14.766 Y-1.361 E1.10728
G1 X-14.361 Y-1.766 E1.11794
G1 X-13.983 Y-2.195 E1.12861
G1 X-13.632 Y-2.647 E1.13927
G1 X-13.311 Y-3.120 E1.14993
G1 X-13.019 Y-3.613 E1.16060
G1 X-12.760 Y-4.122 E1.17126
G1 X-12.532 Y-4.647 E1.18192
G1 X-12.339 Y-5.186 E1.19258
G1 X-12.179 Y-5.735 E1.20325
G1 X-12.054 Y-6.294 E1.21391
G1 X-11.965 Y-6.859 E1.22457
G1 X-11.961 Y-6.893 E1.22523
G1 X-6.107 Y-6.893 E1.33435
G1 X-6.107 Y-1.039 E1.44347
G1 X-6.141 Y-1.035 E1.44412
G1 X-6.706 Y-0.946 E1.45478
G1 X-7.265 Y-0.821 E1.46544
G1 X-7.814 Y-0.661 E1.47611
G1 X-8.353 Y-0.468 E1.48677
G1 X-8.878 Y-0.240 E1.49743
G1 X-9.387 Y0.019 E1.50810
G1 X-9.880 Y0.311 E1.51876
G1 X-10.353 Y0.632 E1.52942
G1 X-10.805 Y0.983 E1.54008
G1 X-11.234 Y1.361 E1.55075
G1 X-11.639 Y1.766 E1.56141
G1 X-12.017 Y2.195 E1.57207
G1 X-12.368 Y2.647 E1.58274
G1 X-12.689 Y3.120 E1.59340
G1 X-12.981 Y3.613 E1.60406
G1 X-13.240 Y4.122 E1.61472
G1 X-13.468 Y4.647 E1.62539
G1 X-13.661 Y5.186 E1.63605
G1 X-13.821 Y5.735 E1.64671
G1 X-13.946 Y6.294 E1.65738
G1 X-14.035 Y6.859 E1.66804
G1 X-14.039 Y6.893 E1.66869
G1 X-19.893 Y6.893 E1.77781
G1 X-19.893 Y1.108 E1.88564
G1 X-19.913 Y0.601 F7800.000
G1 X-19.376 Y0.516 F900.000 E1.89579
G1 X-18.844 Y0.397 E1.90594
G1 X-18.321 Y0.245 E1.91609
G1 X-17.809 Y0.060 E1.92624
G1 X-17.309 Y-0.156 E1.93639
G1 X-16.824 Y-0.403 E1.94654
G1 X-16.355 Y-0.680 E1.95669
G1 X-15.904 Y-0.987 E1.96684
G1 X-15.474 Y-1.320 E1.97699
G1 X-15.066 Y-1.680 E1.98714
G1 X-14.680 Y-2.066 E1.99729
G1 X-14.320 Y-2.474 E2.00744
G1 X-13.987 Y-2.904 E2.01759
G1 X-13.680 Y-3.355 E2.02774
G1 X-13.403 Y-3.824 E2.03789
G1 X-13.156 Y-4.309 E2.04804
G1 X-12.940 Y-4.809 E2.05819
G1 X-12.755 Y-5.321 E2.06834
G1 X-12.603 Y-5.844 E2.07849
G1 X-12.484 Y-6.376 E2.08864
G1 X-12.399 Y-6.913 E2.09879
G1 X-12.360 Y-7.331 E2.10661
G1 X-5.669 Y-7.331 E2.23131
G1 X-5.669 Y-0.640 E2.35601
G1 X-6.087 Y-0.601 E2.36383
G1 X-6.624 Y-0.516 E2.37398
G1 X-7.156 Y-0.397 E2.38413
G1 X-7.679 Y-0.245 E2.39428
G1 X-8.191 Y-0.060 E2.40443
G1 X-8.691 Y0.156 E2.41458
G1 X-9.176 Y0.403 E2.42473
G1 X-9.645 Y0.680 E2.43488
G1 X-10.096 Y0.987 E2.44503
G1 X-10.526 Y1.320 E2.45518
G1 X-10.934 Y1.680 E2.46533
G1 X-11.320 Y2.066 E2.47548
G1 X-11.680 Y2.474 E2.48563
G1 X-12.013 Y2.904 E2.49578
G1 X-12.320 Y3.355 E2.50593
G1 X-12.597 Y3.824 E2.51608
G1 X-12.844 Y4.309 E2.52623
G1 X-13.060 Y4.809 E2.53638
G1 X-13.245 Y5.321 E2.54654
G1 X-13.397 Y5.844 E2.55669
G1 X-13.516 Y6.376 E2.56684
G1 X-13.601 Y6.913 E2.57699
G1 X-13.640 Y7.331 E2.58481
G1 X-20.331 Y7.331 E2.70951
G1 X-20.331 Y0.640 E2.83421
G1 X-19.982 Y0.607 E2.84074
G1 X-19.968 Y0.166 F7800.000
G1 X-19.458 Y0.085 F900.000 E2.85037
G1 X-18.953 Y-0.027 E2.86001
G1 X-18.456 Y-0.172 E2.86965
G1 X-17.970 Y-0.347 E2.87929
G1 X-17.495 Y-0.552 E2.88892
G1 X-17.035 Y-0.787 E2.89856
G1 X-16.590 Y-1.050 E2.90820
G1 X-16.162 Y-1.341 E2.91784
G1 X-15.753 Y-1.658 E2.92747
G1 X-15.365 Y-2.000 E2.93711
G1 X-15.000 Y-2.365 E2.94675
G1 X-14.658 Y-2.753 E2.95638
G1 X-14.341 Y-3.162 E2.96602
G1 X-14.050 Y-3.590 E2.97566
G1 X-13.787 Y-4.035 E2.98530
G1 X-13.552 Y-4.495 E2.99493
G1 X-13.347 Y-4.970 E3.00457
G1 X-13.172 Y-5.456 E3.01421
G1 X-13.027 Y-5.953 E3.02385
G1 X-12.915 Y-6.458 E3.03348
G1 X-12.834 Y-6.968 E3.04312
G1 X-12.785 Y-7.483 E3.05276
G1 X-12.776 Y-7.769 E3.05809
G1 X-5.231 Y-7.769 E3.19871
G1 X-5.231 Y-0.224 E3.33932
G1 X-5.517 Y-0.215 E3.34465
G1 X-6.032 Y-0.166 E3.35429
G1 X-6.542 Y-0.085 E3.36393
G1 X-7.047 Y0.027 E3.37357
G1 X-7.544 Y0.172 E3.38320
G1 X-8.030 Y0.347 E3.39284
G1 X-8.505 Y0.552 E3.40248
G1 X-8.965 Y0.787 E3.41211
G1 X-9.410 Y1.050 E3.42175
G1 X-9.838 Y1.341 E3.43139
G1 X-10.247 Y1.658 E3.44103
G1 X-10.635 Y2.000 E3.45066
G1 X-11.000 Y2.365 E3.46030
G1 X-11.342 Y2.753 E3.46994
G1 X-11.659 Y3.162 E3.47958
G1 X-11.950 Y3.590 E3.48921
G1 X-12.213 Y4.035 E3.49885
G1 X-12.448 Y4.495 E3.50849
G1 X-12.653 Y4.970 E3.51812
G1 X-12.828 Y5.456 E3.52776
G1 X-12.973 Y5.953 E3.53740
G1 X-13.085 Y6.458 E3.54704
G1 X-13.166 Y6.968 E3.55667
G1 X-13.215 Y7.483 E3.56631
G1 X-13.224 Y7.769 E3.57164
G1 X-20.769 Y7.769 E3.71226
G1 X-20.769 Y0.224 E3.85288
G1 X-20.483 Y0.215 E3.85821
G1 X-20.037 Y0.173 E3.86655
G1 F1800.000 E2.86655
G92 E0
G1 X6.107 Y-1.200 F7800.000
G1 F1800.000 E1.00000
G1 X6.107 Y-6.893 F900.000 E1.10611
G1 X11.800 Y-6.893 E1.21223
G1 X11.771 Y-6.708 E1.21572
G1 X11.676 Y-6.286 E1.22379
G1 X11.556 Y-5.870 E1.23186
G1 X11.409 Y-5.463 E1.23993
G1 X11.237 Y-5.065 E1.24800
G1 X11.040 Y-4.679 E1.25607
G1 X10.820 Y-4.307 E1.26414
G1 X10.576 Y-3.948 E1.27221
G1 X10.311 Y-3.606 E1.28028
G1 X10.025 Y-3.281 E1.28835
G1 X9.719 Y-2.975 E1.29642
G1 X9.394 Y-2.689 E1.30449
G1 X9.052 Y-2.424 E1.31257
G1 X8.693 Y-2.180 E1.32064
G1 X8.321 Y-1.960 E1.32871
G1 X7.935 Y-1.763 E1.33678
G1 X7.537 Y-1.591 E1.34485
G1 X7.130 Y-1.444 E1.35292
G1 X6.714 Y-1.324 E1.36099
G1 X6.292 Y-1.229 E1.36906
G1 X6.175 Y-1.211 E1.37126
G1 X6.374 Y-0.799 F7800.000
G1 X5.919 Y-0.727 F900.000 E1.37984
G1 X5.669 Y-0.703 E1.38452
G1 X5.669 Y-7.331 E1.50805
G1 X12.297 Y-7.331 E1.63158
G1 X12.273 Y-7.081 E1.63626
G1 X12.201 Y-6.626 E1.64484
G1 X12.101 Y-6.177 E1.65342
G1 X11.972 Y-5.735 E1.66200
G1 X11.816 Y-5.301 E1.67059
G1 X11.633 Y-4.879 E1.67917
G1 X11.424 Y-4.468 E1.68775
G1 X11.190 Y-4.072 E1.69634
G1 X10.931 Y-3.691 E1.70492
G1 X10.649 Y-3.327 E1.71350
G1 X10.344 Y-2.982 E1.72209
G1 X10.018 Y-2.656 E1.73067
G1 X9.673 Y-2.351 E1.73925
G1 X9.309 Y-2.069 E1.74784
G1 X8.928 Y-1.810 E1.75642
G1 X8.532 Y-1.576 E1.76500
G1 X8.121 Y-1.367 E1.77359
G1 X7.699 Y-1.184 E1.78217
G1 X7.265 Y-1.028 E1.79075
G1 X6.823 Y-0.899 E1.79934
G1 X6.441 Y-0.814 E1.80663
G1 X6.456 Y-0.369 F7800.000
G1 X5.974 Y-0.292 F900.000 E1.81572
G1 X5.488 Y-0.247 E1.82482
G1 X5.231 Y-0.238 E1.82961
G1 X5.231 Y-7.769 E1.96995
G1 X12.762 Y-7.769 E2.11030
G1 X12.753 Y-7.512 E2.11509
G1 X12.708 Y-7.026 E2.12419
G1 X12.631 Y-6.544 E2.13328
G1 X12.525 Y-6.068 E2.14238
G1 X12.389 Y-5.599 E2.15147
G1 X12.223 Y-5.140 E2.16057
G1 X12.029 Y-4.692 E2.16967
G1 X11.808 Y-4.257 E2.17876
G1 X11.559 Y-3.837 E2.18786
G1 X11.285 Y-3.434 E2.19695
G1 X10.986 Y-3.048 E2.20605
G1 X10.663 Y-2.682 E2.21515
G1 X10.318 Y-2.337 E2.22424
G1 X9.952 Y-2.014 E2.23334
G1 X9.566 Y-1.715 E2.24243
G1 X9.163 Y-1.441 E2.25153
G1 X8.743 Y-1.192 E2.26063
G1 X8.308 Y-0.971 E2.26972
G1 X7.860 Y-0.777 E2.27882
G1 X7.401 Y-0.611 E2.28791
G1 X6.932 Y-0.475 E2.29701
G1 X6.523 Y-0.384 E2.30481
G1 F1800.000 E1.30481
G92 E0
G1 X14.960 Y4.679 F7800.000
G1 F1800.000 E1.00000
G1 X15.180 Y4.307 F900.000 E1.00807
G1 X15.424 Y3.948 E1.01614
G1 X15.689 Y3.606 E1.02421
G1 X15.975 Y3.281 E1.03228
G1 X16.281 Y2.975 E1.04035
G1 X16.606 Y2.689 E1.04842
G1 X16.948 Y2.424 E1.05649
G1 X17.307 Y2.180 E1.06456
G1 X17.679 Y1.960 E1.07263
G1 X18.065 Y1.763 E1.08070
G1 X18.463 Y1.591 E1.08877
G1 X18.870 Y1.444 E1.09685
G1 X19.286 Y1.324 E1.10492
G1 X19.708 Y1.229 E1.11299
G1 X19.893 Y1.200 E1.11648
G1 X19.893 Y6.893 E1.22259
G1 X14.200 Y6.893 E1.32871
G1 X14.229 Y6.708 E1.33220
G1 X14.324 Y6.286 E1.34027
G1 X14.444 Y5.870 E1.34834
G1 X14.591 Y5.463 E1.35641
G1 X14.763 Y5.065 E1.36448
G1 X14.928 Y4.741 E1.37126
G1 X14.576 Y4.468 F7800.000
G1 X14.810 Y4.072 F900.000 E1.37984
G1 X15.069 Y3.691 E1.38842
G1 X15.351 Y3.327 E1.39701
G1 X15.656 Y2.982 E1.40559
G1 X15.982 Y2.656 E1.41417
G1 X16.327 Y2.351 E1.42276
G1 X16.691 Y2.069 E1.43134
G1 X17.072 Y1.810 E1.43992
G1 X17.468 Y1.576 E1.44851
G1 X17.879 Y1.367 E1.45709
G1 X18.301 Y1.184 E1.46567
G1 X18.735 Y1.028 E1.47426
G1 X19.177 Y0.899 E1.48284
G1 X19.626 Y0.799 E1.49142
G1 X20.081 Y0.727 E1.50001
G1 X20.331 Y0.703 E1.50469
G1 X20.331 Y7.331 E1.62821
G1 X13.703 Y7.331 E1.75174
G1 X13.727 Y7.081 E1.75642
G1 X13.799 Y6.626 E1.76500
G1 X13.899 Y6.177 E1.77359
G1 X14.028 Y5.735 E1.78217
G1 X14.184 Y5.301 E1.79075
G1 X14.367 Y4.879 E1.79934
G1 X14.544 Y4.530 E1.80663
G1 X14.192 Y4.257 F7800.000
G1 X14.441 Y3.837 F900.000 E1.81572
G1 X14.715 Y3.434 E1.82482
G1 X15.014 Y3.048 E1.83391
G1 X15.337 Y2.682 E1.84301
G1 X15.682 Y2.337 E1.85211
G1 X16.048 Y2.014 E1.86120
G1 X16.434 Y1.715 E1.87030
G1 X16.837 Y1.441 E1.87939
G1 X17.257 Y1.192 E1.88849
G1 X17.692 Y0.971 E1.89759
G1 X18.140 Y0.777 E1.90668
G1 X18.599 Y0.611 E1.91578
G1 X19.068 Y0.475 E1.92487
G1 X19.544 Y0.369 E1.93397
G1 X20.026 Y0.292 E1.94307
G1 X20.512 Y0.247 E1.95216
G1 X20.769 Y0.238 E1.95695
G1 X20.769 Y7.769 E2.09730
G1 X13.238 Y7.769 E2.23765
G1 X13.247 Y7.512 E2.24243
G1 X13.292 Y7.026 E2.25153
G1 X13.369 Y6.544 E2.26063
G1 X13.475 Y6.068 E2.26972
G1 X13.611 Y5.599 E2.27882
G1 X13.777 Y5.140 E2.28791
G1 X13.971 Y4.692 E2.29701
G1 X14.161 Y4.319 E2.30481
G1 X15.188 Y4.808 F7800.000
G1 X16.967 Y6.586 F1800.000 E2.35585
G1 X17.622 Y6.586 F7800.000
G1 X15.430 Y4.395 F1800.000 E2.41875
G1 X15.699 Y4.009 F7800.000
G1 X18.277 Y6.586 F1800.000 E2.49273
G1 X18.932 Y6.586 F7800.000
G1 X15.991 Y3.646 F1800.000 E2.57710
G1 X16.307 Y3.307 F7800.000
G1 X19.586 Y6.586 F1800.000 E2.67120
G1 X19.586 Y5.932 F7800.000
G1 X16.646 Y2.991 F1800.000 E2.75557
G1 X17.009 Y2.699 F7800.000
G1 X19.586 Y5.277 F1800.000 E2.82955
G1 X19.586 Y4.622 F7800.000
G1 X17.395 Y2.430 F1800.000 E2.89244
G1 X17.808 Y2.188 F7800.000
G1 X19.586 Y3.967 F1800.000 E2.94348
G1 X19.586 Y3.312 F7800.000
G1 X18.248 Y1.974 F1800.000 E2.98189
G1 X18.717 Y1.787 F7800.000
G1 X19.586 Y2.657 F1800.000 E3.00685
G1 X19.586 Y2.002 F7800.000
G1 X19.215 Y1.631 F1800.000 E3.01750
G1 F1800.000 E2.01750
G92 E0
G1 X14.974 Y5.248 F7800.000
G1 F1800.000 E1.00000
G1 X16.312 Y6.586 F1800.000 E1.03841
G1 X15.657 Y6.586 F7800.000
G1 X14.787 Y5.717 F1800.000 E1.06337
G1 X14.631 Y6.215 F7800.000
G1 X15.002 Y6.586 F1800.000 E1.07402
G1 F1800.000 E0.07402
G92 E0
G1 X8.605 Y-2.430 F7800.000
G1 F1800.000 E1.00000
G1 X6.414 Y-4.622 F1800.000 E1.06290
G1 X6.414 Y-3.967 F7800.000
G1 X8.192 Y-2.188 F1800.000 E1.11394
G1 X7.752 Y-1.974 F7800.000
G1 X6.414 Y-3.312 F1800.000 E1.15234
G1 X6.414 Y-2.657 F7800.000
G1 X7.283 Y-1.787 F1800.000 E1.17731
G1 X6.785 Y-1.631 F7800.000
G1 X6.414 Y-2.002 F1800.000 E1.18795
G1 X8.991 Y-2.699 F7800.000
G1 X6.414 Y-5.277 F1800.000 E1.26193
G1 X6.414 Y-5.932 F7800.000
G1 X9.354 Y-2.991 F1800.000 E1.34630
G1 X9.693 Y-3.307 F7800.000
G1 X6.414 Y-6.586 F1800.000 E1.44040
G1 X7.068 Y-6.586 F7800.000
G1 X10.009 Y-3.646 F1800.000 E1.52477
G1 X10.301 Y-4.009 F7800.000
G1 X7.723 Y-6.586 F1800.000 E1.59875
G1 X8.378 Y-6.586 F7800.000
G1 X10.570 Y-4.395 F1800.000 E1.66164
G1 X10.812 Y-4.808 F7800.000
G1 X9.033 Y-6.586 F1800.000 E1.71268
G1 X9.688 Y-6.586 F7800.000
G1 X11.026 Y-5.248 F1800.000 E1.75109
G1 X11.213 Y-5.717 F7800.000
G1 X10.343 Y-6.586 F1800.000 E1.77605
G1 X10.998 Y-6.586 F7800.000
G1 X11.369 Y-6.215 F1800.000 E1.78670
G1 F1800.000 E0.78670
G92 E0
G1 X-6.414 Y-6.184 F7800.000
G1 F1800.000 E1.00000
G1 X-6.816 Y-6.586 F1800.000 E1.01072
G1 X-7.439 Y-6.586 F7800.000
G1 X-6.414 Y-5.561 F1800.000 E1.03802
G1 X-6.414 Y-4.938 F7800.000
G1 X-8.062 Y-6.586 F1800.000 E1.08189
G1 X-8.685 Y-6.586 F7800.000
G1 X-6.414 Y-4.315 F1800.000 E1.14234
G1 X-6.414 Y-3.692 F7800.000
G1 X-9.308 Y-6.586 F1800.000 E1.21936
G1 X-9.931 Y-6.586 F7800.000
G1 X-6.414 Y-3.069 F1800.000 E1.31297
G1 X-6.414 Y-2.446 F7800.000
G1 X-10.554 Y-6.586 F1800.000 E1.42315
G1 X-11.177 Y-6.586 F7800.000
G1 X-6.414 Y-1.823 F1800.000 E1.54990
G1 X-6.486 Y-1.272 F7800.000
G1 X-11.728 Y-6.514 F1800.000 E1.68939
G1 X-11.832 Y-5.996 F7800.000
G1 X-7.004 Y-1.168 F1800.000 E1.81786
G1 X-7.499 Y-1.040 F7800.000
G1 X-11.960 Y-5.501 F1800.000 E1.93657
G1 X-12.109 Y-5.026 F7800.000
G1 X-7.974 Y-0.891 F1800.000 E2.04660
G1 X-8.429 Y-0.724 F7800.000
G1 X-12.276 Y-4.571 F1800.000 E2.14897
G1 X-12.464 Y-4.136 F7800.000
G1 X-8.864 Y-0.536 F1800.000 E2.24477
G1 X-9.280 Y-0.329 F7800.000
G1 X-12.671 Y-3.720 F1800.000 E2.33500
G1 X-12.893 Y-3.319 F7800.000
G1 X-9.681 Y-0.107 F1800.000 E2.42045
G1 X-10.068 Y0.129 F7800.000
G1 X-13.129 Y-2.932 F1800.000 E2.50190
G1 X-13.381 Y-2.561 F7800.000
G1 X-10.439 Y0.381 F1800.000 E2.58019
G1 X-10.792 Y0.651 F7800.000
G1 X-13.651 Y-2.208 F1800.000 E2.65627
G1 X-13.934 Y-1.868 F7800.000
G1 X-11.132 Y0.934 F1800.000 E2.73082
G1 X-11.460 Y1.229 F7800.000
G1 X-14.229 Y-1.540 F1800.000 E2.80451
G1 X-14.540 Y-1.229 F7800.000
