; generated by Slic3r 0.7.1-dev on 2012-03-09 at 07:45:38

; layer_height = 0.25
; perimeters = 3
; solid_layers = 3
; fill_density = 0.50
; nozzle_diameter = 0.4
; filament_diameter = 2.819
; extrusion_multiplier = 1
; perimeter_speed = 30
; infill_speed = 60
; travel_speed = 130
; extrusion_width_ratio = 0
; scale = 1
; single wall width = 0.53mm

M104 S220 ; set temperature
;
; Thing-O-Matic w/sjfw 1.11
; start.gcode
;
G21 ; set units to mm
G90 ; absoulte distances
; Dry run?
; P0 = normal P1 = no heat
M351 P0 
; Begin heating
M104 S220 ; extruder head
M140 S110 ; HBP
;
; Coarse home axes
; Set zero at limits for convenience
;
G1 Z999 F1500 ; home Z to get nozzle out of danger zone
G92 Z0
G1 Y-999 F4000 ; retract Y to get X out of front opening
G92 Y0
G1 X-999 F4000 ; now safe to home X
G92 X0
;
; Set actual offsets!
; Back off switches.
;
G1 X2 Y2 Z-2 F5000 
G1 Z999 F50
G92 Z121.3
G1 Y-999 F50
G92 Y-58.5
G1 X-999 F50
G92 X-58.5
;
; Extrude a turd then retract.
;
G1 X-50 Y55 Z.5 F10000
M116 ; wait for heat
G91 ; relative distances
G1 F4 ; set slow rate
G1 E3 ; extrude enough to get good pressure
G1 F4000 ; set for fast retract
G1 E-1 ; retract
;
; End of start.gcode
;
M109 S220 ; wait for temperature to be reached
G90 ; use absolute coordinates
G21 ; set units to millimeters
G92 E0 ; reset extrusion distance
M82 ; use absolute distances for extrusion
G1 Z0.250 F7800.000
G1 X-13.270 Y-21.390
G1 F1800.000 E1.00000
G1 X-13.090 Y-21.570 F900.000 E1.00513
G1 X-12.710 Y-21.910 E1.01539
G1 X-12.090 Y-22.350 E1.03070
G1 X-11.870 Y-22.480 E1.03584
G1 X-11.410 Y-22.710 E1.04620
G1 X-10.940 Y-22.900 E1.05641
G1 X-10.450 Y-23.050 E1.06672
G1 X-10.200 Y-23.110 E1.07190
G1 X-9.450 Y-23.220 E1.08716
G1 X-8.940 Y-23.240 E1.09744
G1 X9.440 Y-23.220 E1.46750
G1 X10.190 Y-23.110 E1.48276
G1 X10.690 Y-22.980 E1.49316
G1 X11.170 Y-22.810 E1.50342
G1 X11.630 Y-22.600 E1.51360
G1 X11.860 Y-22.480 E1.51882
G1 X12.080 Y-22.350 E1.52397
G1 X12.700 Y-21.910 E1.53927
G1 X13.080 Y-21.570 E1.54954
G1 X13.260 Y-21.390 E1.55467
G1 X13.600 Y-21.010 E1.56493
G1 X14.040 Y-20.390 E1.58024
G1 X14.170 Y-20.170 E1.58538
G1 X14.400 Y-19.710 E1.59574
G1 X14.590 Y-19.240 E1.60595
G1 X14.740 Y-18.750 E1.61626
G1 X14.800 Y-18.500 E1.62144
G1 X14.910 Y-17.750 E1.63670
G1 X14.910 Y17.740 E2.35126
G1 X14.800 Y18.490 E2.36652
G1 X14.670 Y18.990 E2.37692
G1 X14.500 Y19.470 E2.38717
G1 X14.290 Y19.930 E2.39735
G1 X14.170 Y20.160 E2.40258
G1 X14.040 Y20.380 E2.40772
G1 X13.600 Y21.000 E2.42303
G1 X13.260 Y21.380 E2.43330
G1 X13.080 Y21.560 E2.43842
G1 X12.700 Y21.900 E2.44869
G1 X12.080 Y22.340 E2.46399
G1 X11.860 Y22.470 E2.46914
G1 X11.400 Y22.700 E2.47949
G1 X10.930 Y22.890 E2.48970
G1 X10.440 Y23.040 E2.50002
G1 X10.190 Y23.100 E2.50520
G1 X9.440 Y23.210 E2.52046
G1 X8.930 Y23.230 E2.53073
G1 X-9.450 Y23.210 E2.90080
G1 X-10.200 Y23.100 E2.91606
G1 X-10.700 Y22.970 E2.92646
G1 X-11.180 Y22.800 E2.93671
G1 X-11.640 Y22.590 E2.94689
G1 X-11.870 Y22.470 E2.95212
G1 X-12.090 Y22.340 E2.95726
G1 X-12.710 Y21.900 E2.97257
G1 X-13.090 Y21.560 E2.98284
G1 X-13.270 Y21.380 E2.98796
G1 X-13.610 Y21.000 E2.99823
G1 X-14.050 Y20.380 E3.01353
G1 X-14.180 Y20.160 E3.01868
G1 X-14.410 Y19.700 E3.02903
G1 X-14.600 Y19.230 E3.03924
G1 X-14.750 Y18.740 E3.04956
G1 X-14.810 Y18.490 E3.05474
G1 X-14.920 Y17.740 E3.07000
G1 X-14.920 Y-17.750 E3.78455
G1 X-14.810 Y-18.500 E3.79981
G1 X-14.680 Y-19.000 E3.81022
G1 X-14.510 Y-19.480 E3.82047
G1 X-14.300 Y-19.940 E3.83065
G1 X-14.180 Y-20.170 E3.83587
G1 X-14.050 Y-20.390 E3.84102
G1 X-13.610 Y-21.010 E3.85633
G1 X-13.323 Y-21.331 E3.86499
G1 F1800.000 E2.86499
G92 E0
G1 X2.635 Y7.835 F7800.000
G1 F1800.000 E1.00000
G1 X4.965 Y7.835 F900.000 E1.04693
G1 X4.965 Y9.335 E1.07713
G1 X6.465 Y9.335 E1.10733
G1 X6.465 Y11.635 E1.15365
G1 X4.965 Y11.635 E1.18385
G1 X4.965 Y13.165 E1.21466
G1 X2.635 Y13.165 E1.26158
G1 X2.635 Y11.635 E1.29239
G1 X1.135 Y11.635 E1.32259
G1 X1.135 Y9.335 E1.36891
G1 X2.635 Y9.335 E1.39911
G1 X2.635 Y7.914 E1.42771
G1 X2.155 Y7.355 F7800.000
G1 X5.445 Y7.355 F900.000 E1.49394
G1 X5.445 Y8.855 E1.52414
G1 X6.945 Y8.855 E1.55434
G1 X6.945 Y12.115 E1.61997
G1 X5.445 Y12.115 E1.65017
G1 X5.445 Y13.645 E1.68097
G1 X2.155 Y13.645 E1.74720
G1 X2.155 Y12.115 E1.77801
G1 X0.655 Y12.115 E1.80821
G1 X0.655 Y8.855 E1.87384
G1 X2.155 Y8.855 E1.90404
G1 X2.155 Y7.435 E1.93264
G1 X1.676 Y6.876 F7800.000
G1 X5.924 Y6.876 F900.000 E2.01817
G1 X5.924 Y8.376 E2.04837
G1 X7.424 Y8.376 E2.07857
G1 X7.424 Y12.594 E2.16350
G1 X5.924 Y12.594 E2.19370
G1 X5.924 Y14.124 E2.22451
G1 X1.676 Y14.124 E2.31004
G1 X1.676 Y12.594 E2.34084
G1 X0.176 Y12.594 E2.37105
G1 X0.176 Y8.376 E2.45598
G1 X1.676 Y8.376 E2.48618
G1 X1.676 Y6.955 E2.51477
G1 F1800.000 E1.51477
G92 E0
G1 X-1.535 Y9.335 F7800.000
G1 F1800.000 E1.00000
G1 X-1.535 Y11.635 F900.000 E1.04632
G1 X-3.035 Y11.635 E1.07652
G1 X-3.035 Y13.165 E1.10733
G1 X-5.365 Y13.165 E1.15425
G1 X-5.365 Y11.635 E1.18506
G1 X-6.865 Y11.635 E1.21526
G1 X-6.865 Y9.335 E1.26158
G1 X-5.365 Y9.335 E1.29178
G1 X-5.365 Y7.835 E1.32198
G1 X-3.035 Y7.835 E1.36891
G1 X-3.035 Y9.335 E1.39911
G1 X-1.614 Y9.335 E1.42771
G1 X-1.055 Y8.855 F7800.000
G1 X-1.055 Y12.115 F900.000 E1.49334
G1 X-2.555 Y12.115 E1.52354
G1 X-2.555 Y13.645 E1.55434
G1 X-5.845 Y13.645 E1.62057
G1 X-5.845 Y12.115 E1.65138
G1 X-7.345 Y12.115 E1.68158
G1 X-7.345 Y8.855 E1.74720
G1 X-5.845 Y8.855 E1.77741
G1 X-5.845 Y7.355 E1.80761
G1 X-2.555 Y7.355 E1.87384
G1 X-2.555 Y8.855 E1.90404
G1 X-1.135 Y8.855 E1.93264
G1 X-0.576 Y8.376 F7800.000
G1 X-0.576 Y12.594 F900.000 E2.01756
G1 X-2.076 Y12.594 E2.04777
G1 X-2.076 Y14.124 E2.07857
G1 X-6.324 Y14.124 E2.16410
G1 X-6.324 Y12.594 E2.19491
G1 X-7.824 Y12.594 E2.22511
G1 X-7.824 Y8.376 E2.31004
G1 X-6.324 Y8.376 E2.34024
G1 X-6.324 Y6.876 E2.37044
G1 X-2.076 Y6.876 E2.45598
G1 X-2.076 Y8.376 E2.48618
G1 X-0.655 Y8.376 E2.51477
G1 F1800.000 E1.51477
G92 E0
G1 X-3.035 Y-2.835 F7800.000
G1 F1800.000 E1.00000
G1 X-5.365 Y-2.835 F900.000 E1.04693
G1 X-5.365 Y-4.365 E1.07773
G1 X-6.865 Y-4.365 E1.10793
G1 X-6.865 Y-6.665 E1.15425
G1 X-5.365 Y-6.665 E1.18446
G1 X-5.365 Y-8.165 E1.21466
G1 X-3.035 Y-8.165 E1.26158
G1 X-3.035 Y-6.665 E1.29178
G1 X-1.535 Y-6.665 E1.32199
G1 X-1.535 Y-4.365 E1.36831
G1 X-3.035 Y-4.365 E1.39851
G1 X-3.035 Y-2.914 E1.42771
G1 X-2.555 Y-2.355 F7800.000
G1 X-5.845 Y-2.355 F900.000 E1.49394
G1 X-5.845 Y-3.885 E1.52475
G1 X-7.345 Y-3.885 E1.55495
G1 X-7.345 Y-7.145 E1.62057
G1 X-5.845 Y-7.145 E1.65077
G1 X-5.845 Y-8.645 E1.68097
G1 X-2.555 Y-8.645 E1.74720
G1 X-2.555 Y-7.145 E1.77741
G1 X-1.055 Y-7.145 E1.80761
G1 X-1.055 Y-3.885 E1.87323
G1 X-2.555 Y-3.885 E1.90343
G1 X-2.555 Y-2.435 E1.93264
G1 X-2.076 Y-1.876 F7800.000
G1 X-6.324 Y-1.876 F900.000 E2.01817
G1 X-6.324 Y-3.406 E2.04897
G1 X-7.824 Y-3.406 E2.07917
G1 X-7.824 Y-7.624 E2.16410
G1 X-6.324 Y-7.624 E2.19431
G1 X-6.324 Y-9.124 E2.22451
G1 X-2.076 Y-9.124 E2.31004
G1 X-2.076 Y-7.624 E2.34024
G1 X-0.576 Y-7.624 E2.37044
G1 X-0.576 Y-3.406 E2.45537
G1 X-2.076 Y-3.406 E2.48557
G1 X-2.076 Y-1.955 E2.51477
G1 F1800.000 E1.51477
G92 E0
G1 X-0.424 Y3.724 F7800.000
G1 F1800.000 E1.00000
G1 X7.024 Y3.724 F900.000 E1.14996
G1 X7.024 Y-16.276 E1.55264
G1 X7.976 Y-16.276 E1.57181
G1 X7.976 Y16.276 E2.22720
G1 X-7.976 Y16.276 E2.54838
G1 X-7.976 Y-16.276 E3.20377
G1 X-0.424 Y-16.276 E3.35582
G1 X-0.424 Y3.645 E3.75690
G1 X0.055 Y3.245 F7800.000
G1 X6.545 Y3.245 F900.000 E3.88756
G1 X6.545 Y-16.755 E4.29024
G1 X8.455 Y-16.755 E4.32870
G1 X8.455 Y16.755 E5.00340
G1 X-8.455 Y16.755 E5.34388
G1 X-8.455 Y-16.755 E6.01858
G1 X0.055 Y-16.755 E6.18993
G1 X0.055 Y3.165 E6.59101
G1 X0.535 Y2.765 F7800.000
G1 X6.065 Y2.765 F900.000 E6.70236
G1 X6.065 Y-17.235 E7.10504
G1 X8.935 Y-17.235 E7.16281
G1 X8.935 Y17.235 E7.85682
G1 X-8.935 Y17.235 E8.21660
G1 X-8.935 Y-17.235 E8.91060
G1 X0.535 Y-17.235 E9.10126
G1 X0.535 Y2.686 E9.50234
G1 F1800.000 E8.50234
G92 E0
G1 X0.889 Y12.923 F7800.000
G1 F1800.000 E1.00000
G1 X1.347 Y13.381 F1800.000 E1.01327
G1 X1.347 Y14.067 F7800.000
G1 X0.203 Y12.923 F1800.000 E1.04640
G1 X-0.483 Y12.923 E1.06045
G1 X1.347 Y14.753 E1.11345
G1 X1.047 Y14.453 F7800.000
G1 X2.540 Y15.947 F1800.000 E1.15670
G1 X1.855 Y15.947 E1.17075
G1 X-1.169 Y12.923 E1.25833
G1 X-1.747 Y13.031 E1.27037
G1 X1.169 Y15.947 E1.35482
G1 X0.483 Y15.947 E1.36887
G1 X-1.747 Y13.717 E1.43345
G1 X-1.747 Y14.403 E1.44750
G1 X-0.203 Y15.947 E1.49222
G1 X-0.889 Y15.947 E1.50626
G1 X-2.382 Y14.453 E1.54952
G1 X-3.068 Y14.453 E1.56357
G1 X-1.574 Y15.947 E1.60682
G1 X-2.260 Y15.947 E1.62087
G1 X-3.753 Y14.453 E1.66413
G1 X-4.439 Y14.453 E1.67817
G1 X-2.946 Y15.947 E1.72143
G1 X-3.632 Y15.947 E1.73548
G1 X-5.125 Y14.453 E1.77873
G1 X-5.811 Y14.453 E1.79278
G1 X-4.318 Y15.947 E1.83604
G1 X-5.003 Y15.947 E1.85008
G1 X-6.497 Y14.453 E1.89334
G1 X-6.653 Y14.297 F7800.000
G1 X-7.647 Y13.303 F1800.000 E1.92211
G1 X-7.647 Y13.989 E1.93616
G1 X-5.689 Y15.947 E1.99286
G1 X-6.375 Y15.947 E2.00691
G1 X-7.647 Y14.675 E2.04375
G1 X-7.647 Y15.361 E2.05780
G1 X-7.061 Y15.947 E2.07477
G1 F1800.000 E1.07477
G92 E0
G1 X-6.653 Y13.611 F7800.000
G1 F1800.000 E1.00000
G1 X-7.341 Y12.923 F1800.000 E1.01991
G1 F1800.000 E0.01991
G92 E0
G1 X1.733 Y14.453 F7800.000
G1 F1800.000 E1.00000
G1 X3.226 Y15.947 F1800.000 E1.04326
G1 X3.912 Y15.947 E1.05730
G1 X2.419 Y14.453 E1.10056
G1 X3.104 Y14.453 E1.11461
G1 X4.598 Y15.947 E1.15786
G1 X5.283 Y15.947 E1.17191
G1 X3.790 Y14.453 E1.21517
G1 X4.476 Y14.453 E1.22921
G1 X5.969 Y15.947 E1.27247
G1 X6.655 Y15.947 E1.28652
G1 X5.162 Y14.453 E1.32977
G1 X5.848 Y14.453 E1.34382
G1 X7.341 Y15.947 E1.38707
G1 X7.647 Y15.567 E1.39707
G1 X6.253 Y14.173 E1.43742
G1 X6.253 Y13.488 E1.45147
G1 X7.647 Y14.881 E1.49183
G1 X7.647 Y14.195 E1.50588
G1 X6.375 Y12.923 E1.54272
G1 X7.061 Y12.923 E1.55676
G1 X7.647 Y13.509 E1.57374
G1 F1800.000 E0.57374
G92 E0
G1 X6.868 Y8.047 F7800.000
G1 F1800.000 E1.00000
G1 X6.253 Y7.432 F1800.000 E1.01820
G1 X6.253 Y6.736 F7800.000
G1 X7.564 Y8.047 F1800.000 E1.05701
G1 X7.647 Y7.433 E1.06997
G1 X4.267 Y4.053 E1.17003
G1 X4.963 Y4.053 E1.18460
G1 X7.647 Y6.737 E1.26406
G1 X7.647 Y6.041 E1.27863
G1 X5.659 Y4.053 E1.33748
G1 X6.355 Y4.053 E1.35205
G1 X7.647 Y5.345 E1.39031
G1 X7.647 Y4.650 E1.40488
G1 X7.050 Y4.053 E1.42253
G1 F1800.000 E0.42253
G92 E0
G1 X6.064 Y6.547 F7800.000
G1 F1800.000 E1.00000
G1 X3.571 Y4.053 F1800.000 E1.07382
G1 X2.875 Y4.053 E1.08838
G1 X5.368 Y6.547 E1.16220
G1 X4.672 Y6.547 E1.17677
G1 X2.179 Y4.053 E1.25059
G1 X1.483 Y4.053 E1.26515
G1 X3.976 Y6.547 E1.33897
G1 X3.280 Y6.547 E1.35354
G1 X0.787 Y4.053 E1.42736
G1 X0.091 Y4.053 E1.44192
G1 X2.584 Y6.547 E1.51574
G1 X1.889 Y6.547 E1.53031
G1 X-0.605 Y4.053 E1.60412
G1 X-0.753 Y3.905 F7800.000
G1 X-6.205 Y-1.547 F1800.000 E1.76552
G1 X-6.653 Y-1.299 F7800.000
G1 X-7.647 Y-2.293 F1800.000 E1.79493
G1 X-7.647 Y-2.989 E1.80949
G1 X-6.653 Y-1.995 E1.83890
G1 X-6.901 Y-1.547 F7800.000
G1 X1.347 Y6.701 F1800.000 E2.08307
G1 X1.347 Y7.397 E2.09764
G1 X-7.647 Y-1.597 E2.36389
G1 X-7.647 Y-0.901 E2.37846
G1 X1.301 Y8.047 E2.64336
G1 X0.605 Y8.047 E2.65793
G1 X-7.647 Y-0.205 E2.90222
G1 X-7.647 Y0.491 E2.91679
G1 X-1.591 Y6.547 E3.09606
G1 X-1.747 Y7.087 E3.10784
G1 X-0.787 Y8.047 E3.13624
G1 X-0.091 Y8.047 F7800.000
G1 X-1.747 Y6.391 F1800.000 E3.18526
G1 X-2.287 Y6.547 E3.19703
G1 X-7.647 Y1.187 E3.35570
G1 X-7.647 Y1.883 E3.37027
G1 X-2.983 Y6.547 E3.50834
G1 X-3.679 Y6.547 E3.52291
G1 X-7.647 Y2.579 E3.64038
G1 X-7.647 Y3.275 E3.65495
G1 X-4.375 Y6.547 E3.75181
G1 X-5.071 Y6.547 E3.76638
G1 X-7.647 Y3.971 E3.84264
G1 X-7.647 Y4.667 E3.85721
G1 X-5.767 Y6.547 E3.91286
G1 X-6.463 Y6.547 E3.92743
G1 X-7.647 Y5.363 E3.96248
G1 X-7.647 Y6.059 E3.97705
G1 X-6.653 Y7.052 E4.00646
G1 X-6.653 Y7.748 E4.02103
G1 X-7.647 Y6.755 E4.05044
G1 X-7.647 Y7.450 E4.06500
G1 X-7.050 Y8.047 E4.08265
G1 F1800.000 E3.08265
G92 E0
G1 X-0.753 Y3.209 F7800.000
G1 F1800.000 E1.00000
G1 X-5.509 Y-1.547 F1800.000 E1.14079
G1 X-4.813 Y-1.547 E1.15536
G1 X-0.753 Y2.513 E1.27555
G1 X-0.753 Y1.817 E1.29011
G1 X-4.117 Y-1.547 E1.38970
G1 X-3.421 Y-1.547 E1.40427
G1 X-0.753 Y1.121 E1.48325
G1 X-0.753 Y0.425 E1.49781
G1 X-2.725 Y-1.547 E1.55619
G1 X-2.029 Y-1.547 E1.57076
G1 X-0.753 Y-0.271 E1.60853
G1 X-0.753 Y-0.967 E1.62310
G1 X-1.747 Y-1.960 E1.65251
G1 X-1.747 Y-2.656 E1.66708
G1 X-0.753 Y-1.663 E1.69648
G1 X-0.753 Y-2.359 E1.71105
G1 X-1.471 Y-3.077 E1.73231
G1 F1800.000 E0.73231
G92 E0
G1 X-6.653 Y-2.691 F7800.000
G1 F1800.000 E1.00000
G1 X-7.039 Y-3.077 F1800.000 E1.01141
G1 F1800.000 E0.01141
G92 E0
G1 X-7.061 Y-7.953 F7800.000
G1 F1800.000 E1.00000
G1 X-7.647 Y-8.539 F1800.000 E1.01697
G1 X-7.647 Y-9.225 E1.03102
G1 X-6.653 Y-8.232 E1.05979
G1 X-6.653 Y-8.917 E1.07383
G1 X-7.647 Y-9.911 E1.10260
G1 X-7.647 Y-10.597 E1.11664
G1 X-6.503 Y-9.453 E1.14975
G1 X-5.818 Y-9.453 E1.16380
G1 X-7.647 Y-11.282 E1.21677
G1 X-7.647 Y-11.968 E1.23081
G1 X-5.132 Y-9.453 E1.30365
G1 X-4.446 Y-9.453 E1.31769
G1 X-7.647 Y-12.654 E1.41039
G1 X-7.647 Y-13.339 E1.42443
G1 X-3.761 Y-9.453 E1.53699
G1 X-3.075 Y-9.453 E1.55103
G1 X-7.647 Y-14.025 E1.68345
G1 X-7.647 Y-14.711 E1.69750
G1 X-2.389 Y-9.453 E1.84978
G1 X-1.747 Y-9.497 E1.86296
G1 X-0.753 Y-8.503 E1.89173
G1 X-0.889 Y-7.953 F7800.000
G1 X-1.747 Y-8.811 F1800.000 E1.91657
G1 X-1.703 Y-9.453 E1.92976
G1 X-7.647 Y-15.397 E2.10190
G1 X-7.511 Y-15.947 E2.11350
G1 X-0.753 Y-9.189 E2.30923
G1 X-0.753 Y-9.875 E2.32327
G1 X-6.825 Y-15.947 E2.49914
G1 X-6.139 Y-15.947 E2.51318
G1 X-0.753 Y-10.561 E2.66919
G1 X-0.753 Y-11.246 E2.68323
G1 X-5.454 Y-15.947 E2.81937
G1 X-4.768 Y-15.947 E2.83342
G1 X-0.753 Y-11.932 E2.94969
G1 X-0.753 Y-12.618 E2.96374
G1 X-4.082 Y-15.947 E3.06016
G1 X-3.397 Y-15.947 E3.07420
G1 X-0.753 Y-13.303 E3.15076
G1 X-0.753 Y-13.989 E3.16480
G1 X-2.711 Y-15.947 E3.22150
G1 X-2.025 Y-15.947 E3.23554
G1 X-0.753 Y-14.675 E3.27237
G1 X-0.753 Y-15.361 E3.28642
G1 X-1.339 Y-15.947 E3.30339
G1 F1800.000 E2.30339
G92 E0
G1 Z0.500 F7800.000
G1 X2.635 Y7.835
G1 F1800.000 E1.00000
G1 X4.965 Y7.835 F1800.000 E1.04693
G1 X4.965 Y9.335 E1.07713
G1 X6.465 Y9.335 E1.10733
G1 X6.465 Y11.635 E1.15365
G1 X4.965 Y11.635 E1.18385
G1 X4.965 Y13.165 E1.21466
G1 X2.635 Y13.165 E1.26158
G1 X2.635 Y11.635 E1.29239
G1 X1.135 Y11.635 E1.32259
G1 X1.135 Y9.335 E1.36891
G1 X2.635 Y9.335 E1.39911
G1 X2.635 Y7.914 E1.42771
G1 X2.155 Y7.355 F7800.000
G1 X5.445 Y7.355 F1800.000 E1.49394
G1 X5.445 Y8.855 E1.52414
G1 X6.945 Y8.855 E1.55434
G1 X6.945 Y12.115 E1.61997
G1 X5.445 Y12.115 E1.65017
G1 X5.445 Y13.645 E1.68097
G1 X2.155 Y13.645 E1.74720
G1 X2.155 Y12.115 E1.77801
G1 X0.655 Y12.115 E1.80821
G1 X0.655 Y8.855 E1.87384
G1 X2.155 Y8.855 E1.90404
G1 X2.155 Y7.435 E1.93264
G1 X1.676 Y6.876 F7800.000
G1 X5.924 Y6.876 F1800.000 E2.01817
G1 X5.924 Y8.376 E2.04837
G1 X7.424 Y8.376 E2.07857
G1 X7.424 Y12.594 E2.16350
G1 X5.924 Y12.594 E2.19370
G1 X5.924 Y14.124 E2.22451
G1 X1.676 Y14.124 E2.31004
G1 X1.676 Y12.594 E2.34084
G1 X0.176 Y12.594 E2.37105
G1 X0.176 Y8.376 E2.45598
G1 X1.676 Y8.376 E2.48618
G1 X1.676 Y6.955 E2.51477
G1 F1800.000 E1.51477
G92 E0
G1 X-1.535 Y9.335 F7800.000
G1 F1800.000 E1.00000
G1 X-1.535 Y11.635 F1800.000 E1.04632
G1 X-3.035 Y11.635 E1.07652
G1 X-3.035 Y13.165 E1.10733
G1 X-5.365 Y13.165 E1.15425
G1 X-5.365 Y11.635 E1.18506
G1 X-6.865 Y11.635 E1.21526
G1 X-6.865 Y9.335 E1.26158
G1 X-5.365 Y9.335 E1.29178
G1 X-5.365 Y7.835 E1.32198
G1 X-3.035 Y7.835 E1.36891
G1 X-3.035 Y9.335 E1.39911
G1 X-1.614 Y9.335 E1.42771
G1 X-1.055 Y8.855 F7800.000
G1 X-1.055 Y12.115 F1800.000 E1.49334
G1 X-2.555 Y12.115 E1.52354
G1 X-2.555 Y13.645 E1.55434
G1 X-5.845 Y13.645 E1.62057
G1 X-5.845 Y12.115 E1.65138
G1 X-7.345 Y12.115 E1.68158
G1 X-7.345 Y8.855 E1.74720
G1 X-5.845 Y8.855 E1.77741
G1 X-5.845 Y7.355 E1.80761
G1 X-2.555 Y7.355 E1.87384
G1 X-2.555 Y8.855 E1.90404
G1 X-1.135 Y8.855 E1.93264
G1 X-0.576 Y8.376 F7800.000
G1 X-0.576 Y12.594 F1800.000 E2.01756
G1 X-2.076 Y12.594 E2.04777
G1 X-2.076 Y14.124 E2.07857
G1 X-6.324 Y14.124 E2.16410
G1 X-6.324 Y12.594 E2.19491
G1 X-7.824 Y12.594 E2.22511
G1 X-7.824 Y8.376 E2.31004
