; generated by Slic3r 0.7.1-dev on 2012-03-09 at 11:09:17

; layer_height = 0.25
; perimeters = 3
; solid_layers = 3
; fill_density = 0.50
; nozzle_diameter = 0.4
; filament_diameter = 2.819
; extrusion_multiplier = 1
; perimeter_speed = 30
; infill_speed = 60
; travel_speed = 130
; extrusion_width_ratio = 0
; scale = 1
; single wall width = 0.53mm

M104 S220 ; set temperature
;
; Thing-O-Matic w/sjfw 1.11
; start.gcode
;
G21 ; set units to mm
G90 ; absoulte distances
; Dry run?
; P0 = normal P1 = no heat
M351 P0 
; Begin heating
M104 S220 ; extruder head
M140 S110 ; HBP
;
; Coarse home axes
; Set zero at limits for convenience
;
G1 Z999 F1500 ; home Z to get nozzle out of danger zone
G92 Z0
G1 Y-999 F4000 ; retract Y to get X out of front opening
G92 Y0
G1 X-999 F4000 ; now safe to home X
G92 X0
;
; Set actual offsets!
; Back off switches.
;
G1 X2 Y2 Z-2 F5000 
G1 Z999 F50
G92 Z121.3
G1 Y-999 F50
G92 Y-58.5
G1 X-999 F50
G92 X-58.5
;
; Extrude a turd then retract.
;
G1 X-50 Y55 Z.5 F10000
M116 ; wait for heat
G91 ; relative distances
G1 F4 ; set slow rate
G1 E3 ; extrude enough to get good pressure
G1 F4000 ; set for fast retract
G1 E-1 ; retract
;
; End of start.gcode
;
M109 S220 ; wait for temperature to be reached
G90 ; use absolute coordinates
G21 ; set units to millimeters
G92 E0 ; reset extrusion distance
M82 ; use absolute distances for extrusion
G1 Z0.250 F7800.000
G1 X-13.270 Y-17.390
G1 F1800.000 E1.00000
G1 X-13.090 Y-17.570 F900.000 E1.00513
G1 X-12.710 Y-17.910 E1.01539
G1 X-12.090 Y-18.350 E1.03070
G1 X-11.870 Y-18.480 E1.03584
G1 X-11.410 Y-18.710 E1.04620
G1 X-10.940 Y-18.900 E1.05641
G1 X-10.450 Y-19.050 E1.06672
G1 X-10.200 Y-19.110 E1.07190
G1 X-9.450 Y-19.220 E1.08716
G1 X-8.940 Y-19.240 E1.09744
G1 X9.440 Y-19.220 E1.46750
G1 X10.190 Y-19.110 E1.48276
G1 X10.690 Y-18.980 E1.49316
G1 X11.170 Y-18.810 E1.50342
G1 X11.630 Y-18.600 E1.51360
G1 X11.860 Y-18.480 E1.51882
G1 X12.080 Y-18.350 E1.52397
G1 X12.700 Y-17.910 E1.53927
G1 X13.080 Y-17.570 E1.54954
G1 X13.260 Y-17.390 E1.55467
G1 X13.600 Y-17.010 E1.56493
G1 X14.040 Y-16.390 E1.58024
G1 X14.170 Y-16.170 E1.58538
G1 X14.400 Y-15.710 E1.59574
G1 X14.590 Y-15.240 E1.60595
G1 X14.740 Y-14.750 E1.61626
G1 X14.800 Y-14.500 E1.62144
G1 X14.910 Y-13.750 E1.63670
G1 X14.910 Y13.740 E2.19018
G1 X14.800 Y14.490 E2.20545
G1 X14.670 Y14.990 E2.21585
G1 X14.500 Y15.470 E2.22610
G1 X14.290 Y15.930 E2.23628
G1 X14.170 Y16.160 E2.24151
G1 X14.040 Y16.380 E2.24665
G1 X13.600 Y17.000 E2.26196
G1 X13.260 Y17.380 E2.27222
G1 X13.080 Y17.560 E2.27735
G1 X12.700 Y17.900 E2.28762
G1 X12.080 Y18.340 E2.30292
G1 X11.860 Y18.470 E2.30807
G1 X11.400 Y18.700 E2.31842
G1 X10.930 Y18.890 E2.32863
G1 X10.440 Y19.040 E2.33895
G1 X10.190 Y19.100 E2.34412
G1 X9.440 Y19.210 E2.35939
G1 X8.930 Y19.230 E2.36966
G1 X-9.450 Y19.210 E2.73972
G1 X-10.200 Y19.100 E2.75499
G1 X-10.700 Y18.970 E2.76539
G1 X-11.180 Y18.800 E2.77564
G1 X-11.640 Y18.590 E2.78582
G1 X-11.870 Y18.470 E2.79105
G1 X-12.090 Y18.340 E2.79619
G1 X-12.710 Y17.900 E2.81150
G1 X-13.090 Y17.560 E2.82176
G1 X-13.270 Y17.380 E2.82689
G1 X-13.610 Y17.000 E2.83716
G1 X-14.050 Y16.380 E2.85246
G1 X-14.180 Y16.160 E2.85761
G1 X-14.410 Y15.700 E2.86796
G1 X-14.600 Y15.230 E2.87817
G1 X-14.750 Y14.740 E2.88849
G1 X-14.810 Y14.490 E2.89366
G1 X-14.920 Y13.740 E2.90893
G1 X-14.920 Y-13.750 E3.46241
G1 X-14.810 Y-14.500 E3.47767
G1 X-14.680 Y-15.000 E3.48807
G1 X-14.510 Y-15.480 E3.49832
G1 X-14.300 Y-15.940 E3.50851
G1 X-14.180 Y-16.170 E3.51373
G1 X-14.050 Y-16.390 E3.51887
G1 X-13.610 Y-17.010 E3.53418
G1 X-13.323 Y-17.331 E3.54285
G1 F1800.000 E2.54285
G92 E0
G1 X-5.015 Y5.285 F7800.000
G1 F1800.000 E1.00000
G1 X-2.585 Y5.285 F390.000 E1.04894
G1 X-2.585 Y6.785 E1.07914
G1 X-1.085 Y6.785 E1.10934
G1 X-1.085 Y9.215 E1.15828
G1 X-2.585 Y9.215 E1.18848
G1 X-2.585 Y10.715 E1.21868
G1 X-5.015 Y10.715 E1.26762
G1 X-5.015 Y9.215 E1.29782
G1 X-6.515 Y9.215 E1.32803
G1 X-6.515 Y6.785 E1.37696
G1 X-5.015 Y6.785 E1.40717
G1 X-5.015 Y5.364 E1.43576
G1 X-5.495 Y4.805 F7800.000
G1 X-2.105 Y4.805 F390.000 E1.50401
G1 X-2.105 Y6.305 E1.53421
G1 X-0.605 Y6.305 E1.56441
G1 X-0.605 Y9.695 E1.63265
G1 X-2.105 Y9.695 E1.66285
G1 X-2.105 Y11.195 E1.69305
G1 X-5.495 Y11.195 E1.76130
G1 X-5.495 Y9.695 E1.79150
G1 X-6.995 Y9.695 E1.82170
G1 X-6.995 Y6.305 E1.88994
G1 X-5.495 Y6.305 E1.92014
G1 X-5.495 Y4.885 E1.94874
G1 X-5.974 Y4.326 F7800.000
G1 X-1.626 Y4.326 F390.000 E2.03629
G1 X-1.626 Y5.826 E2.06649
G1 X-0.126 Y5.826 E2.09669
G1 X-0.126 Y10.174 E2.18424
G1 X-1.626 Y10.174 E2.21444
G1 X-1.626 Y11.674 E2.24464
G1 X-5.974 Y11.674 E2.33219
G1 X-5.974 Y10.174 E2.36239
G1 X-7.474 Y10.174 E2.39259
G1 X-7.474 Y5.826 E2.48014
G1 X-5.974 Y5.826 E2.51034
G1 X-5.974 Y4.405 E2.53894
G1 F1800.000 E1.53894
G92 E0
G1 X1.485 Y6.785 F7800.000
G1 F1800.000 E1.00000
G1 X2.985 Y6.785 F390.000 E1.03020
G1 X2.985 Y5.285 E1.06040
G1 X5.415 Y5.285 E1.10934
G1 X5.415 Y6.785 E1.13954
G1 X6.915 Y6.785 E1.16974
G1 X6.915 Y9.215 E1.21868
G1 X5.415 Y9.215 E1.24888
G1 X5.415 Y10.715 E1.27909
G1 X2.985 Y10.715 E1.32803
G1 X2.985 Y9.215 E1.35823
G1 X1.485 Y9.215 E1.38843
G1 X1.485 Y6.864 E1.43576
G1 X1.005 Y6.305 F7800.000
G1 X2.505 Y6.305 F390.000 E1.46597
G1 X2.505 Y4.805 E1.49617
G1 X5.895 Y4.805 E1.56441
G1 X5.895 Y6.305 E1.59461
G1 X7.395 Y6.305 E1.62481
G1 X7.395 Y9.695 E1.69305
G1 X5.895 Y9.695 E1.72326
G1 X5.895 Y11.195 E1.75346
G1 X2.505 Y11.195 E1.82170
G1 X2.505 Y9.695 E1.85190
G1 X1.005 Y9.695 E1.88210
G1 X1.005 Y6.385 E1.94874
G1 X0.526 Y5.826 F7800.000
G1 X2.026 Y5.826 F390.000 E1.97894
G1 X2.026 Y4.326 E2.00914
G1 X6.374 Y4.326 E2.09669
G1 X6.374 Y5.826 E2.12689
G1 X7.874 Y5.826 E2.15709
G1 X7.874 Y10.174 E2.24464
G1 X6.374 Y10.174 E2.27484
G1 X6.374 Y11.674 E2.30504
G1 X2.026 Y11.674 E2.39259
G1 X2.026 Y10.174 E2.42279
G1 X0.526 Y10.174 E2.45299
G1 X0.526 Y5.905 E2.53894
G1 F1800.000 E1.53894
G92 E0
G1 X2.985 Y2.715 F7800.000
G1 F1800.000 E1.00000
G1 X2.985 Y1.215 F390.000 E1.03020
G1 X1.485 Y1.215 E1.06040
G1 X1.485 Y-1.215 E1.10934
G1 X2.985 Y-1.215 E1.13954
G1 X2.985 Y-2.715 E1.16974
G1 X5.415 Y-2.715 E1.21868
G1 X5.415 Y-1.215 E1.24888
G1 X6.915 Y-1.215 E1.27909
G1 X6.915 Y1.215 E1.32803
G1 X5.415 Y1.215 E1.35823
G1 X5.415 Y2.715 E1.38843
G1 X3.064 Y2.715 E1.43576
G1 X2.505 Y3.195 F7800.000
G1 X2.505 Y1.695 F390.000 E1.46597
G1 X1.005 Y1.695 E1.49617
G1 X1.005 Y-1.695 E1.56441
G1 X2.505 Y-1.695 E1.59461
G1 X2.505 Y-3.195 E1.62481
G1 X5.895 Y-3.195 E1.69305
G1 X5.895 Y-1.695 E1.72326
G1 X7.395 Y-1.695 E1.75346
G1 X7.395 Y1.695 E1.82170
G1 X5.895 Y1.695 E1.85190
G1 X5.895 Y3.195 E1.88210
G1 X2.585 Y3.195 E1.94874
G1 X2.026 Y3.674 F7800.000
G1 X2.026 Y2.174 F390.000 E1.97894
G1 X0.526 Y2.174 E2.00914
G1 X0.526 Y-2.174 E2.09669
G1 X2.026 Y-2.174 E2.12689
G1 X2.026 Y-3.674 E2.15709
G1 X6.374 Y-3.674 E2.24464
G1 X6.374 Y-2.174 E2.27484
G1 X7.874 Y-2.174 E2.30504
G1 X7.874 Y2.174 E2.39259
G1 X6.374 Y2.174 E2.42279
G1 X6.374 Y3.674 E2.45299
G1 X2.105 Y3.674 E2.53894
G1 F1800.000 E1.53894
G92 E0
G1 X2.985 Y-5.285 F7800.000
G1 F1800.000 E1.00000
G1 X2.985 Y-6.785 F390.000 E1.03020
G1 X1.485 Y-6.785 E1.06040
G1 X1.485 Y-9.215 E1.10934
G1 X2.985 Y-9.215 E1.13954
G1 X2.985 Y-10.715 E1.16974
G1 X5.415 Y-10.715 E1.21868
G1 X5.415 Y-9.215 E1.24888
G1 X6.915 Y-9.215 E1.27909
G1 X6.915 Y-6.785 E1.32803
G1 X5.415 Y-6.785 E1.35823
G1 X5.415 Y-5.285 E1.38843
G1 X3.064 Y-5.285 E1.43576
G1 X2.505 Y-4.805 F7800.000
G1 X2.505 Y-6.305 F390.000 E1.46597
G1 X1.005 Y-6.305 E1.49617
G1 X1.005 Y-9.695 E1.56441
G1 X2.505 Y-9.695 E1.59461
G1 X2.505 Y-11.195 E1.62481
G1 X5.895 Y-11.195 E1.69305
G1 X5.895 Y-9.695 E1.72326
G1 X7.395 Y-9.695 E1.75346
G1 X7.395 Y-6.305 E1.82170
G1 X5.895 Y-6.305 E1.85190
G1 X5.895 Y-4.805 E1.88210
G1 X2.585 Y-4.805 E1.94874
G1 X2.026 Y-4.326 F7800.000
G1 X2.026 Y-5.826 F390.000 E1.97894
G1 X0.526 Y-5.826 E2.00914
G1 X0.526 Y-10.174 E2.09669
G1 X2.026 Y-10.174 E2.12689
G1 X2.026 Y-11.674 E2.15709
G1 X6.374 Y-11.674 E2.24464
G1 X6.374 Y-10.174 E2.27484
G1 X7.874 Y-10.174 E2.30504
G1 X7.874 Y-5.826 E2.39259
G1 X6.374 Y-5.826 E2.42279
G1 X6.374 Y-4.326 E2.45299
G1 X2.105 Y-4.326 E2.53894
G1 F1800.000 E1.53894
G92 E0
G1 X-0.076 Y-12.276 F7800.000
G1 F1800.000 E1.00000
G1 X7.976 Y-12.276 F900.000 E1.16211
G1 X7.976 Y12.276 E1.65644
G1 X-7.976 Y12.276 E1.97761
G1 X-7.976 Y-12.276 E2.47194
G1 X-7.524 Y-12.276 E2.48103
G1 X-7.524 Y3.724 E2.80318
G1 X-0.076 Y3.724 E2.95314
G1 X-0.076 Y-12.196 E3.27368
G1 X-0.555 Y-12.755 F7800.000
G1 X8.455 Y-12.755 F900.000 E3.45510
G1 X8.455 Y12.755 E3.96873
G1 X-8.455 Y12.755 E4.30921
G1 X-8.455 Y-12.755 E4.82283
G1 X-7.045 Y-12.755 E4.85123
G1 X-7.045 Y3.245 E5.17338
G1 X-0.555 Y3.245 E5.30404
G1 X-0.555 Y-12.676 E5.62458
G1 X-1.035 Y-13.235 F7800.000
G1 X8.935 Y-13.235 F900.000 E5.82530
G1 X8.935 Y13.235 E6.35823
G1 X-8.935 Y13.235 E6.71801
G1 X-8.935 Y-13.235 E7.25095
G1 X-6.565 Y-13.235 E7.29865
G1 X-6.565 Y2.765 E7.62079
G1 X-1.035 Y2.765 E7.73215
G1 X-1.035 Y-13.155 E8.05269
G1 F1800.000 E7.05269
G92 E0
G1 X-6.950 Y10.503 F7800.000
G1 F1800.000 E1.00000
G1 X-6.303 Y11.150 F1800.000 E1.02121
G1 X-6.303 Y11.897 E1.03852
G1 X-7.647 Y10.553 E1.08256
G1 X-7.647 Y11.300 E1.09987
G1 X-7.000 Y11.947 E1.12108
G1 F1800.000 E0.12108
G92 E0
G1 X-0.624 Y11.947 F7800.000
G1 F1800.000 E1.00000
G1 X-1.297 Y11.274 F1800.000 E1.02329
G1 X-1.294 Y10.503 E1.04215
G1 X0.149 Y11.947 E1.09211
G1 X0.922 Y11.947 E1.11102
G1 X-0.522 Y10.503 E1.16098
G1 X0.251 Y10.503 E1.17989
G1 X1.694 Y11.947 E1.22985
G1 X1.697 Y11.176 E1.24870
G1 X1.024 Y10.503 E1.27199
G1 F1800.000 E0.27199
G92 E0
G1 X-0.709 Y5.497 F7800.000
G1 F1800.000 E1.00000
G1 X-1.297 Y4.909 F1800.000 E1.01708
G1 X-1.297 Y4.222 E1.03120
G1 X-0.022 Y5.497 E1.06826
G1 X0.666 Y5.497 E1.08239
G1 X-0.778 Y4.053 E1.12434
G1 X-0.090 Y4.053 E1.13846
G1 X1.353 Y5.497 E1.18041
G1 X1.697 Y5.153 E1.19040
G1 X0.253 Y3.710 E1.23235
G1 X0.253 Y3.022 E1.24648
G1 X1.697 Y4.466 E1.28843
G1 X1.697 Y3.778 E1.30256
G1 X0.422 Y2.503 E1.33961
G1 X1.109 Y2.503 E1.35374
G1 X1.697 Y3.091 E1.37082
G1 F1800.000 E0.37082
G92 E0
G1 X-6.950 Y4.053 F7800.000
G1 F1800.000 E1.00000
G1 X-6.303 Y4.700 F1800.000 E1.02121
G1 X-6.303 Y5.447 E1.03852
G1 X-7.647 Y4.103 E1.08256
G1 X-7.647 Y4.850 E1.09987
G1 X-7.000 Y5.497 E1.12108
G1 F1800.000 E0.12108
G92 E0
G1 X0.926 Y-2.503 F7800.000
G1 F1800.000 E1.00000
G1 X0.253 Y-3.176 F1800.000 E1.02329
G1 X0.253 Y-3.949 E1.04220
G1 X1.697 Y-2.506 E1.09216
G1 X1.697 Y-3.278 E1.11107
G1 X0.253 Y-4.722 E1.16103
G1 X0.253 Y-5.494 E1.17994
G1 X1.697 Y-4.051 E1.22990
G1 X1.697 Y-4.824 E1.24881
G1 X1.024 Y-5.497 E1.27211
G1 F1800.000 E0.27211
G92 E0
G1 X7.057 Y-5.497 F7800.000
G1 F1800.000 E1.00000
G1 X7.647 Y-4.907 F1800.000 E1.01721
G1 X7.647 Y-4.218 E1.03144
G1 X6.703 Y-5.161 E1.05898
G1 X6.703 Y-4.472 E1.07321
G1 X7.647 Y-3.528 E1.10074
G1 X7.647 Y-2.839 E1.11497
G1 X6.703 Y-3.782 E1.14251
G1 X6.703 Y-3.093 E1.15674
G1 X7.293 Y-2.503 E1.17395
G1 F1800.000 E0.17395
G92 E0
G1 X7.057 Y2.503 F7800.000
G1 F1800.000 E1.00000
G1 X7.647 Y3.093 F1800.000 E1.01721
G1 X7.647 Y3.782 E1.03144
G1 X6.703 Y2.839 E1.05898
G1 X6.703 Y3.528 E1.07321
G1 X7.647 Y4.472 E1.10074
G1 X7.647 Y5.161 E1.11497
G1 X6.703 Y4.218 E1.14251
G1 X6.703 Y4.907 E1.15674
G1 X7.293 Y5.497 E1.17395
G1 F1800.000 E0.17395
G92 E0
G1 X7.647 Y11.266 F7800.000
G1 F1800.000 E1.00000
G1 X6.884 Y10.503 F1800.000 E1.03184
G1 X6.703 Y11.184 E1.05266
G1 X7.466 Y11.947 E1.08450
G1 F1800.000 E0.08450
G92 E0
G1 X7.466 Y-10.503 F7800.000
G1 F1800.000 E1.00000
G1 X6.703 Y-11.266 F1800.000 E1.03184
G1 X6.884 Y-11.947 E1.05266
G1 X7.647 Y-11.184 E1.08450
G1 F1800.000 E0.08450
G92 E0
G1 X1.025 Y-11.947 F7800.000
G1 F1800.000 E1.00000
G1 X1.697 Y-11.275 F1800.000 E1.02319
G1 X1.697 Y-10.503 E1.04202
G1 X0.253 Y-11.947 E1.09185
G1 X0.253 Y-11.175 E1.11068
G1 X0.925 Y-10.503 E1.13387
G1 F1800.000 E0.13387
G92 E0
G1 X-8.341 Y-12.652 F7800.000
G1 F1800.000 E1.00000
G1 X-7.868 Y-12.176 F1800.000 E1.01350
G1 X-7.749 Y-11.815 E1.02116
G1 X-7.754 Y2.785 E1.31510
G1 X-7.789 Y3.050 E1.32049
G1 X-8.148 Y3.580 E1.33338
G1 X-8.225 Y4.906 E1.36013
G1 X-8.149 Y5.967 E1.38154
G1 X-7.729 Y6.763 E1.39965
G1 X-7.728 Y9.441 E1.45358
G1 X-8.203 Y10.210 E1.47179
G1 X-8.179 Y12.332 E1.51451
G1 X-8.298 Y12.597 E1.52036
G1 F1800.000 E0.52036
G92 E0
G1 Z0.500 F7800.000
G1 X-5.015 Y10.715
G1 F1800.000 E1.00000
G1 X-5.015 Y9.215 F780.000 E1.03020
G1 X-6.515 Y9.215 E1.06040
G1 X-6.515 Y6.785 E1.10934
G1 X-5.015 Y6.785 E1.13954
G1 X-5.015 Y5.285 E1.16974
G1 X-2.585 Y5.285 E1.21868
G1 X-2.585 Y6.785 E1.24888
G1 X-1.085 Y6.785 E1.27909
G1 X-1.085 Y9.215 E1.32803
G1 X-2.585 Y9.215 E1.35823
G1 X-2.585 Y10.715 E1.38843
G1 X-4.936 Y10.715 E1.43576
G1 X-5.495 Y11.195 F7800.000
G1 X-5.495 Y9.695 F780.000 E1.46597
G1 X-6.995 Y9.695 E1.49617
G1 X-6.995 Y6.305 E1.56441
G1 X-5.495 Y6.305 E1.59461
G1 X-5.495 Y4.805 E1.62481
G1 X-2.105 Y4.805 E1.69305
G1 X-2.105 Y6.305 E1.72326
G1 X-0.605 Y6.305 E1.75346
G1 X-0.605 Y9.695 E1.82170
G1 X-2.105 Y9.695 E1.85190
G1 X-2.105 Y11.195 E1.88210
G1 X-5.415 Y11.195 E1.94874
G1 X-5.974 Y11.674 F7800.000
G1 X-5.974 Y10.174 F780.000 E1.97894
G1 X-7.474 Y10.174 E2.00914
G1 X-7.474 Y5.826 E2.09669
G1 X-5.974 Y5.826 E2.12689
G1 X-5.974 Y4.326 E2.15709
G1 X-1.626 Y4.326 E2.24464
G1 X-1.626 Y5.826 E2.27484
G1 X-0.126 Y5.826 E2.30504
G1 X-0.126 Y10.174 E2.39259
G1 X-1.626 Y10.174 E2.42279
G1 X-1.626 Y11.674 E2.45299
G1 X-5.895 Y11.674 E2.53894
G1 F1800.000 E1.53894
G92 E0
G1 X1.485 Y9.215 F7800.000
G1 F1800.000 E1.00000
G1 X1.485 Y6.785 F780.000 E1.04894
G1 X2.985 Y6.785 E1.07914
G1 X2.985 Y5.285 E1.10934
G1 X5.415 Y5.285 E1.15828
G1 X5.415 Y6.785 E1.18848
G1 X6.915 Y6.785 E1.21868
G1 X6.915 Y9.215 E1.26762
G1 X5.415 Y9.215 E1.29782
G1 X5.415 Y10.715 E1.32803
G1 X2.985 Y10.715 E1.37696
G1 X2.985 Y9.215 E1.40717
G1 X1.564 Y9.215 E1.43576
G1 X1.005 Y9.695 F7800.000
G1 X1.005 Y6.305 F780.000 E1.50401
G1 X2.505 Y6.305 E1.53421
G1 X2.505 Y4.805 E1.56441
G1 X5.895 Y4.805 E1.63265
G1 X5.895 Y6.305 E1.66285
G1 X7.395 Y6.305 E1.69305
G1 X7.395 Y9.695 E1.76130
G1 X5.895 Y9.695 E1.79150
G1 X5.895 Y11.195 E1.82170
G1 X2.505 Y11.195 E1.88994
G1 X2.505 Y9.695 E1.92014
G1 X1.085 Y9.695 E1.94874
G1 X0.526 Y10.174 F7800.000
G1 X0.526 Y5.826 F780.000 E2.03629
G1 X2.026 Y5.826 E2.06649
G1 X2.026 Y4.326 E2.09669
G1 X6.374 Y4.326 E2.18424
G1 X6.374 Y5.826 E2.21444
G1 X7.874 Y5.826 E2.24464
G1 X7.874 Y10.174 E2.33219
G1 X6.374 Y10.174 E2.36239
G1 X6.374 Y11.674 E2.39259
G1 X2.026 Y11.674 E2.48014
G1 X2.026 Y10.174 E2.51034
G1 X0.605 Y10.174 E2.53894
G1 F1800.000 E1.53894
G92 E0
G1 X2.985 Y2.715 F7800.000
G1 F1800.000 E1.00000
G1 X2.985 Y1.215 F780.000 E1.03020
G1 X1.485 Y1.215 E1.06040
G1 X1.485 Y-1.215 E1.10934
G1 X2.985 Y-1.215 E1.13954
G1 X2.985 Y-2.715 E1.16974
G1 X5.415 Y-2.715 E1.21868
G1 X5.415 Y-1.215 E1.24888
G1 X6.915 Y-1.215 E1.27909
G1 X6.915 Y1.215 E1.32803
G1 X5.415 Y1.215 E1.35823
G1 X5.415 Y2.715 E1.38843
G1 X3.064 Y2.715 E1.43576
G1 X2.505 Y3.195 F7800.000
G1 X2.505 Y1.695 F780.000 E1.46597
G1 X1.005 Y1.695 E1.49617
G1 X1.005 Y-1.695 E1.56441
G1 X2.505 Y-1.695 E1.59461
G1 X2.505 Y-3.195 E1.62481
G1 X5.895 Y-3.195 E1.69305
G1 X5.895 Y-1.695 E1.72326
G1 X7.395 Y-1.695 E1.75346
G1 X7.395 Y1.695 E1.82170
G1 X5.895 Y1.695 E1.85190
G1 X5.895 Y3.195 E1.88210
G1 X2.585 Y3.195 E1.94874
G1 X2.026 Y3.674 F7800.000
G1 X2.026 Y2.174 F780.000 E1.97894
G1 X0.526 Y2.174 E2.00914
G1 X0.526 Y-2.174 E2.09669
G1 X2.026 Y-2.174 E2.12689
G1 X2.026 Y-3.674 E2.15709
G1 X6.374 Y-3.674 E2.24464
G1 X6.374 Y-2.174 E2.27484
G1 X7.874 Y-2.174 E2.30504
G1 X7.874 Y2.174 E2.39259
G1 X6.374 Y2.174 E2.42279
G1 X6.374 Y3.674 E2.45299
G1 X2.105 Y3.674 E2.53894
G1 F1800.000 E1.53894
G92 E0
G1 X2.985 Y-5.285 F7800.000
G1 F1800.000 E1.00000
G1 X2.985 Y-6.785 F780.000 E1.03020
G1 X1.485 Y-6.785 E1.06040
G1 X1.485 Y-9.215 E1.10934
G1 X2.985 Y-9.215 E1.13954
G1 X2.985 Y-10.715 E1.16974
G1 X5.415 Y-10.715 E1.21868
G1 X5.415 Y-9.215 E1.24888
G1 X6.915 Y-9.215 E1.27909
G1 X6.915 Y-6.785 E1.32803
G1 X5.415 Y-6.785 E1.35823
G1 X5.415 Y-5.285 E1.38843
G1 X3.064 Y-5.285 E1.43576
