; generated by Slic3r 0.7.1-dev on 2012-03-09 at 13:08:03

; layer_height = 0.25
; perimeters = 3
; solid_layers = 3
; fill_density = 0.50
; nozzle_diameter = 0.4
; filament_diameter = 2.819
; extrusion_multiplier = 1
; perimeter_speed = 30
; infill_speed = 60
; travel_speed = 130
; extrusion_width_ratio = 0
; scale = 1
; single wall width = 0.53mm

M104 S220 ; set temperature
;
; Thing-O-Matic w/sjfw 1.11
; start.gcode
;
G21 ; set units to mm
G90 ; absoulte distances
; Dry run?
; P0 = normal P1 = no heat
M351 P0 
; Begin heating
M104 S220 ; extruder head
M140 S110 ; HBP
;
; Coarse home axes
; Set zero at limits for convenience
;
G1 Z999 F1500 ; home Z to get nozzle out of danger zone
G92 Z0
G1 Y-999 F4000 ; retract Y to get X out of front opening
G92 Y0
G1 X-999 F4000 ; now safe to home X
G92 X0
;
; Set actual offsets!
; Back off switches.
;
G1 X2 Y2 Z-2 F5000 
G1 Z999 F50
G92 Z121.3
G1 Y-999 F50
G92 Y-58.5
G1 X-999 F50
G92 X-58.5
;
; Extrude a turd then retract.
;
G1 X-50 Y55 Z.5 F10000
M116 ; wait for heat
G91 ; relative distances
G1 F4 ; set slow rate
G1 E3 ; extrude enough to get good pressure
G1 F4000 ; set for fast retract
G1 E-1 ; retract
;
; End of start.gcode
;
M109 S220 ; wait for temperature to be reached
G90 ; use absolute coordinates
G21 ; set units to millimeters
G92 E0 ; reset extrusion distance
M82 ; use absolute distances for extrusion
G1 Z0.250 F7800.000
G1 X-9.070 Y-17.640
G1 F1800.000 E1.00000
G1 X-8.890 Y-17.820 F900.000 E1.00513
G1 X-8.510 Y-18.160 E1.01539
G1 X-7.890 Y-18.600 E1.03070
G1 X-7.670 Y-18.730 E1.03584
G1 X-7.210 Y-18.960 E1.04620
G1 X-6.740 Y-19.150 E1.05641
G1 X-6.250 Y-19.300 E1.06672
G1 X-6.000 Y-19.360 E1.07190
G1 X-5.250 Y-19.470 E1.08716
G1 X-4.740 Y-19.490 E1.09744
G1 X5.240 Y-19.470 E1.29838
G1 X5.990 Y-19.360 E1.31364
G1 X6.490 Y-19.230 E1.32404
G1 X6.970 Y-19.060 E1.33429
G1 X7.430 Y-18.850 E1.34447
G1 X7.660 Y-18.730 E1.34970
G1 X7.880 Y-18.600 E1.35484
G1 X8.500 Y-18.160 E1.37015
G1 X8.880 Y-17.820 E1.38041
G1 X9.060 Y-17.640 E1.38554
G1 X9.400 Y-17.260 E1.39581
G1 X9.840 Y-16.640 E1.41111
G1 X9.970 Y-16.420 E1.41626
G1 X10.200 Y-15.960 E1.42661
G1 X10.390 Y-15.490 E1.43682
G1 X10.540 Y-15.000 E1.44714
G1 X10.600 Y-14.750 E1.45231
G1 X10.710 Y-14.000 E1.46758
G1 X10.710 Y13.990 E2.03113
G1 X10.600 Y14.740 E2.04639
G1 X10.470 Y15.240 E2.05679
G1 X10.300 Y15.720 E2.06704
G1 X10.090 Y16.180 E2.07722
G1 X9.970 Y16.410 E2.08245
G1 X9.840 Y16.630 E2.08759
G1 X9.400 Y17.250 E2.10290
G1 X9.060 Y17.630 E2.11317
G1 X8.880 Y17.810 E2.11829
G1 X8.500 Y18.150 E2.12856
G1 X7.880 Y18.590 E2.14386
G1 X7.660 Y18.720 E2.14901
G1 X7.200 Y18.950 E2.15936
G1 X6.730 Y19.140 E2.16957
G1 X6.240 Y19.290 E2.17989
G1 X5.990 Y19.350 E2.18507
G1 X5.240 Y19.460 E2.20033
G1 X4.730 Y19.480 E2.21060
G1 X-5.250 Y19.460 E2.41154
G1 X-6.000 Y19.350 E2.42680
G1 X-6.500 Y19.220 E2.43720
G1 X-6.980 Y19.050 E2.44746
G1 X-7.440 Y18.840 E2.45764
G1 X-7.670 Y18.720 E2.46286
G1 X-7.890 Y18.590 E2.46801
G1 X-8.510 Y18.150 E2.48331
G1 X-8.890 Y17.810 E2.49358
G1 X-9.070 Y17.630 E2.49871
G1 X-9.410 Y17.250 E2.50897
G1 X-9.850 Y16.630 E2.52428
G1 X-9.980 Y16.410 E2.52942
G1 X-10.210 Y15.950 E2.53978
G1 X-10.400 Y15.480 E2.54999
G1 X-10.550 Y14.990 E2.56030
G1 X-10.610 Y14.740 E2.56548
G1 X-10.720 Y13.990 E2.58074
G1 X-10.720 Y-14.000 E3.14429
G1 X-10.610 Y-14.750 E3.15955
G1 X-10.480 Y-15.250 E3.16996
G1 X-10.310 Y-15.730 E3.18021
G1 X-10.100 Y-16.190 E3.19039
G1 X-9.980 Y-16.420 E3.19561
G1 X-9.850 Y-16.640 E3.20076
G1 X-9.410 Y-17.260 E3.21606
G1 X-9.123 Y-17.581 E3.22473
G1 F1800.000 E2.22473
G92 E0
G1 X-1.215 Y5.035 F7800.000
G1 F1800.000 E1.00000
G1 X1.215 Y5.035 F420.000 E1.04894
G1 X1.215 Y6.535 E1.07914
G1 X2.715 Y6.535 E1.10934
G1 X2.715 Y8.965 E1.15828
G1 X1.215 Y8.965 E1.18848
G1 X1.215 Y10.465 E1.21868
G1 X-1.215 Y10.465 E1.26762
G1 X-1.215 Y8.965 E1.29782
G1 X-2.715 Y8.965 E1.32803
G1 X-2.715 Y6.535 E1.37696
G1 X-1.215 Y6.535 E1.40717
G1 X-1.215 Y5.114 E1.43576
G1 X-1.695 Y4.555 F7800.000
G1 X1.695 Y4.555 F420.000 E1.50401
G1 X1.695 Y6.055 E1.53421
G1 X3.195 Y6.055 E1.56441
G1 X3.195 Y9.445 E1.63265
G1 X1.695 Y9.445 E1.66285
G1 X1.695 Y10.945 E1.69305
G1 X-1.695 Y10.945 E1.76130
G1 X-1.695 Y9.445 E1.79150
G1 X-3.195 Y9.445 E1.82170
G1 X-3.195 Y6.055 E1.88994
G1 X-1.695 Y6.055 E1.92014
G1 X-1.695 Y4.635 E1.94874
G1 X-2.174 Y4.076 F7800.000
G1 X2.174 Y4.076 F420.000 E2.03629
G1 X2.174 Y5.576 E2.06649
G1 X3.674 Y5.576 E2.09669
G1 X3.674 Y9.924 E2.18424
G1 X2.174 Y9.924 E2.21444
G1 X2.174 Y11.424 E2.24464
G1 X-2.174 Y11.424 E2.33219
G1 X-2.174 Y9.924 E2.36239
G1 X-3.674 Y9.924 E2.39259
G1 X-3.674 Y5.576 E2.48014
G1 X-2.174 Y5.576 E2.51034
G1 X-2.174 Y4.155 E2.53894
G1 X-1.215 Y2.465 F7800.000
G1 X-1.215 Y0.965 F420.000 E2.56914
G1 X-2.715 Y0.965 E2.59934
G1 X-2.715 Y-1.465 E2.64828
G1 X-1.215 Y-1.465 E2.67848
G1 X-1.215 Y-2.965 E2.70868
G1 X1.215 Y-2.965 E2.75762
G1 X1.215 Y-1.465 E2.78782
G1 X2.715 Y-1.465 E2.81802
G1 X2.715 Y0.965 E2.86696
G1 X1.215 Y0.965 E2.89716
G1 X1.215 Y2.465 E2.92736
G1 X-1.136 Y2.465 E2.97470
G1 X-1.695 Y2.945 F7800.000
G1 X-1.695 Y1.445 F420.000 E3.00490
G1 X-3.195 Y1.445 E3.03510
G1 X-3.195 Y-1.945 E3.10334
G1 X-1.695 Y-1.945 E3.13355
G1 X-1.695 Y-3.445 E3.16375
G1 X1.695 Y-3.445 E3.23199
G1 X1.695 Y-1.945 E3.26219
G1 X3.195 Y-1.945 E3.29239
G1 X3.195 Y1.445 E3.36064
G1 X1.695 Y1.445 E3.39084
G1 X1.695 Y2.945 E3.42104
G1 X-1.615 Y2.945 E3.48768
G1 X-2.174 Y3.424 F7800.000
G1 X-2.174 Y1.924 F420.000 E3.51788
G1 X-3.674 Y1.924 E3.54808
G1 X-3.674 Y-2.424 E3.63563
G1 X-2.174 Y-2.424 E3.66583
G1 X-2.174 Y-3.924 E3.69603
G1 X2.174 Y-3.924 E3.78358
G1 X2.174 Y-2.424 E3.81378
G1 X3.674 Y-2.424 E3.84398
G1 X3.674 Y1.924 E3.93152
G1 X2.174 Y1.924 E3.96173
G1 X2.174 Y3.424 E3.99193
G1 X-2.095 Y3.424 E4.07787
G1 F1800.000 E3.07787
G92 E0
G1 X-1.215 Y-5.535 F7800.000
G1 F1800.000 E1.00000
G1 X-1.215 Y-7.035 F420.000 E1.03020
G1 X-2.715 Y-7.035 E1.06040
G1 X-2.715 Y-9.465 E1.10934
G1 X-1.215 Y-9.465 E1.13954
G1 X-1.215 Y-10.965 E1.16974
G1 X1.215 Y-10.965 E1.21868
G1 X1.215 Y-9.465 E1.24888
G1 X2.715 Y-9.465 E1.27909
G1 X2.715 Y-7.035 E1.32803
G1 X1.215 Y-7.035 E1.35823
G1 X1.215 Y-5.535 E1.38843
G1 X-1.136 Y-5.535 E1.43576
G1 X-1.695 Y-5.055 F7800.000
G1 X-1.695 Y-6.555 F420.000 E1.46597
G1 X-3.195 Y-6.555 E1.49617
G1 X-3.195 Y-9.945 E1.56441
G1 X-1.695 Y-9.945 E1.59461
G1 X-1.695 Y-11.445 E1.62481
G1 X1.695 Y-11.445 E1.69305
G1 X1.695 Y-9.945 E1.72326
G1 X3.195 Y-9.945 E1.75346
G1 X3.195 Y-6.555 E1.82170
G1 X1.695 Y-6.555 E1.85190
G1 X1.695 Y-5.055 E1.88210
G1 X-1.615 Y-5.055 E1.94874
G1 X-2.174 Y-4.576 F7800.000
G1 X-2.174 Y-6.076 F420.000 E1.97894
G1 X-3.674 Y-6.076 E2.00914
G1 X-3.674 Y-10.424 E2.09669
G1 X-2.174 Y-10.424 E2.12689
G1 X-2.174 Y-11.924 E2.15709
G1 X2.174 Y-11.924 E2.24464
G1 X2.174 Y-10.424 E2.27484
G1 X3.674 Y-10.424 E2.30504
G1 X3.674 Y-6.076 E2.39259
G1 X2.174 Y-6.076 E2.42279
G1 X2.174 Y-4.576 E2.45299
G1 X-2.095 Y-4.576 E2.53894
G1 F1800.000 E1.53894
G92 E0
G1 X-3.776 Y-12.526 F7800.000
G1 F1800.000 E1.00000
G1 X3.776 Y-12.526 F900.000 E1.15205
G1 X3.776 Y12.526 E1.65644
G1 X-3.776 Y12.526 E1.80849
G1 X-3.776 Y-12.446 E2.31128
G1 X-4.255 Y-13.005 F7800.000
G1 X4.255 Y-13.005 F900.000 E2.48263
G1 X4.255 Y13.005 E3.00632
G1 X-4.255 Y13.005 E3.17768
G1 X-4.255 Y-12.926 E3.69977
G1 X-4.735 Y-13.485 F7800.000
G1 X4.735 Y-13.485 F900.000 E3.89042
G1 X4.735 Y13.485 E4.43342
G1 X-4.735 Y13.485 E4.62408
G1 X-4.735 Y-13.405 E5.16547
G1 F1800.000 E4.16547
G92 E0
G1 X-3.404 Y10.253 F7800.000
G1 F1800.000 E1.00000
G1 X-2.503 Y11.154 F1800.000 E1.02663
G1 X-2.600 Y11.753 F7800.000
G1 X-2.156 Y12.197 F1800.000 E1.03973
G1 X-1.904 Y11.753 E1.05038
G1 X-1.461 Y12.197 E1.06348
G1 X-1.209 Y11.753 E1.07414
G1 X-0.766 Y12.197 E1.08724
G1 X-0.514 Y11.753 E1.09789
G1 X-0.071 Y12.197 E1.11099
G1 X0.181 Y11.753 E1.12164
G1 X0.624 Y12.197 E1.13474
G1 X0.876 Y11.753 E1.14539
G1 X1.319 Y12.197 E1.15849
G1 X1.571 Y11.753 E1.16915
G1 X2.014 Y12.197 E1.18225
G1 X2.266 Y11.753 E1.19290
G1 X2.709 Y12.197 E1.20600
G1 X3.404 Y12.197 E1.22053
G1 X2.503 Y11.296 E1.24716
G1 X2.503 Y10.600 E1.26168
G1 X3.447 Y11.544 E1.28956
G1 X3.447 Y10.849 E1.30408
G1 X2.851 Y10.253 E1.32167
G1 F1800.000 E0.32167
G92 E0
G1 X-2.503 Y11.850 F7800.000
G1 F1800.000 E1.00000
G1 X-3.447 Y10.906 F1800.000 E1.02788
G1 X-3.447 Y11.601 E1.04240
G1 X-2.851 Y12.197 E1.05999
G1 F1800.000 E0.05999
G92 E0
G1 X-2.857 Y5.247 F7800.000
G1 F1800.000 E1.00000
G1 X-3.447 Y4.657 F1800.000 E1.01721
G1 X-3.447 Y3.968 E1.03144
G1 X-2.503 Y4.911 E1.05898
G1 X-2.503 Y4.222 E1.07321
G1 X-3.447 Y3.278 E1.10074
G1 X-3.447 Y2.589 E1.11497
G1 X-2.503 Y3.532 E1.14251
G1 X-2.503 Y2.843 E1.15674
G1 X-3.093 Y2.253 E1.17395
G1 F1800.000 E0.17395
G92 E0
G1 X2.857 Y2.253 F7800.000
G1 F1800.000 E1.00000
G1 X3.447 Y2.843 F1800.000 E1.01721
G1 X3.447 Y3.532 E1.03144
G1 X2.503 Y2.589 E1.05898
G1 X2.503 Y3.278 E1.07321
G1 X3.447 Y4.222 E1.10074
G1 X3.447 Y4.911 E1.11497
G1 X2.503 Y3.968 E1.14251
G1 X2.503 Y4.657 E1.15674
G1 X3.093 Y5.247 E1.17395
G1 F1800.000 E0.17395
G92 E0
G1 X3.093 Y-2.753 F7800.000
G1 F1800.000 E1.00000
G1 X2.503 Y-3.343 F1800.000 E1.01721
G1 X2.503 Y-4.032 E1.03144
G1 X3.447 Y-3.089 E1.05898
G1 X3.447 Y-3.778 E1.07321
G1 X2.503 Y-4.722 E1.10074
G1 X2.503 Y-5.411 E1.11497
G1 X3.447 Y-4.468 E1.14251
G1 X3.447 Y-5.157 E1.15674
G1 X2.857 Y-5.747 E1.17395
G1 F1800.000 E0.17395
G92 E0
G1 X-3.093 Y-5.747 F7800.000
G1 F1800.000 E1.00000
G1 X-2.503 Y-5.157 F1800.000 E1.01721
G1 X-2.503 Y-4.468 E1.03144
G1 X-3.447 Y-5.411 E1.05898
G1 X-3.447 Y-4.722 E1.07321
G1 X-2.503 Y-3.778 E1.10074
G1 X-2.503 Y-3.089 E1.11497
G1 X-3.447 Y-4.032 E1.14251
G1 X-3.447 Y-3.343 E1.15674
G1 X-2.857 Y-2.753 E1.17395
G1 F1800.000 E0.17395
G92 E0
G1 X-2.684 Y-10.753 F7800.000
G1 F1800.000 E1.00000
G1 X-3.447 Y-11.516 F1800.000 E1.03184
G1 X-3.266 Y-12.197 E1.05266
G1 X-2.503 Y-11.434 E1.08450
G1 F1800.000 E0.08450
G92 E0
G1 X3.266 Y-10.753 F7800.000
G1 F1800.000 E1.00000
G1 X2.503 Y-11.516 F1800.000 E1.03184
G1 X2.684 Y-12.197 E1.05266
G1 X3.447 Y-11.434 E1.08450
G1 F1800.000 E0.08450
G92 E0
G1 Z0.500 F7800.000
G1 X1.215 Y5.035
G1 F1800.000 E1.00000
G1 X1.215 Y6.535 F840.000 E1.03020
G1 X2.715 Y6.535 E1.06040
G1 X2.715 Y8.965 E1.10934
G1 X1.215 Y8.965 E1.13954
G1 X1.215 Y10.465 E1.16974
G1 X-1.215 Y10.465 E1.21868
G1 X-1.215 Y8.965 E1.24888
G1 X-2.715 Y8.965 E1.27909
G1 X-2.715 Y6.535 E1.32803
G1 X-1.215 Y6.535 E1.35823
G1 X-1.215 Y5.035 E1.38843
G1 X1.136 Y5.035 E1.43576
G1 X1.695 Y4.555 F7800.000
G1 X1.695 Y6.055 F840.000 E1.46597
G1 X3.195 Y6.055 E1.49617
G1 X3.195 Y9.445 E1.56441
G1 X1.695 Y9.445 E1.59461
G1 X1.695 Y10.945 E1.62481
G1 X-1.695 Y10.945 E1.69305
G1 X-1.695 Y9.445 E1.72326
G1 X-3.195 Y9.445 E1.75346
G1 X-3.195 Y6.055 E1.82170
G1 X-1.695 Y6.055 E1.85190
G1 X-1.695 Y4.555 E1.88210
G1 X1.615 Y4.555 E1.94874
G1 X2.174 Y4.076 F7800.000
G1 X2.174 Y5.576 F840.000 E1.97894
G1 X3.674 Y5.576 E2.00914
G1 X3.674 Y9.924 E2.09669
G1 X2.174 Y9.924 E2.12689
G1 X2.174 Y11.424 E2.15709
G1 X-2.174 Y11.424 E2.24464
G1 X-2.174 Y9.924 E2.27484
G1 X-3.674 Y9.924 E2.30504
G1 X-3.674 Y5.576 E2.39259
G1 X-2.174 Y5.576 E2.42279
G1 X-2.174 Y4.076 E2.45299
G1 X2.095 Y4.076 E2.53894
G1 X1.215 Y2.465 F7800.000
G1 X-1.215 Y2.465 F840.000 E2.58787
G1 X-1.215 Y0.965 E2.61808
G1 X-2.715 Y0.965 E2.64828
G1 X-2.715 Y-1.465 E2.69722
G1 X-1.215 Y-1.465 E2.72742
G1 X-1.215 Y-2.965 E2.75762
G1 X1.215 Y-2.965 E2.80656
G1 X1.215 Y-1.465 E2.83676
G1 X2.715 Y-1.465 E2.86696
G1 X2.715 Y0.965 E2.91590
G1 X1.215 Y0.965 E2.94610
G1 X1.215 Y2.386 E2.97470
G1 X1.695 Y2.945 F7800.000
G1 X-1.695 Y2.945 F840.000 E3.04294
G1 X-1.695 Y1.445 E3.07314
G1 X-3.195 Y1.445 E3.10334
G1 X-3.195 Y-1.945 E3.17159
G1 X-1.695 Y-1.945 E3.20179
G1 X-1.695 Y-3.445 E3.23199
G1 X1.695 Y-3.445 E3.30023
G1 X1.695 Y-1.945 E3.33043
G1 X3.195 Y-1.945 E3.36064
G1 X3.195 Y1.445 E3.42888
G1 X1.695 Y1.445 E3.45908
G1 X1.695 Y2.865 E3.48768
G1 X2.174 Y3.424 F7800.000
G1 X-2.174 Y3.424 F840.000 E3.57522
G1 X-2.174 Y1.924 E3.60543
G1 X-3.674 Y1.924 E3.63563
G1 X-3.674 Y-2.424 E3.72317
G1 X-2.174 Y-2.424 E3.75337
G1 X-2.174 Y-3.924 E3.78358
G1 X2.174 Y-3.924 E3.87112
G1 X2.174 Y-2.424 E3.90132
G1 X3.674 Y-2.424 E3.93152
G1 X3.674 Y1.924 E4.01907
G1 X2.174 Y1.924 E4.04927
G1 X2.174 Y3.345 E4.07787
G1 F1800.000 E3.07787
G92 E0
G1 X1.215 Y-5.535 F7800.000
G1 F1800.000 E1.00000
G1 X-1.215 Y-5.535 F840.000 E1.04894
G1 X-1.215 Y-7.035 E1.07914
G1 X-2.715 Y-7.035 E1.10934
G1 X-2.715 Y-9.465 E1.15828
G1 X-1.215 Y-9.465 E1.18848
G1 X-1.215 Y-10.965 E1.21868
G1 X1.215 Y-10.965 E1.26762
G1 X1.215 Y-9.465 E1.29782
G1 X2.715 Y-9.465 E1.32803
G1 X2.715 Y-7.035 E1.37697
G1 X1.215 Y-7.035 E1.40717
G1 X1.215 Y-5.614 E1.43576
G1 X1.695 Y-5.055 F7800.000
G1 X-1.695 Y-5.055 F840.000 E1.50401
G1 X-1.695 Y-6.555 E1.53421
G1 X-3.195 Y-6.555 E1.56441
G1 X-3.195 Y-9.945 E1.63265
G1 X-1.695 Y-9.945 E1.66285
G1 X-1.695 Y-11.445 E1.69305
G1 X1.695 Y-11.445 E1.76130
G1 X1.695 Y-9.945 E1.79150
G1 X3.195 Y-9.945 E1.82170
G1 X3.195 Y-6.555 E1.88994
G1 X1.695 Y-6.555 E1.92014
G1 X1.695 Y-5.135 E1.94874
G1 X2.174 Y-4.576 F7800.000
G1 X-2.174 Y-4.576 F840.000 E2.03629
G1 X-2.174 Y-6.076 E2.06649
G1 X-3.674 Y-6.076 E2.09669
G1 X-3.674 Y-10.424 E2.18424
G1 X-2.174 Y-10.424 E2.21444
G1 X-2.174 Y-11.924 E2.24464
G1 X2.174 Y-11.924 E2.33219
G1 X2.174 Y-10.424 E2.36239
G1 X3.674 Y-10.424 E2.39259
G1 X3.674 Y-6.076 E2.48014
G1 X2.174 Y-6.076 E2.51034
G1 X2.174 Y-4.655 E2.53894
G1 F1800.000 E1.53894
G92 E0
G1 X3.776 Y-12.526 F7800.000
G1 F1800.000 E1.00000
G1 X3.776 Y12.526 F1800.000 E1.50439
G1 X-3.776 Y12.526 E1.65644
G1 X-3.776 Y-12.526 E2.16083
G1 X3.696 Y-12.526 E2.31128
G1 X4.255 Y-13.005 F7800.000
G1 X4.255 Y13.005 F1800.000 E2.83497
G1 X-4.255 Y13.005 E3.00632
G1 X-4.255 Y-13.005 E3.53002
G1 X4.176 Y-13.005 E3.69977
G1 X4.735 Y-13.485 F7800.000
G1 X4.735 Y13.485 F1800.000 E4.24277
G1 X-4.735 Y13.485 E4.43342
G1 X-4.735 Y-13.485 E4.97642
G1 X4.655 Y-13.485 E5.16547
G1 F1800.000 E4.16547
G92 E0
G1 X2.503 Y11.154 F7800.000
G1 F1800.000 E1.00000
G1 X3.404 Y10.253 F3600.000 E1.02663
G1 X3.447 Y10.906 E1.04030
G1 X2.503 Y11.850 E1.06818
G1 X2.851 Y12.197 E1.07845
G1 X3.447 Y11.601 E1.09604
G1 X2.600 Y11.753 F7800.000
G1 X2.156 Y12.197 F3600.000 E1.10914
G1 X1.904 Y11.753 E1.11980
G1 X1.461 Y12.197 E1.13290
G1 X1.209 Y11.753 E1.14355
G1 X0.766 Y12.197 E1.15665
G1 X0.514 Y11.753 E1.16731
G1 X0.071 Y12.197 E1.18041
G1 X-0.181 Y11.753 E1.19106
G1 X-0.624 Y12.197 E1.20416
G1 X-0.876 Y11.753 E1.21481
G1 X-1.319 Y12.197 E1.22791
G1 X-1.571 Y11.753 E1.23857
G1 X-2.014 Y12.197 E1.25167
G1 X-2.266 Y11.753 E1.26232
G1 X-2.709 Y12.197 E1.27542
G1 X-3.404 Y12.197 E1.28995
G1 X-2.503 Y11.296 E1.31658
G1 X-2.503 Y10.600 E1.33110
G1 X-3.447 Y11.544 E1.35898
G1 X-3.447 Y10.849 E1.37351
G1 X-2.851 Y10.253 E1.39110
G1 F1800.000 E0.39110
G92 E0
G1 X-2.503 Y4.657 F7800.000
G1 F1800.000 E1.00000
G1 X-3.093 Y5.247 F3600.000 E1.01721
G1 X-3.447 Y4.911 E1.02728
G1 X-2.503 Y3.968 E1.05481
G1 X-2.503 Y3.278 E1.06904
G1 X-3.447 Y4.222 E1.09658
G1 X-3.447 Y3.532 E1.11081
G1 X-2.503 Y2.589 E1.13835
G1 X-2.857 Y2.253 E1.14841
G1 X-3.447 Y2.843 E1.16563
G1 F1800.000 E0.16563
G92 E0
G1 X2.503 Y2.843 F7800.000
G1 F1800.000 E1.00000
G1 X3.093 Y2.253 F3600.000 E1.01721
G1 X3.447 Y2.589 E1.02728
G1 X2.503 Y3.532 E1.05481
G1 X2.503 Y4.222 E1.06904
G1 X3.447 Y3.278 E1.09658
G1 X3.447 Y3.968 E1.11081
G1 X2.503 Y4.911 E1.13835
G1 X2.857 Y5.247 E1.14841
G1 X3.447 Y4.657 E1.16563
G1 F1800.000 E0.16563
G92 E0
G1 X3.447 Y-3.343 F7800.000
G1 F1800.000 E1.00000
G1 X2.857 Y-2.753 F3600.000 E1.01721
G1 X2.503 Y-3.089 E1.02728
G1 X3.447 Y-4.032 E1.05481
G1 X3.447 Y-4.722 E1.06904
G1 X2.503 Y-3.778 E1.09658
G1 X2.503 Y-4.468 E1.11081
G1 X3.447 Y-5.411 E1.13835
G1 X3.093 Y-5.747 E1.14841
G1 X2.503 Y-5.157 E1.16563
G1 F1800.000 E0.16563
G92 E0
G1 X-2.503 Y-3.343 F7800.000
G1 F1800.000 E1.00000
G1 X-3.093 Y-2.753 F3600.000 E1.01721
G1 X-3.447 Y-3.089 E1.02728
G1 X-2.503 Y-4.032 E1.05481
G1 X-2.503 Y-4.722 E1.06904
G1 X-3.447 Y-3.778 E1.09658
G1 X-3.447 Y-4.468 E1.11081
G1 X-2.503 Y-5.411 E1.13835
