; generated by Slic3r 0.7.1-dev on 2012-03-09 at 10:16:47

; layer_height = 0.25
; perimeters = 3
; solid_layers = 3
; fill_density = 0.50
; nozzle_diameter = 0.4
; filament_diameter = 2.819
; extrusion_multiplier = 1
; perimeter_speed = 30
; infill_speed = 60
; travel_speed = 130
; extrusion_width_ratio = 0
; scale = 1
; single wall width = 0.53mm

M104 S220 ; set temperature
;
; Thing-O-Matic w/sjfw 1.11
; start.gcode
;
G21 ; set units to mm
G90 ; absoulte distances
; Dry run?
; P0 = normal P1 = no heat
M351 P0 
; Begin heating
M104 S220 ; extruder head
M140 S110 ; HBP
;
; Coarse home axes
; Set zero at limits for convenience
;
G1 Z999 F1500 ; home Z to get nozzle out of danger zone
G92 Z0
G1 Y-999 F4000 ; retract Y to get X out of front opening
G92 Y0
G1 X-999 F4000 ; now safe to home X
G92 X0
;
; Set actual offsets!
; Back off switches.
;
G1 X2 Y2 Z-2 F5000 
G1 Z999 F50
G92 Z121.3
G1 Y-999 F50
G92 Y-58.5
G1 X-999 F50
G92 X-58.5
;
; Extrude a turd then retract.
;
G1 X-50 Y55 Z.5 F10000
M116 ; wait for heat
G91 ; relative distances
G1 F4 ; set slow rate
G1 E3 ; extrude enough to get good pressure
G1 F4000 ; set for fast retract
G1 E-1 ; retract
;
; End of start.gcode
;
M109 S220 ; wait for temperature to be reached
G90 ; use absolute coordinates
G21 ; set units to millimeters
G92 E0 ; reset extrusion distance
M82 ; use absolute distances for extrusion
G1 Z0.250 F7800.000
G1 X-13.270 Y-17.390
G1 F1800.000 E1.00000
G1 X-13.090 Y-17.570 F900.000 E1.00513
G1 X-12.710 Y-17.910 E1.01539
G1 X-12.090 Y-18.350 E1.03070
G1 X-11.870 Y-18.480 E1.03584
G1 X-11.410 Y-18.710 E1.04620
G1 X-10.940 Y-18.900 E1.05641
G1 X-10.450 Y-19.050 E1.06672
G1 X-10.200 Y-19.110 E1.07190
G1 X-9.450 Y-19.220 E1.08716
G1 X-8.940 Y-19.240 E1.09744
G1 X9.440 Y-19.220 E1.46750
G1 X10.190 Y-19.110 E1.48276
G1 X10.690 Y-18.980 E1.49316
G1 X11.170 Y-18.810 E1.50342
G1 X11.630 Y-18.600 E1.51360
G1 X11.860 Y-18.480 E1.51882
G1 X12.080 Y-18.350 E1.52397
G1 X12.700 Y-17.910 E1.53927
G1 X13.080 Y-17.570 E1.54954
G1 X13.260 Y-17.390 E1.55467
G1 X13.600 Y-17.010 E1.56493
G1 X14.040 Y-16.390 E1.58024
G1 X14.170 Y-16.170 E1.58538
G1 X14.400 Y-15.710 E1.59574
G1 X14.590 Y-15.240 E1.60595
G1 X14.740 Y-14.750 E1.61626
G1 X14.800 Y-14.500 E1.62144
G1 X14.910 Y-13.750 E1.63670
G1 X14.910 Y13.740 E2.19018
G1 X14.800 Y14.490 E2.20545
G1 X14.670 Y14.990 E2.21585
G1 X14.500 Y15.470 E2.22610
G1 X14.290 Y15.930 E2.23628
G1 X14.170 Y16.160 E2.24151
G1 X14.040 Y16.380 E2.24665
G1 X13.600 Y17.000 E2.26196
G1 X13.260 Y17.380 E2.27222
G1 X13.080 Y17.560 E2.27735
G1 X12.700 Y17.900 E2.28762
G1 X12.080 Y18.340 E2.30292
G1 X11.860 Y18.470 E2.30807
G1 X11.400 Y18.700 E2.31842
G1 X10.930 Y18.890 E2.32863
G1 X10.440 Y19.040 E2.33895
G1 X10.190 Y19.100 E2.34412
G1 X9.440 Y19.210 E2.35939
G1 X8.930 Y19.230 E2.36966
G1 X-9.450 Y19.210 E2.73972
G1 X-10.200 Y19.100 E2.75499
G1 X-10.700 Y18.970 E2.76539
G1 X-11.180 Y18.800 E2.77564
G1 X-11.640 Y18.590 E2.78582
G1 X-11.870 Y18.470 E2.79105
G1 X-12.090 Y18.340 E2.79619
G1 X-12.710 Y17.900 E2.81150
G1 X-13.090 Y17.560 E2.82176
G1 X-13.270 Y17.380 E2.82689
G1 X-13.610 Y17.000 E2.83716
G1 X-14.050 Y16.380 E2.85246
G1 X-14.180 Y16.160 E2.85761
G1 X-14.410 Y15.700 E2.86796
G1 X-14.600 Y15.230 E2.87817
G1 X-14.750 Y14.740 E2.88849
G1 X-14.810 Y14.490 E2.89366
G1 X-14.920 Y13.740 E2.90893
G1 X-14.920 Y-13.750 E3.46241
G1 X-14.810 Y-14.500 E3.47767
G1 X-14.680 Y-15.000 E3.48807
G1 X-14.510 Y-15.480 E3.49832
G1 X-14.300 Y-15.940 E3.50851
G1 X-14.180 Y-16.170 E3.51373
G1 X-14.050 Y-16.390 E3.51887
G1 X-13.610 Y-17.010 E3.53418
G1 X-13.323 Y-17.331 E3.54285
G1 F1800.000 E2.54285
G92 E0
G1 X2.635 Y5.335 F7800.000
G1 F1800.000 E1.00000
G1 X4.935 Y5.335 F390.000 E1.04632
G1 X4.935 Y6.835 E1.07652
G1 X6.465 Y6.835 E1.10733
G1 X6.465 Y9.165 E1.15425
G1 X4.935 Y9.165 E1.18506
G1 X4.935 Y10.665 E1.21526
G1 X2.635 Y10.665 E1.26158
G1 X2.635 Y9.165 E1.29178
G1 X1.135 Y9.165 E1.32199
G1 X1.135 Y6.835 E1.36891
G1 X2.635 Y6.835 E1.39911
G1 X2.635 Y5.414 E1.42771
G1 X2.155 Y4.855 F7800.000
G1 X5.415 Y4.855 F390.000 E1.49334
G1 X5.415 Y6.355 E1.52354
G1 X6.945 Y6.355 E1.55434
G1 X6.945 Y9.645 E1.62057
G1 X5.415 Y9.645 E1.65138
G1 X5.415 Y11.145 E1.68158
G1 X2.155 Y11.145 E1.74720
G1 X2.155 Y9.645 E1.77741
G1 X0.655 Y9.645 E1.80761
G1 X0.655 Y6.355 E1.87384
G1 X2.155 Y6.355 E1.90404
G1 X2.155 Y4.935 E1.93264
G1 X1.676 Y4.376 F7800.000
G1 X5.894 Y4.376 F390.000 E2.01756
G1 X5.894 Y5.876 E2.04777
G1 X7.424 Y5.876 E2.07857
G1 X7.424 Y10.124 E2.16410
G1 X5.894 Y10.124 E2.19491
G1 X5.894 Y11.624 E2.22511
G1 X1.676 Y11.624 E2.31004
G1 X1.676 Y10.124 E2.34024
G1 X0.176 Y10.124 E2.37044
G1 X0.176 Y5.876 E2.45598
G1 X1.676 Y5.876 E2.48618
G1 X1.676 Y4.455 E2.51477
G1 F1800.000 E1.51477
G92 E0
G1 X-1.535 Y6.835 F7800.000
G1 F1800.000 E1.00000
G1 X-1.535 Y9.165 F390.000 E1.04693
G1 X-3.065 Y9.165 E1.07773
G1 X-3.065 Y10.665 E1.10793
G1 X-5.365 Y10.665 E1.15425
G1 X-5.365 Y9.165 E1.18446
G1 X-6.865 Y9.165 E1.21466
G1 X-6.865 Y6.835 E1.26158
G1 X-5.365 Y6.835 E1.29178
G1 X-5.365 Y5.335 E1.32198
G1 X-3.065 Y5.335 E1.36831
G1 X-3.065 Y6.835 E1.39851
G1 X-1.614 Y6.835 E1.42771
G1 X-1.055 Y6.355 F7800.000
G1 X-1.055 Y9.645 F390.000 E1.49394
G1 X-2.585 Y9.645 E1.52475
G1 X-2.585 Y11.145 E1.55495
G1 X-5.845 Y11.145 E1.62057
G1 X-5.845 Y9.645 E1.65077
G1 X-7.345 Y9.645 E1.68097
G1 X-7.345 Y6.355 E1.74720
G1 X-5.845 Y6.355 E1.77741
G1 X-5.845 Y4.855 E1.80761
G1 X-2.585 Y4.855 E1.87323
G1 X-2.585 Y6.355 E1.90343
G1 X-1.135 Y6.355 E1.93264
G1 X-0.576 Y5.876 F7800.000
G1 X-0.576 Y10.124 F390.000 E2.01817
G1 X-2.106 Y10.124 E2.04897
G1 X-2.106 Y11.624 E2.07917
G1 X-6.324 Y11.624 E2.16410
G1 X-6.324 Y10.124 E2.19431
G1 X-7.824 Y10.124 E2.22451
G1 X-7.824 Y5.876 E2.31004
G1 X-6.324 Y5.876 E2.34024
G1 X-6.324 Y4.376 E2.37044
G1 X-2.106 Y4.376 E2.45537
G1 X-2.106 Y5.876 E2.48557
G1 X-0.655 Y5.876 E2.51477
G1 F1800.000 E1.51477
G92 E0
G1 X-3.065 Y2.665 F7800.000
G1 F1800.000 E1.00000
G1 X-5.365 Y2.665 F390.000 E1.04632
G1 X-5.365 Y1.165 E1.07652
G1 X-6.865 Y1.165 E1.10672
G1 X-6.865 Y-1.165 E1.15365
G1 X-5.365 Y-1.165 E1.18385
G1 X-5.365 Y-2.665 E1.21405
G1 X-3.065 Y-2.665 E1.26038
G1 X-3.065 Y-1.165 E1.29058
G1 X-1.535 Y-1.165 E1.32138
G1 X-1.535 Y1.165 E1.36831
G1 X-3.065 Y1.165 E1.39911
G1 X-3.065 Y2.586 E1.42771
G1 X-2.585 Y3.145 F7800.000
G1 X-5.845 Y3.145 F390.000 E1.49334
G1 X-5.845 Y1.645 E1.52354
G1 X-7.345 Y1.645 E1.55374
G1 X-7.345 Y-1.645 E1.61997
G1 X-5.845 Y-1.645 E1.65017
G1 X-5.845 Y-3.145 E1.68037
G1 X-2.585 Y-3.145 E1.74600
G1 X-2.585 Y-1.645 E1.77620
G1 X-1.055 Y-1.645 E1.80700
G1 X-1.055 Y1.645 E1.87323
G1 X-2.585 Y1.645 E1.90404
G1 X-2.585 Y3.065 E1.93264
G1 X-2.106 Y3.624 F7800.000
G1 X-6.324 Y3.624 F390.000 E2.01756
G1 X-6.324 Y2.124 E2.04777
G1 X-7.824 Y2.124 E2.07797
G1 X-7.824 Y-2.124 E2.16350
G1 X-6.324 Y-2.124 E2.19370
G1 X-6.324 Y-3.624 E2.22390
G1 X-2.106 Y-3.624 E2.30883
G1 X-2.106 Y-2.124 E2.33903
G1 X-0.576 Y-2.124 E2.36984
G1 X-0.576 Y2.124 E2.45537
G1 X-2.106 Y2.124 E2.48618
G1 X-2.106 Y3.545 E2.51477
G1 F1800.000 E1.51477
G92 E0
G1 X-3.065 Y-5.335 F7800.000
G1 F1800.000 E1.00000
G1 X-5.365 Y-5.335 F390.000 E1.04632
G1 X-5.365 Y-6.835 E1.07652
G1 X-6.865 Y-6.835 E1.10672
G1 X-6.865 Y-9.165 E1.15365
G1 X-5.365 Y-9.165 E1.18385
G1 X-5.365 Y-10.665 E1.21405
G1 X-3.065 Y-10.665 E1.26038
G1 X-3.065 Y-9.165 E1.29058
G1 X-1.535 Y-9.165 E1.32138
G1 X-1.535 Y-6.835 E1.36831
G1 X-3.065 Y-6.835 E1.39911
G1 X-3.065 Y-5.414 E1.42771
G1 X-2.585 Y-4.855 F7800.000
G1 X-5.845 Y-4.855 F390.000 E1.49334
G1 X-5.845 Y-6.355 E1.52354
G1 X-7.345 Y-6.355 E1.55374
G1 X-7.345 Y-9.645 E1.61997
G1 X-5.845 Y-9.645 E1.65017
G1 X-5.845 Y-11.145 E1.68037
G1 X-2.585 Y-11.145 E1.74600
G1 X-2.585 Y-9.645 E1.77620
G1 X-1.055 Y-9.645 E1.80700
G1 X-1.055 Y-6.355 E1.87323
G1 X-2.585 Y-6.355 E1.90404
G1 X-2.585 Y-4.935 E1.93264
G1 X-2.106 Y-4.376 F7800.000
G1 X-6.324 Y-4.376 F390.000 E2.01756
G1 X-6.324 Y-5.876 E2.04777
G1 X-7.824 Y-5.876 E2.07797
G1 X-7.824 Y-10.124 E2.16350
G1 X-6.324 Y-10.124 E2.19370
G1 X-6.324 Y-11.624 E2.22390
G1 X-2.106 Y-11.624 E2.30883
G1 X-2.106 Y-10.124 E2.33903
G1 X-0.576 Y-10.124 E2.36984
G1 X-0.576 Y-5.876 E2.45537
G1 X-2.106 Y-5.876 E2.48618
G1 X-2.106 Y-4.455 E2.51477
G1 F1800.000 E1.51477
G92 E0
G1 X0.076 Y-12.276 F7800.000
G1 F1800.000 E1.00000
G1 X0.076 Y3.724 F900.000 E1.32214
G1 X7.524 Y3.724 E1.47211
G1 X7.524 Y-12.276 E1.79425
G1 X7.976 Y-12.276 E1.80335
G1 X7.976 Y12.276 E2.29767
G1 X-7.976 Y12.276 E2.61884
G1 X-7.976 Y-12.276 E3.11317
G1 X-0.004 Y-12.276 E3.27368
G1 X0.555 Y-12.755 F7800.000
G1 X0.555 Y3.245 F900.000 E3.59583
G1 X7.045 Y3.245 E3.72648
G1 X7.045 Y-12.755 E4.04863
G1 X8.455 Y-12.755 E4.07703
G1 X8.455 Y12.755 E4.59066
G1 X-8.455 Y12.755 E4.93113
G1 X-8.455 Y-12.755 E5.44476
G1 X0.476 Y-12.755 E5.62458
G1 X1.035 Y-13.235 F7800.000
G1 X1.035 Y2.765 F900.000 E5.94672
G1 X6.565 Y2.765 E6.05808
G1 X6.565 Y-13.235 E6.38022
G1 X8.935 Y-13.235 E6.42792
G1 X8.935 Y13.235 E6.96086
G1 X-8.935 Y13.235 E7.32064
G1 X-8.935 Y-13.235 E7.85357
G1 X0.955 Y-13.235 E8.05269
G1 F1800.000 E7.05269
G92 E0
G1 X1.347 Y11.042 F7800.000
G1 F1800.000 E1.00000
G1 X0.758 Y10.453 F1800.000 E1.01712
G1 X0.070 Y10.453 E1.03128
G1 X1.347 Y11.730 E1.06843
G1 X0.876 Y11.947 E1.07911
G1 X-0.618 Y10.453 E1.12257
G1 X-1.306 Y10.453 E1.13673
G1 X0.188 Y11.947 E1.18020
G1 X-0.500 Y11.947 E1.19436
G1 X-1.777 Y10.670 E1.23151
G1 X-1.777 Y11.358 E1.24567
G1 X-1.188 Y11.947 E1.26279
G1 F1800.000 E0.26279
G92 E0
G1 X-6.653 Y11.249 F7800.000
G1 F1800.000 E1.00000
G1 X-7.449 Y10.453 F1800.000 E1.03536
G1 X-7.647 Y11.151 E1.05815
G1 X-6.851 Y11.947 E1.09351
G1 F1800.000 E0.09351
G92 E0
G1 X-7.032 Y5.547 F7800.000
G1 F1800.000 E1.00000
G1 X-7.647 Y4.932 F1800.000 E1.01891
G1 X-7.647 Y4.218 E1.03445
G1 X-6.653 Y5.211 E1.06501
G1 X-6.653 Y4.497 E1.08055
G1 X-7.647 Y3.503 E1.11110
G1 X-7.647 Y2.789 E1.12664
G1 X-6.653 Y3.782 E1.15720
G1 X-6.653 Y3.068 E1.17274
G1 X-7.268 Y2.453 E1.19165
G1 F1800.000 E0.19165
G92 E0
G1 X-1.188 Y5.547 F7800.000
G1 F1800.000 E1.00000
G1 X-1.777 Y4.958 F1800.000 E1.01712
G1 X-1.777 Y4.270 E1.03128
G1 X-0.500 Y5.547 E1.06843
G1 X0.188 Y5.547 E1.08259
G1 X-1.777 Y3.582 E1.13977
G1 X-1.777 Y2.894 E1.15393
G1 X0.876 Y5.547 E1.23113
G1 X1.347 Y5.330 E1.24181
G1 X0.070 Y4.053 E1.27896
G1 X-0.253 Y3.730 F7800.000
G1 X-1.530 Y2.453 F1800.000 E1.31611
G1 X-0.842 Y2.453 E1.33027
G1 X-0.253 Y3.042 E1.34739
G1 X0.758 Y4.053 F7800.000
G1 X1.347 Y4.642 F1800.000 E1.36451
G1 F1800.000 E0.36451
G92 E0
G1 X6.903 Y5.547 F7800.000
G1 F1800.000 E1.00000
G1 X6.223 Y4.867 F1800.000 E1.02386
G1 X6.223 Y4.088 E1.04320
G1 X7.647 Y5.512 E1.09319
G1 X7.647 Y4.733 E1.11254
G1 X6.967 Y4.053 E1.13640
G1 F1800.000 E0.13640
G92 E0
G1 X6.967 Y10.453 F7800.000
G1 F1800.000 E1.00000
G1 X7.647 Y11.133 F1800.000 E1.02386
G1 X7.647 Y11.912 E1.04320
G1 X6.223 Y10.488 E1.09319
G1 X6.223 Y11.267 E1.11254
G1 X6.903 Y11.947 E1.13640
G1 F1800.000 E0.13640
G92 E0
G1 X-1.188 Y-2.453 F7800.000
G1 F1800.000 E1.00000
G1 X-1.777 Y-3.042 F1800.000 E1.01712
G1 X-1.777 Y-3.730 E1.03128
G1 X-0.500 Y-2.453 E1.06843
G1 X-0.253 Y-2.894 E1.07884
G1 X-1.777 Y-4.418 E1.12318
G1 X-1.777 Y-5.106 E1.13734
G1 X-0.253 Y-3.582 E1.18168
G1 X-0.253 Y-4.270 E1.19584
G1 X-1.530 Y-5.547 E1.23299
G1 X-0.842 Y-5.547 E1.24715
G1 X-0.253 Y-4.958 E1.26427
G1 F1800.000 E0.26427
G92 E0
G1 X-7.268 Y-5.547 F7800.000
G1 F1800.000 E1.00000
G1 X-6.653 Y-4.932 F1800.000 E1.01891
G1 X-6.653 Y-4.218 E1.03445
G1 X-7.647 Y-5.211 E1.06501
G1 X-7.647 Y-4.497 E1.08055
G1 X-6.653 Y-3.503 E1.11110
G1 X-6.653 Y-2.789 E1.12665
G1 X-7.647 Y-3.782 E1.15720
G1 X-7.647 Y-3.068 E1.17274
G1 X-7.032 Y-2.453 E1.19165
G1 F1800.000 E0.19165
G92 E0
G1 X-6.851 Y-10.453 F7800.000
G1 F1800.000 E1.00000
G1 X-7.647 Y-11.249 F1800.000 E1.03536
G1 X-7.449 Y-11.947 E1.05815
G1 X-6.653 Y-11.151 E1.09351
G1 F1800.000 E0.09351
G92 E0
G1 X-1.072 Y-10.453 F7800.000
G1 F1800.000 E1.00000
G1 X-1.777 Y-11.158 F1800.000 E1.02615
G1 X-1.762 Y-11.947 E1.04686
G1 X-0.268 Y-10.453 E1.10230
G1 X-0.253 Y-11.242 E1.12302
G1 X-0.958 Y-11.947 E1.14916
G1 F1800.000 E0.14916
G92 E0
G1 X-5.980 Y9.780 F7800.000
G1 F1800.000 E1.00000
G1 X-5.980 Y9.780 F1800.000 E1.00000
G1 F1800.000 E0.00000
G92 E0
G1 Z0.500 F7800.000
G1 X1.135 Y9.165
G1 F1800.000 E1.00000
G1 X1.135 Y6.835 F780.000 E1.04693
G1 X2.635 Y6.835 E1.07713
G1 X2.635 Y5.335 E1.10733
G1 X4.935 Y5.335 E1.15365
G1 X4.935 Y6.835 E1.18385
G1 X6.465 Y6.835 E1.21466
G1 X6.465 Y9.165 E1.26158
G1 X4.935 Y9.165 E1.29239
G1 X4.935 Y10.665 E1.32259
G1 X2.635 Y10.665 E1.36891
G1 X2.635 Y9.165 E1.39911
G1 X1.214 Y9.165 E1.42771
G1 X0.655 Y9.645 F7800.000
G1 X0.655 Y6.355 F780.000 E1.49394
G1 X2.155 Y6.355 E1.52414
G1 X2.155 Y4.855 E1.55434
G1 X5.415 Y4.855 E1.61997
G1 X5.415 Y6.355 E1.65017
G1 X6.945 Y6.355 E1.68097
G1 X6.945 Y9.645 E1.74720
G1 X5.415 Y9.645 E1.77801
G1 X5.415 Y11.145 E1.80821
G1 X2.155 Y11.145 E1.87384
G1 X2.155 Y9.645 E1.90404
G1 X0.735 Y9.645 E1.93264
G1 X0.176 Y10.124 F7800.000
G1 X0.176 Y5.876 F780.000 E2.01817
G1 X1.676 Y5.876 E2.04837
G1 X1.676 Y4.376 E2.07857
G1 X5.894 Y4.376 E2.16350
G1 X5.894 Y5.876 E2.19370
G1 X7.424 Y5.876 E2.22451
G1 X7.424 Y10.124 E2.31004
G1 X5.894 Y10.124 E2.34084
G1 X5.894 Y11.624 E2.37105
G1 X1.676 Y11.624 E2.45598
G1 X1.676 Y10.124 E2.48618
G1 X0.255 Y10.124 E2.51477
G1 F1800.000 E1.51477
G92 E0
G1 X-1.535 Y9.165 F7800.000
G1 F1800.000 E1.00000
G1 X-3.065 Y9.165 F780.000 E1.03081
G1 X-3.065 Y10.665 E1.06101
G1 X-5.365 Y10.665 E1.10733
G1 X-5.365 Y9.165 E1.13753
G1 X-6.865 Y9.165 E1.16773
G1 X-6.865 Y6.835 E1.21466
G1 X-5.365 Y6.835 E1.24486
G1 X-5.365 Y5.335 E1.27506
G1 X-3.065 Y5.335 E1.32138
G1 X-3.065 Y6.835 E1.35158
G1 X-1.535 Y6.835 E1.38239
G1 X-1.535 Y9.086 E1.42771
G1 X-1.055 Y9.645 F7800.000
G1 X-2.585 Y9.645 F780.000 E1.45852
G1 X-2.585 Y11.145 E1.48872
G1 X-5.845 Y11.145 E1.55434
G1 X-5.845 Y9.645 E1.58454
G1 X-7.345 Y9.645 E1.61474
G1 X-7.345 Y6.355 E1.68097
G1 X-5.845 Y6.355 E1.71118
G1 X-5.845 Y4.855 E1.74138
G1 X-2.585 Y4.855 E1.80700
G1 X-2.585 Y6.355 E1.83720
G1 X-1.055 Y6.355 E1.86801
G1 X-1.055 Y9.565 E1.93264
G1 X-0.576 Y10.124 F7800.000
G1 X-2.106 Y10.124 F780.000 E1.96344
G1 X-2.106 Y11.624 E1.99364
G1 X-6.324 Y11.624 E2.07857
G1 X-6.324 Y10.124 E2.10877
G1 X-7.824 Y10.124 E2.13897
G1 X-7.824 Y5.876 E2.22451
G1 X-6.324 Y5.876 E2.25471
G1 X-6.324 Y4.376 E2.28491
G1 X-2.106 Y4.376 E2.36984
G1 X-2.106 Y5.876 E2.40004
G1 X-0.576 Y5.876 E2.43084
G1 X-0.576 Y10.045 E2.51477
G1 F1800.000 E1.51477
G92 E0
G1 X-3.065 Y2.665 F7800.000
G1 F1800.000 E1.00000
G1 X-5.365 Y2.665 F780.000 E1.04632
G1 X-5.365 Y1.165 E1.07652
G1 X-6.865 Y1.165 E1.10672
G1 X-6.865 Y-1.165 E1.15365
G1 X-5.365 Y-1.165 E1.18385
G1 X-5.365 Y-2.665 E1.21405
G1 X-3.065 Y-2.665 E1.26038
G1 X-3.065 Y-1.165 E1.29058
G1 X-1.535 Y-1.165 E1.32138
G1 X-1.535 Y1.165 E1.36831
G1 X-3.065 Y1.165 E1.39911
G1 X-3.065 Y2.586 E1.42771
G1 X-2.585 Y3.145 F7800.000
G1 X-5.845 Y3.145 F780.000 E1.49334
G1 X-5.845 Y1.645 E1.52354
G1 X-7.345 Y1.645 E1.55374
G1 X-7.345 Y-1.645 E1.61997
G1 X-5.845 Y-1.645 E1.65017
G1 X-5.845 Y-3.145 E1.68037
G1 X-2.585 Y-3.145 E1.74600
G1 X-2.585 Y-1.645 E1.77620
G1 X-1.055 Y-1.645 E1.80700
G1 X-1.055 Y1.645 E1.87323
G1 X-2.585 Y1.645 E1.90404
G1 X-2.585 Y3.065 E1.93264
G1 X-2.106 Y3.624 F7800.000
G1 X-6.324 Y3.624 F780.000 E2.01756
G1 X-6.324 Y2.124 E2.04777
G1 X-7.824 Y2.124 E2.07797
G1 X-7.824 Y-2.124 E2.16350
G1 X-6.324 Y-2.124 E2.19370
G1 X-6.324 Y-3.624 E2.22390
G1 X-2.106 Y-3.624 E2.30883
G1 X-2.106 Y-2.124 E2.33903
G1 X-0.576 Y-2.124 E2.36984
G1 X-0.576 Y2.124 E2.45537
G1 X-2.106 Y2.124 E2.48618
G1 X-2.106 Y3.545 E2.51477
G1 F1800.000 E1.51477
G92 E0
G1 X-3.065 Y-5.335 F7800.000
G1 F1800.000 E1.00000
G1 X-5.365 Y-5.335 F780.000 E1.04632
G1 X-5.365 Y-6.835 E1.07652
G1 X-6.865 Y-6.835 E1.10672
G1 X-6.865 Y-9.165 E1.15365
G1 X-5.365 Y-9.165 E1.18385
G1 X-5.365 Y-10.665 E1.21405
G1 X-3.065 Y-10.665 E1.26038
G1 X-3.065 Y-9.165 E1.29058
G1 X-1.535 Y-9.165 E1.32138
G1 X-1.535 Y-6.835 E1.36831
G1 X-3.065 Y-6.835 E1.39911
G1 X-3.065 Y-5.414 E1.42771
G1 X-2.585 Y-4.855 F7800.000
